( Klipper 5X Mill - Generated by Mastercam )
M109 S220
M190 S60
G90
M83
M106 S2
G0 X0. Y0. C0. B0.
X-3.644 Y14.798 Z2.
G1 Z.2 B0. F1000.
G1 X3.644 B0. F5000. E.242
G1 X4.995 B0. E.045
G1 X5.095 Y14.771 B0. E.003
G1 X5.168 Y14.698 B0. E.003
G1 X5.195 Y14.598 B0. E.003
G1 X5.168 Y14.498 B0. E.003
G1 X5.095 Y14.425 B0. E.003
G1 X4.995 Y14.398 B0. E.003
G1 X-4.995 B0. E.332
G1 X-6.026 B0. E.034
G1 X-6.126 Y14.371 B0. E.003
G1 X-6.199 Y14.298 B0. E.003
G1 X-6.226 Y14.198 B0. E.003
G1 X-6.199 Y14.098 B0. E.003
G1 X-6.126 Y14.025 B0. E.003
G1 X-6.026 Y13.998 B0. E.003
G1 X6.026 B0. E.401
G1 X6.881 B0. E.028
G1 X6.981 Y13.971 B0. E.003
G1 X7.054 Y13.898 B0. E.003
G1 X7.081 Y13.798 B0. E.003
G1 X7.054 Y13.698 B0. E.003
G1 X6.981 Y13.625 B0. E.003
G1 X6.881 Y13.598 B0. E.003
G1 X-6.881 B0. E.458
G1 X-7.62 B0. E.025
G1 X-7.72 Y13.571 B0. E.003
G1 X-7.793 Y13.498 B0. E.003
G1 X-7.82 Y13.398 B0. E.003
G1 X-7.793 Y13.298 B0. E.003
G1 X-7.72 Y13.225 B0. E.003
G1 X-7.62 Y13.198 B0. E.003
G1 X7.62 B0. E.507
G1 X8.274 B0. E.022
G1 X8.374 Y13.171 B0. E.003
G1 X8.447 Y13.098 B0. E.003
G1 X8.474 Y12.998 B0. E.003
G1 X8.447 Y12.898 B0. E.003
G1 X8.374 Y12.825 B0. E.003
G1 X8.274 Y12.798 B0. E.003
G1 X-8.274 B0. E.55
G1 X-8.862 B0. E.02
G1 X-8.962 Y12.771 B0. E.003
G1 X-9.035 Y12.698 B0. E.003
G1 X-9.062 Y12.598 B0. E.003
G1 X-9.035 Y12.498 B0. E.003
G1 X-8.962 Y12.425 B0. E.003
G1 X-8.862 Y12.398 B0. E.003
G1 X8.862 B0. E.59
G1 X9.397 B0. E.018
G1 X9.497 Y12.371 B0. E.003
G1 X9.57 Y12.298 B0. E.003
G1 X9.597 Y12.198 B0. E.003
G1 X9.57 Y12.098 B0. E.003
G1 X9.497 Y12.025 B0. E.003
G1 X9.397 Y11.998 B0. E.003
G1 X-9.397 B0. E.625
G1 X-9.886 B0. E.016
G1 X-9.986 Y11.971 B0. E.003
G1 X-10.059 Y11.898 B0. E.003
G1 X-10.086 Y11.798 B0. E.003
G1 X-10.059 Y11.698 B0. E.003
G1 X-9.986 Y11.625 B0. E.003
G1 X-9.886 Y11.598 B0. E.003
G1 X9.886 B0. E.658
G1 X10.337 B0. E.015
G1 X10.437 Y11.571 B0. E.003
G1 X10.51 Y11.498 B0. E.003
G1 X10.537 Y11.398 B0. E.003
G1 X10.51 Y11.298 B0. E.003
G1 X10.437 Y11.225 B0. E.003
G1 X10.337 Y11.198 B0. E.003
G1 X-10.337 B0. E.688
G1 X-10.754 B0. E.014
G1 X-10.854 Y11.171 B0. E.003
G1 X-10.926 Y11.098 B0. E.003
G1 X-10.953 Y10.999 B0. E.003
G1 X-10.926 Y10.899 B0. E.003
G1 X-10.854 Y10.827 B0. E.003
G1 X-10.754 Y10.799 B0. E.003
G1 X10.754 B0. E.715
G1 X11.141 B0. E.013
G1 X11.241 Y10.772 B0. E.003
G1 X11.314 Y10.699 B0. E.003
G1 X11.341 Y10.599 B0. E.003
G1 X11.314 Y10.499 B0. E.003
G1 X11.241 Y10.426 B0. E.003
G1 X11.141 Y10.399 B0. E.003
G1 X-11.141 B0. E.741
G1 X-11.502 B0. E.012
G1 X-11.602 Y10.372 B0. E.003
G1 X-11.675 Y10.299 B0. E.003
G1 X-11.702 Y10.199 B0. E.003
G1 X-11.675 Y10.099 B0. E.003
G1 X-11.602 Y10.026 B0. E.003
G1 X-11.502 Y9.999 B0. E.003
G1 X11.502 B0. E.765
G1 X11.837 B0. E.011
G1 X11.937 Y9.972 B0. E.003
G1 X12.01 Y9.899 B0. E.003
G1 X12.037 Y9.799 B0. E.003
G1 X12.01 Y9.699 B0. E.003
G1 X11.937 Y9.626 B0. E.003
G1 X11.837 Y9.599 B0. E.003
G1 X-11.837 B0. E.787
G1 X-12.151 B0. E.01
G1 X-12.251 Y9.572 B0. E.003
G1 X-12.324 Y9.499 B0. E.003
G1 X-12.351 Y9.399 B0. E.003
G1 X-12.324 Y9.299 B0. E.003
G1 X-12.251 Y9.226 B0. E.003
G1 X-12.151 Y9.199 B0. E.003
G1 X12.151 B0. E.808
G1 X12.443 B0. E.01
G1 X12.543 Y9.172 B0. E.003
G1 X12.616 Y9.099 B0. E.003
G1 X12.643 Y8.999 B0. E.003
G1 X12.616 Y8.899 B0. E.003
G1 X12.543 Y8.826 B0. E.003
G1 X12.443 Y8.799 B0. E.003
G1 X-12.443 B0. E.828
G1 X-12.717 B0. E.009
G1 X-12.817 Y8.772 B0. E.003
G1 X-12.89 Y8.699 B0. E.003
G1 X-12.917 Y8.599 B0. E.003
G1 X-12.89 Y8.499 B0. E.003
G1 X-12.817 Y8.426 B0. E.003
G1 X-12.717 Y8.399 B0. E.003
G1 X12.717 B0. E.846
G1 X12.972 B0. E.008
G1 X13.072 Y8.372 B0. E.003
G1 X13.145 Y8.299 B0. E.003
G1 X13.172 Y8.199 B0. E.003
G1 X13.145 Y8.099 B0. E.003
G1 X13.072 Y8.026 B0. E.003
G1 X12.972 Y7.999 B0. E.003
G1 X-12.972 B0. E.863
G1 X-13.21 B0. E.008
G1 X-13.31 Y7.972 B0. E.003
G1 X-13.383 Y7.899 B0. E.003
G1 X-13.41 Y7.799 B0. E.003
G1 X-13.383 Y7.699 B0. E.003
G1 X-13.31 Y7.626 B0. E.003
G1 X-13.21 Y7.599 B0. E.003
G1 X13.21 B0. E.879
G1 X13.432 B0. E.007
G1 X13.532 Y7.572 B0. E.003
G1 X13.605 Y7.499 B0. E.003
G1 X13.632 Y7.399 B0. E.003
G1 X13.605 Y7.299 B0. E.003
G1 X13.532 Y7.226 B0. E.003
G1 X13.432 Y7.199 B0. E.003
G1 X-13.432 B0. E.894
G1 X-13.639 B0. E.007
G1 X-13.739 Y7.172 B0. E.003
G1 X-13.812 Y7.099 B0. E.003
G1 X-13.839 Y6.999 B0. E.003
G1 X-13.812 Y6.899 B0. E.003
G1 X-13.739 Y6.826 B0. E.003
G1 X-13.639 Y6.799 B0. E.003
G1 X13.639 B0. E.907
G1 X13.831 B0. E.006
G1 X13.931 Y6.772 B0. E.003
G1 X14.004 Y6.699 B0. E.003
G1 X14.031 Y6.599 B0. E.003
G1 X14.004 Y6.499 B0. E.003
G1 X13.931 Y6.426 B0. E.003
G1 X13.831 Y6.399 B0. E.003
G1 X-13.831 B0. E.92
G1 X-14.01 B0. E.006
G1 X-14.11 Y6.372 B0. E.003
G1 X-14.183 Y6.299 B0. E.003
G1 X-14.21 Y6.199 B0. E.003
G1 X-14.183 Y6.099 B0. E.003
G1 X-14.11 Y6.026 B0. E.003
G1 X-14.01 Y5.999 B0. E.003
G1 X14.01 B0. E.932
G1 X14.174 B0. E.005
G1 X14.274 Y5.972 B0. E.003
G1 X14.347 Y5.899 B0. E.003
G1 X14.374 Y5.799 B0. E.003
G1 X14.347 Y5.699 B0. E.003
G1 X14.274 Y5.626 B0. E.003
G1 X14.174 Y5.599 B0. E.003
G1 X-14.174 B0. E.943
G1 X-14.326 B0. E.005
G1 X-14.426 Y5.572 B0. E.003
G1 X-14.499 Y5.499 B0. E.003
G1 X-14.526 Y5.399 B0. E.003
G1 X-14.499 Y5.299 B0. E.003
G1 X-14.426 Y5.226 B0. E.003
G1 X-14.326 Y5.199 B0. E.003
G1 X14.326 B0. E.953
G1 X14.465 B0. E.005
G1 X14.565 Y5.172 B0. E.003
G1 X14.638 Y5.099 B0. E.003
G1 X14.665 Y4.999 B0. E.003
G1 X14.638 Y4.899 B0. E.003
G1 X14.565 Y4.826 B0. E.003
G1 X14.465 Y4.799 B0. E.003
G1 X-14.465 B0. E.962
G1 X-14.591 B0. E.004
G1 X-14.691 Y4.772 B0. E.003
G1 X-14.764 Y4.699 B0. E.003
G1 X-14.791 Y4.599 B0. E.003
G1 X-14.764 Y4.499 B0. E.003
G1 X-14.691 Y4.426 B0. E.003
G1 X-14.591 Y4.399 B0. E.003
G1 X14.591 B0. E.971
G1 X14.706 B0. E.004
G1 X14.806 Y4.372 B0. E.003
G1 X14.879 Y4.299 B0. E.003
G1 X14.906 Y4.199 B0. E.003
G1 X14.879 Y4.099 B0. E.003
G1 X14.806 Y4.026 B0. E.003
G1 X14.706 Y3.999 B0. E.003
G1 X-14.706 B0. E.978
G1 X-14.809 B0. E.003
G1 X-14.909 Y3.972 B0. E.003
G1 X-14.982 Y3.899 B0. E.003
G1 X-15.009 Y3.799 B0. E.003
G1 X-14.982 Y3.699 B0. E.003
G1 X-14.909 Y3.626 B0. E.003
G1 X-14.809 Y3.6 B0. E.003
G1 X14.809 B0. E.985
G1 X14.9 B0. E.003
G1 X15. Y3.573 B0. E.003
G1 X15.073 Y3.5 B0. E.003
G1 X15.1 Y3.4 B0. E.003
G1 X15.073 Y3.3 B0. E.003
G1 X15. Y3.227 B0. E.003
G1 X14.9 Y3.2 B0. E.003
G1 X-14.9 B0. E.991
G1 X-14.981 B0. E.003
G1 X-15.081 Y3.173 B0. E.003
G1 X-15.154 Y3.1 B0. E.003
G1 X-15.181 Y3. B0. E.003
G1 X-15.154 Y2.9 B0. E.003
G1 X-15.081 Y2.827 B0. E.003
G1 X-14.981 Y2.8 B0. E.003
G1 X14.981 B0. E.997
G1 X15.05 B0. E.002
G1 X15.15 Y2.773 B0. E.003
G1 X15.223 Y2.7 B0. E.003
G1 X15.25 Y2.6 B0. E.003
G1 X15.223 Y2.5 B0. E.003
G1 X15.15 Y2.427 B0. E.003
G1 X15.05 Y2.4 B0. E.003
G1 X-15.05 B0. E1.001
G1 X-15.108 B0. E.002
G1 X-15.208 Y2.373 B0. E.003
G1 X-15.281 Y2.3 B0. E.003
G1 X-15.308 Y2.2 B0. E.003
G1 X-15.281 Y2.1 B0. E.003
G1 X-15.208 Y2.027 B0. E.003
G1 X-15.108 Y2. B0. E.003
G1 X15.108 B0. E1.005
G1 X15.156 B0. E.002
G1 X15.256 Y1.973 B0. E.003
G1 X15.329 Y1.9 B0. E.003
G1 X15.356 Y1.8 B0. E.003
G1 X15.329 Y1.7 B0. E.003
G1 X15.256 Y1.627 B0. E.003
G1 X15.156 Y1.6 B0. E.003
G1 X-15.156 B0. E1.008
G1 X-15.193 B0. E.001
G1 X-15.293 Y1.573 B0. E.003
G1 X-15.366 Y1.5 B0. E.003
G1 X-15.393 Y1.4 B0. E.003
G1 X-15.366 Y1.3 B0. E.003
G1 X-15.293 Y1.227 B0. E.003
G1 X-15.193 Y1.2 B0. E.003
G1 X15.193 B0. E1.011
G1 X15.219 B0. E.001
G1 X15.319 Y1.173 B0. E.003
G1 X15.392 Y1.1 B0. E.003
G1 X15.419 Y1. B0. E.003
G1 X15.392 Y.9 B0. E.003
G1 X15.319 Y.827 B0. E.003
G1 X15.219 Y.8 B0. E.003
G1 X-15.219 B0. E1.012
G1 X-15.235 B0. E.001
G1 X-15.335 Y.773 B0. E.003
G1 X-15.408 Y.7 B0. E.003
G1 X-15.435 Y.6 B0. E.003
G1 X-15.408 Y.5 B0. E.003
G1 X-15.335 Y.427 B0. E.003
G1 X-15.235 Y.4 B0. E.003
G1 X15.235 B0. E1.013
G1 X15.24 B0. E0.
G1 X15.34 Y.373 B0. E.003
G1 X15.413 Y.3 B0. E.003
G1 X15.44 Y.2 B0. E.003
G1 X15.413 Y.1 B0. E.003
G1 X15.34 Y.027 B0. E.003
G1 X15.24 Y0. B0. E.003
G1 X-15.24 B0. E1.014
G1 X-15.34 Y-.027 B0. E.003
G1 X-15.413 Y-.1 B0. E.003
G1 X-15.44 Y-.2 B0. E.003
G1 X-15.413 Y-.3 B0. E.003
G1 X-15.34 Y-.373 B0. E.003
G1 X-15.24 Y-.4 B0. E.003
G1 X15.235 B0. E1.014
G1 X15.335 Y-.427 B0. E.003
G1 X15.408 Y-.5 B0. E.003
G1 X15.435 Y-.6 B0. E.003
G1 X15.408 Y-.7 B0. E.003
G1 X15.335 Y-.773 B0. E.003
G1 X15.235 Y-.8 B0. E.003
G1 X-15.219 B0. E1.013
G1 X-15.319 Y-.827 B0. E.003
G1 X-15.392 Y-.9 B0. E.003
G1 X-15.419 Y-1. B0. E.003
G1 X-15.392 Y-1.1 B0. E.003
G1 X-15.319 Y-1.173 B0. E.003
G1 X-15.219 Y-1.2 B0. E.003
G1 X15.193 B0. E1.011
G1 X15.293 Y-1.227 B0. E.003
G1 X15.366 Y-1.3 B0. E.003
G1 X15.393 Y-1.4 B0. E.003
G1 X15.366 Y-1.5 B0. E.003
G1 X15.293 Y-1.573 B0. E.003
G1 X15.193 Y-1.6 B0. E.003
G1 X-15.156 B0. E1.009
G1 X-15.256 Y-1.627 B0. E.003
G1 X-15.329 Y-1.7 B0. E.003
G1 X-15.356 Y-1.8 B0. E.003
G1 X-15.329 Y-1.9 B0. E.003
G1 X-15.256 Y-1.973 B0. E.003
G1 X-15.156 Y-2. B0. E.003
G1 X15.108 B0. E1.007
G1 X15.208 Y-2.027 B0. E.003
G1 X15.281 Y-2.1 B0. E.003
G1 X15.308 Y-2.2 B0. E.003
G1 X15.281 Y-2.3 B0. E.003
G1 X15.208 Y-2.373 B0. E.003
G1 X15.108 Y-2.4 B0. E.003
G1 X-15.05 B0. E1.003
G1 X-15.15 Y-2.427 B0. E.003
G1 X-15.223 Y-2.5 B0. E.003
G1 X-15.25 Y-2.6 B0. E.003
G1 X-15.223 Y-2.7 B0. E.003
G1 X-15.15 Y-2.773 B0. E.003
G1 X-15.05 Y-2.8 B0. E.003
G1 X14.981 B0. E.999
G1 X15.081 Y-2.827 B0. E.003
G1 X15.154 Y-2.9 B0. E.003
G1 X15.181 Y-3. B0. E.003
G1 X15.154 Y-3.1 B0. E.003
G1 X15.081 Y-3.173 B0. E.003
G1 X14.981 Y-3.2 B0. E.003
G1 X-14.9 B0. E.994
G1 X-15. Y-3.227 B0. E.003
G1 X-15.073 Y-3.3 B0. E.003
G1 X-15.1 Y-3.4 B0. E.003
G1 X-15.073 Y-3.5 B0. E.003
G1 X-15. Y-3.573 B0. E.003
G1 X-14.9 Y-3.6 B0. E.003
G1 X14.809 B0. E.988
G1 X14.909 Y-3.627 B0. E.003
G1 X14.981 Y-3.7 B0. E.003
G1 X15.008 Y-3.799 B0. E.003
G1 X14.981 Y-3.898 B0. E.003
G1 X14.909 Y-3.971 B0. E.003
G1 X14.809 Y-3.999 B0. E.003
G1 X-14.706 B0. E.982
G1 X-14.806 Y-4.026 B0. E.003
G1 X-14.879 Y-4.099 B0. E.003
G1 X-14.906 Y-4.199 B0. E.003
G1 X-14.879 Y-4.299 B0. E.003
G1 X-14.806 Y-4.372 B0. E.003
G1 X-14.706 Y-4.399 B0. E.003
G1 X14.591 B0. E.974
G1 X14.691 Y-4.426 B0. E.003
G1 X14.764 Y-4.499 B0. E.003
G1 X14.791 Y-4.599 B0. E.003
G1 X14.764 Y-4.699 B0. E.003
G1 X14.691 Y-4.772 B0. E.003
G1 X14.591 Y-4.799 B0. E.003
G1 X-14.465 B0. E.966
G1 X-14.565 Y-4.826 B0. E.003
G1 X-14.638 Y-4.899 B0. E.003
G1 X-14.665 Y-4.999 B0. E.003
G1 X-14.638 Y-5.099 B0. E.003
G1 X-14.565 Y-5.172 B0. E.003
G1 X-14.465 Y-5.199 B0. E.003
G1 X14.326 B0. E.958
G1 X14.426 Y-5.226 B0. E.003
G1 X14.499 Y-5.299 B0. E.003
G1 X14.526 Y-5.399 B0. E.003
G1 X14.499 Y-5.499 B0. E.003
G1 X14.426 Y-5.572 B0. E.003
G1 X14.326 Y-5.599 B0. E.003
G1 X-14.174 B0. E.948
G1 X-14.274 Y-5.626 B0. E.003
G1 X-14.347 Y-5.699 B0. E.003
G1 X-14.374 Y-5.799 B0. E.003
G1 X-14.347 Y-5.899 B0. E.003
G1 X-14.274 Y-5.972 B0. E.003
G1 X-14.174 Y-5.999 B0. E.003
G1 X14.01 B0. E.937
G1 X14.11 Y-6.026 B0. E.003
G1 X14.183 Y-6.099 B0. E.003
G1 X14.21 Y-6.199 B0. E.003
G1 X14.183 Y-6.299 B0. E.003
G1 X14.11 Y-6.372 B0. E.003
G1 X14.01 Y-6.399 B0. E.003
G1 X-13.831 B0. E.926
G1 X-13.931 Y-6.426 B0. E.003
G1 X-14.004 Y-6.499 B0. E.003
G1 X-14.031 Y-6.599 B0. E.003
G1 X-14.004 Y-6.699 B0. E.003
G1 X-13.931 Y-6.772 B0. E.003
G1 X-13.831 Y-6.799 B0. E.003
G1 X13.639 B0. E.914
G1 X13.739 Y-6.826 B0. E.003
G1 X13.812 Y-6.899 B0. E.003
G1 X13.839 Y-6.999 B0. E.003
G1 X13.812 Y-7.099 B0. E.003
G1 X13.739 Y-7.172 B0. E.003
G1 X13.639 Y-7.199 B0. E.003
G1 X-13.432 B0. E.9
G1 X-13.532 Y-7.226 B0. E.003
G1 X-13.605 Y-7.299 B0. E.003
G1 X-13.632 Y-7.399 B0. E.003
G1 X-13.605 Y-7.499 B0. E.003
G1 X-13.532 Y-7.572 B0. E.003
G1 X-13.432 Y-7.599 B0. E.003
G1 X13.21 B0. E.886
G1 X13.31 Y-7.626 B0. E.003
G1 X13.383 Y-7.699 B0. E.003
G1 X13.41 Y-7.799 B0. E.003
G1 X13.383 Y-7.899 B0. E.003
G1 X13.31 Y-7.972 B0. E.003
G1 X13.21 Y-7.999 B0. E.003
G1 X-12.972 B0. E.871
G1 X-13.072 Y-8.026 B0. E.003
G1 X-13.145 Y-8.099 B0. E.003
G1 X-13.172 Y-8.199 B0. E.003
G1 X-13.145 Y-8.299 B0. E.003
G1 X-13.072 Y-8.372 B0. E.003
G1 X-12.972 Y-8.399 B0. E.003
G1 X12.717 B0. E.854
G1 X12.817 Y-8.426 B0. E.003
G1 X12.89 Y-8.499 B0. E.003
G1 X12.917 Y-8.599 B0. E.003
G1 X12.89 Y-8.699 B0. E.003
G1 X12.817 Y-8.772 B0. E.003
G1 X12.717 Y-8.799 B0. E.003
G1 X-12.443 B0. E.837
G1 X-12.543 Y-8.826 B0. E.003
G1 X-12.616 Y-8.899 B0. E.003
G1 X-12.643 Y-8.999 B0. E.003
G1 X-12.616 Y-9.099 B0. E.003
G1 X-12.543 Y-9.172 B0. E.003
G1 X-12.443 Y-9.199 B0. E.003
G1 X12.151 B0. E.818
G1 X12.251 Y-9.226 B0. E.003
G1 X12.324 Y-9.299 B0. E.003
G1 X12.351 Y-9.399 B0. E.003
G1 X12.324 Y-9.499 B0. E.003
G1 X12.251 Y-9.572 B0. E.003
G1 X12.151 Y-9.599 B0. E.003
G1 X-11.837 B0. E.798
G1 X-11.937 Y-9.626 B0. E.003
G1 X-12.01 Y-9.699 B0. E.003
G1 X-12.037 Y-9.799 B0. E.003
G1 X-12.01 Y-9.899 B0. E.003
G1 X-11.937 Y-9.972 B0. E.003
G1 X-11.837 Y-9.999 B0. E.003
G1 X11.502 B0. E.776
G1 X11.602 Y-10.026 B0. E.003
G1 X11.675 Y-10.099 B0. E.003
G1 X11.702 Y-10.199 B0. E.003
G1 X11.675 Y-10.299 B0. E.003
G1 X11.602 Y-10.372 B0. E.003
G1 X11.502 Y-10.399 B0. E.003
G1 X-11.141 B0. E.753
G1 X-11.241 Y-10.426 B0. E.003
G1 X-11.314 Y-10.499 B0. E.003
G1 X-11.341 Y-10.599 B0. E.003
G1 X-11.314 Y-10.699 B0. E.003
G1 X-11.241 Y-10.772 B0. E.003
G1 X-11.141 Y-10.799 B0. E.003
G1 X10.754 B0. E.728
G1 X10.854 Y-10.826 B0. E.003
G1 X10.927 Y-10.899 B0. E.003
G1 X10.954 Y-10.999 B0. E.003
G1 X10.927 Y-11.099 B0. E.003
G1 X10.854 Y-11.172 B0. E.003
G1 X10.754 Y-11.198 B0. E.003
G1 X-10.337 B0. E.701
G1 X-10.437 Y-11.225 B0. E.003
G1 X-10.51 Y-11.298 B0. E.003
G1 X-10.537 Y-11.398 B0. E.003
G1 X-10.51 Y-11.498 B0. E.003
G1 X-10.437 Y-11.571 B0. E.003
G1 X-10.337 Y-11.598 B0. E.003
G1 X9.886 B0. E.673
G1 X9.986 Y-11.625 B0. E.003
G1 X10.059 Y-11.698 B0. E.003
G1 X10.086 Y-11.798 B0. E.003
G1 X10.059 Y-11.898 B0. E.003
G1 X9.986 Y-11.971 B0. E.003
G1 X9.886 Y-11.998 B0. E.003
G1 X-9.397 B0. E.641
G1 X-9.497 Y-12.025 B0. E.003
G1 X-9.57 Y-12.098 B0. E.003
G1 X-9.597 Y-12.198 B0. E.003
G1 X-9.57 Y-12.298 B0. E.003
G1 X-9.497 Y-12.371 B0. E.003
G1 X-9.397 Y-12.398 B0. E.003
G1 X8.862 B0. E.607
G1 X8.962 Y-12.425 B0. E.003
G1 X9.035 Y-12.498 B0. E.003
G1 X9.062 Y-12.598 B0. E.003
G1 X9.035 Y-12.698 B0. E.003
G1 X8.962 Y-12.771 B0. E.003
G1 X8.862 Y-12.798 B0. E.003
G1 X-8.274 B0. E.57
G1 X-8.374 Y-12.825 B0. E.003
G1 X-8.447 Y-12.898 B0. E.003
G1 X-8.474 Y-12.998 B0. E.003
G1 X-8.447 Y-13.098 B0. E.003
G1 X-8.374 Y-13.171 B0. E.003
G1 X-8.274 Y-13.198 B0. E.003
G1 X7.62 B0. E.529
G1 X7.72 Y-13.225 B0. E.003
G1 X7.793 Y-13.298 B0. E.003
G1 X7.82 Y-13.398 B0. E.003
G1 X7.793 Y-13.498 B0. E.003
G1 X7.72 Y-13.571 B0. E.003
G1 X7.62 Y-13.598 B0. E.003
G1 X-6.881 B0. E.482
G1 X-6.981 Y-13.625 B0. E.003
G1 X-7.054 Y-13.698 B0. E.003
G1 X-7.081 Y-13.798 B0. E.003
G1 X-7.054 Y-13.898 B0. E.003
G1 X-6.981 Y-13.971 B0. E.003
G1 X-6.881 Y-13.998 B0. E.003
G1 X6.026 B0. E.429
G1 X6.126 Y-14.025 B0. E.003
G1 X6.199 Y-14.098 B0. E.003
G1 X6.226 Y-14.198 B0. E.003
G1 X6.199 Y-14.298 B0. E.003
G1 X6.126 Y-14.371 B0. E.003
G1 X6.026 Y-14.398 B0. E.003
G1 X-4.995 B0. E.367
G1 X-5.095 Y-14.425 B0. E.003
G1 X-5.168 Y-14.498 B0. E.003
G1 X-5.195 Y-14.598 B0. E.003
G1 X-5.168 Y-14.698 B0. E.003
G1 X-5.095 Y-14.771 B0. E.003
G1 X-4.995 Y-14.798 B0. E.003
G1 X3.644 B0.
G1 E-1.
G0 Z2. B0.
G0 X-.005 Y-15.19 Z20.2 B0. C0.
G0 Z.2 B0. C90.
G1 E1.
G1 X1.328 Y-15.131 B0. C90.
G1 X2.641 Y-14.957 B0. C90. E.044
G1 X3.934 Y-14.67 B0. C90. E.044
G1 X5.198 Y-14.271 B0. C90. E.044
G1 X6.421 Y-13.764 B0. C90. E.044
G1 X7.217 Y-13.377 B0. C90. E.029
G1 X8.696 Y-12.452 B0. C90. E.058
G1 X9.733 Y-11.659 B0. C90. E.043
G1 X10.699 Y-10.78 B0. C90. E.043
G1 X11.585 Y-9.821 B0. C90. E.043
G1 X12.386 Y-8.789 B0. C90. E.043
G1 X13.096 Y-7.692 B0. C90. E.043
G1 X13.697 Y-6.562 B0. C90. E.043
G1 X14.213 Y-5.354 B0. C90. E.044
G1 X14.622 Y-4.106 B0. C90. E.044
G1 X14.922 Y-2.827 B0. C90. E.044
G1 X15.111 Y-1.524 B0. C90. E.044
G1 X15.2 Y0. B0. C90. E.051
G1 X15.109 Y1.546 B0. C90. E.052
G1 X14.922 Y2.827 B0. C90. E.043
G1 X14.622 Y4.106 B0. C90. E.044
G1 X14.213 Y5.354 B0. C90. E.044
G1 X13.697 Y6.562 B0. C90. E.044
G1 X12.931 Y7.981 B0. C90. E.054
G1 X12.187 Y9.078 B0. C90. E.044
G1 X11.35 Y10.106 B0. C90. E.044
G1 X10.426 Y11.058 B0. C90. E.044
G1 X9.422 Y11.926 B0. C90. E.044
G1 X8.346 Y12.703 B0. C90. E.044
G1 X7.208 Y13.382 B0. C90. E.044
G1 X6.014 Y13.958 B0. C90. E.044
G1 X4.775 Y14.429 B0. C90. E.044
G1 X3.499 Y14.789 B0. C90. E.044
G1 X2.197 Y15.037 B0. C90. E.044
G1 X.878 Y15.171 B0. C90. E.044
G1 X-.667 Y15.175 B0. C90. E.051
G1 X-1.987 Y15.058 B0. C90. E.044
G1 X-3.291 Y14.828 B0. C90. E.044
G1 X-4.571 Y14.484 B0. C90. E.044
G1 X-5.816 Y14.031 B0. C90. E.044
G1 X-6.627 Y13.679 B0. C90. E.029
G1 X-8.152 Y12.814 B0. C90. E.058
G1 X-9.223 Y12.066 B0. C90. E.043
G1 X-10.225 Y11.23 B0. C90. E.043
G1 X-11.152 Y10.31 B0. C90. E.043
G1 X-11.997 Y9.313 B0. C90. E.043
G1 X-12.753 Y8.248 B0. C90. E.043
G1 X-13.415 Y7.121 B0. C90. E.043
G1 X-13.968 Y5.963 B0. C90. E.043
G1 X-14.431 Y4.734 B0. C90. E.044
G1 X-14.786 Y3.47 B0. C90. E.044
G1 X-15.031 Y2.179 B0. C90. E.044
G1 X-15.163 Y.872 B0. C90. E.044
G1 X-15.181 Y-.436 B0. C90. E.043
G1 X-15.086 Y-1.752 B0. C90. E.044
G1 X-14.877 Y-3.055 B0. C90. E.044
G1 X-14.555 Y-4.335 B0. C90. E.044
G1 X-14.124 Y-5.582 B0. C90. E.044
G1 X-13.57 Y-6.818 B0. C90. E.045
G1 X-12.924 Y-7.975 B0. C90. E.044
G1 X-12.18 Y-9.071 B0. C90. E.044
G1 X-11.78 Y-9.601 B0. C90. E.022
G1 X-10.899 Y-10.592 B0. C90. E.044
G1 X-9.934 Y-11.502 B0. C90. E.044
G1 X-8.893 Y-12.326 B0. C90. E.044
G1 X-7.785 Y-13.055 B0. C90. E.044
G1 X-6.618 Y-13.683 B0. C90. E.044
G1 X-5.4 Y-14.207 B0. C90. E.044
G1 X-4.142 Y-14.623 B0. C90. E.044
G1 X-2.851 Y-14.927 B0. C90. E.044
G1 X-1.54 Y-15.118 B0. C90. E.044
G1 X-.005 Y-15.19 B0. C90. E.051
G1 X1.328 Y-15.131 Z.203 B0. C90. E.044
G1 X2.641 Y-14.957 Z.205 B0. C90. E.044
G1 X3.934 Y-14.67 Z.208 B0. C90. E.044
G1 X5.197 Y-14.271 Z.211 B0. C90. E.044
G1 X6.421 Y-13.764 Z.214 B0. C90. E.044
G1 X7.595 Y-13.152 Z.217 B0. C90. E.044
G1 X8.342 Y-12.706 Z.218 B0. C90. E.029
G1 X9.402 Y-11.943 Z.221 B0. C90. E.043
G1 X10.393 Y-11.091 Z.224 B0. C90. E.043
G1 X11.308 Y-10.157 Z.227 B0. C90. E.043
G1 X12.139 Y-9.148 Z.229 B0. C90. E.043
G1 X12.88 Y-8.071 Z.232 B0. C90. E.043
G1 X13.526 Y-6.934 Z.235 B0. C90. E.043
G1 X14.072 Y-5.745 Z.238 B0. C90. E.044
G1 X14.514 Y-4.514 Z.24 B0. C90. E.044
G1 X14.849 Y-3.249 Z.243 B0. C90. E.044
G1 X15.073 Y-1.959 Z.246 B0. C90. E.044
G1 X15.186 Y-.657 Z.249 B0. C90. E.043
G1 X15.191 Y.43 Z.251 B0. C90. E.036
G1 X15.081 Y1.869 Z.254 B0. C90. E.048
G1 X14.838 Y3.291 Z.257 B0. C90. E.048
G1 X14.493 Y4.572 Z.26 B0. C90. E.044
G1 X14.039 Y5.818 Z.262 B0. C90. E.044
G1 X13.478 Y7.019 Z.265 B0. C90. E.044
G1 X12.814 Y8.167 Z.268 B0. C90. E.044
G1 X12.053 Y9.252 Z.271 B0. C90. E.044
G1 X11.2 Y10.267 Z.273 B0. C90. E.044
G1 X10.262 Y11.204 Z.276 B0. C90. E.044
G1 X9.246 Y12.056 Z.279 B0. C90. E.044
G1 X8.16 Y12.815 Z.282 B0. C90. E.044
G1 X7.012 Y13.477 Z.284 B0. C90. E.044
G1 X5.811 Y14.036 Z.287 B0. C90. E.044
G1 X4.566 Y14.489 Z.29 B0. C90. E.044
G1 X3.286 Y14.831 Z.293 B0. C90. E.044
G1 X1.981 Y15.06 Z.296 B0. C90. E.044
G1 X.662 Y15.175 Z.298 B0. C90. E.044
G1 X-.662 Z.301 B0. C90. E.044
G1 X-1.982 Y15.059 Z.304 B0. C90. E.044
G1 X-3.286 Y14.829 Z.307 B0. C90. E.044
G1 X-4.566 Y14.486 Z.309 B0. C90. E.044
G1 X-5.81 Y14.033 Z.312 B0. C90. E.044
G1 X-7.01 Y13.473 Z.315 B0. C90. E.044
G1 X-7.784 Y13.056 Z.317 B0. C90. E.029
G1 X-8.877 Y12.338 Z.32 B0. C90. E.043
G1 X-9.904 Y11.53 Z.322 B0. C90. E.043
G1 X-10.859 Y10.636 Z.325 B0. C90. E.043
G1 X-11.733 Y9.663 Z.328 B0. C90. E.043
G1 X-12.52 Y8.619 Z.331 B0. C90. E.043
G1 X-13.214 Y7.511 Z.333 B0. C90. E.043
G1 X-13.811 Y6.347 Z.336 B0. C90. E.044
G1 X-14.306 Y5.136 Z.339 B0. C90. E.044
G1 X-14.694 Y3.887 Z.341 B0. C90. E.044
G1 X-14.974 Y2.609 Z.344 B0. C90. E.044
G1 X-15.143 Y1.312 Z.347 B0. C90. E.044
G1 X-15.2 Y.005 Z.35 B0. C90. E.044
G1 X-15.142 Y-1.32 Z.352 B0. C90. E.044
G1 X-14.968 Y-2.635 Z.355 B0. C90. E.044
G1 X-14.681 Y-3.93 Z.358 B0. C90. E.044
G1 X-14.294 Y-5.163 Z.361 B0. C90. E.043
G1 X-13.773 Y-6.421 Z.363 B0. C90. E.045
G1 X-13.16 Y-7.597 Z.366 B0. C90. E.044
G1 X-12.448 Y-8.715 Z.369 B0. C90. E.044
G1 X-11.64 Y-9.766 Z.372 B0. C90. E.044
G1 X-10.745 Y-10.743 Z.375 B0. C90. E.044
G1 X-9.767 Y-11.638 Z.377 B0. C90. E.044
G1 X-8.715 Y-12.444 Z.38 B0. C90. E.044
G1 X-7.598 Y-13.156 Z.383 B0. C90. E.044
G1 X-6.422 Y-13.768 Z.386 B0. C90. E.044
G1 X-5.198 Y-14.274 Z.388 B0. C90. E.044
G1 X-3.934 Y-14.673 Z.391 B0. C90. E.044
G1 X-2.641 Y-14.959 Z.394 B0. C90. E.044
G1 X-1.328 Y-15.132 Z.397 B0. C90. E.044
G1 X-.014 Y-15.19 Z.399 B0. C90. E.044
G1 X1.479 Y-15.115 Z.403 B0. C90. E.05
G1 X2.766 Y-14.933 Z.405 B0. C90. E.043
G1 X4.036 Y-14.641 Z.408 B0. C90. E.043
G1 X5.287 Y-14.237 Z.411 B0. C90. E.044
G1 X6.49 Y-13.73 Z.413 B0. C90. E.043
G1 X7.654 Y-13.117 Z.416 B0. C90. E.044
G1 X8.768 Y-12.4 Z.419 B0. C90. E.044
G1 X9.797 Y-11.604 Z.422 B0. C90. E.043
G1 X10.754 Y-10.724 Z.424 B0. C90. E.043
G1 X11.633 Y-9.763 Z.427 B0. C90. E.043
G1 X12.434 Y-8.72 Z.43 B0. C90. E.044
G1 X13.137 Y-7.62 Z.433 B0. C90. E.043
G1 X13.5 Y-6.98 Z.434 B0. C90. E.024
G1 X14.056 Y-5.78 Z.437 B0. C90. E.044
G1 X14.515 Y-4.511 Z.44 B0. C90. E.045
G1 X14.85 Y-3.241 Z.443 B0. C90. E.044
G1 X15.08 Y-1.88 Z.445 B0. C90. E.046
G1 X15.194 Y-.288 Z.449 B0. C90. E.053
G1 X15.147 Y1.102 Z.452 B0. C90. E.046
G1 X15.076 Y1.925 Z.453 B0. C90. E.027
G1 X14.844 Y3.266 Z.456 B0. C90. E.045
G1 X14.509 Y4.526 Z.459 B0. C90. E.043
G1 X14.067 Y5.756 Z.462 B0. C90. E.043
G1 X13.516 Y6.951 Z.464 B0. C90. E.044
G1 X12.869 Y8.087 Z.467 B0. C90. E.043
G1 X12.121 Y9.169 Z.47 B0. C90. E.044
G1 X11.289 Y10.177 Z.473 B0. C90. E.043
G1 X10.367 Y11.114 Z.475 B0. C90. E.044
G1 X9.377 Y11.961 Z.478 B0. C90. E.043
G1 X8.309 Y12.726 Z.481 B0. C90. E.044
G1 X7.179 Y13.395 Z.484 B0. C90. E.044
G1 X5.996 Y13.965 Z.486 B0. C90. E.044
G1 X4.758 Y14.433 Z.489 B0. C90. E.044
G1 X3.493 Y14.79 Z.492 B0. C90. E.044
G1 X2.196 Y15.037 Z.495 B0. C90. E.044
G1 X.936 Y15.169 Z.497 B0. C90. E.042
G1 X-.333 Y15.196 Z.5 B0. C90. E.042
G1 X-1.71 Y15.1 Z.503 B0. C90. E.046
G1 X-3.008 Y14.896 Z.506 B0. C90. E.044
G1 X-4.292 Y14.577 Z.508 B0. C90. E.044
G1 X-5.906 Y13.992 Z.512 B0. C90. E.057
G1 X-7.081 Y13.435 Z.515 B0. C90. E.043
G1 X-8.206 Y12.779 Z.517 B0. C90. E.043
G1 X-9.281 Y12.021 Z.52 B0. C90. E.044
G1 X-10.279 Y11.179 Z.523 B0. C90. E.043
G1 X-11.208 Y10.248 Z.526 B0. C90. E.044
G1 X-12.058 Y9.233 Z.528 B0. C90. E.044
G1 X-12.493 Y8.654 Z.53 B0. C90. E.024
G1 X-13.189 Y7.552 Z.533 B0. C90. E.043
G1 X-13.79 Y6.389 Z.535 B0. C90. E.044
G1 X-14.29 Y5.175 Z.538 B0. C90. E.044
G1 X-14.685 Y3.919 Z.541 B0. C90. E.044
G1 X-14.968 Y2.637 Z.544 B0. C90. E.044
G1 X-15.141 Y1.331 Z.546 B0. C90. E.044
G1 X-15.199 Y.02 Z.549 B0. C90. E.044
G1 X-15.145 Y-1.29 Z.552 B0. C90. E.044
G1 X-14.978 Y-2.583 Z.555 B0. C90. E.043
G1 X-14.703 Y-3.853 Z.557 B0. C90. E.043
G1 X-14.298 Y-5.151 Z.56 B0. C90. E.045
G1 X-13.804 Y-6.361 Z.563 B0. C90. E.043
G1 X-13.201 Y-7.531 Z.566 B0. C90. E.044
G1 X-12.508 Y-8.635 Z.568 B0. C90. E.043
G1 X-11.72 Y-9.677 Z.571 B0. C90. E.043
G1 X-10.84 Y-10.654 Z.574 B0. C90. E.044
G1 X-9.883 Y-11.547 Z.577 B0. C90. E.044
G1 X-8.841 Y-12.362 Z.579 B0. C90. E.044
G1 X-7.739 Y-13.08 Z.582 B0. C90. E.044
G1 X-6.591 Y-13.695 Z.585 B0. C90. E.043
G1 X-5.389 Y-14.21 Z.588 B0. C90. E.043
G1 X-4.142 Y-14.622 Z.59 B0. C90. E.044
G1 X-2.864 Y-14.925 Z.593 B0. C90. E.044
G1 X-1.565 Y-15.117 Z.596 B0. C90. E.044
G1 X-.013 Y-15.19 Z.599 B0. C90. E.052
G1 X1.233 Y-15.141 Z.602 B0. C90. E.041
G1 X2.517 Y-14.982 Z.604 B0. C90. E.043
G1 X3.785 Y-14.713 Z.607 B0. C90. E.043
G1 X5.032 Y-14.335 Z.61 B0. C90. E.043
G1 X6.253 Y-13.845 Z.612 B0. C90. E.044
G1 X7.459 Y-13.233 Z.615 B0. C90. E.045
G1 X8.543 Y-12.562 Z.618 B0. C90. E.042
G1 X9.597 Y-11.776 Z.621 B0. C90. E.044
G1 X10.565 Y-10.917 Z.623 B0. C90. E.043
G1 X11.457 Y-9.976 Z.626 B0. C90. E.043
G1 X12.27 Y-8.958 Z.629 B0. C90. E.043
G1 X12.999 Y-7.863 Z.632 B0. C90. E.044
G1 X13.645 Y-6.675 Z.634 B0. C90. E.045
G1 X14.158 Y-5.508 Z.637 B0. C90. E.042
G1 X14.607 Y-4.167 Z.64 B0. C90. E.047
G1 X14.92 Y-2.844 Z.643 B0. C90. E.045
G1 X15.057 Y-2.054 Z.645 B0. C90. E.027
G1 X15.193 Y-.316 Z.648 B0. C90. E.058
G1 X15.15 Y1.07 Z.651 B0. C90. E.046
G1 X15.083 Y1.846 Z.653 B0. C90. E.026
G1 X14.866 Y3.152 Z.656 B0. C90. E.044
G1 X14.543 Y4.407 Z.658 B0. C90. E.043
G1 X14.052 Y5.789 Z.661 B0. C90. E.049
G1 X13.572 Y6.837 Z.664 B0. C90. E.038
G1 X12.939 Y7.968 Z.666 B0. C90. E.043
G1 X12.197 Y9.064 Z.669 B0. C90. E.044
G1 X11.38 Y10.07 Z.672 B0. C90. E.043
G1 X10.461 Y11.023 Z.675 B0. C90. E.044
G1 X9.484 Y11.873 Z.677 B0. C90. E.043
G1 X8.297 Y12.734 Z.68 B0. C90. E.049
G1 X7.306 Y13.324 Z.683 B0. C90. E.038
G1 X6.077 Y13.931 Z.686 B0. C90. E.046
G1 X4.911 Y14.381 Z.688 B0. C90. E.042
G1 X3.637 Y14.755 Z.691 B0. C90. E.044
G1 X2.372 Y15.011 Z.694 B0. C90. E.043
G1 X1.011 Y15.166 Z.697 B0. C90. E.046
G1 X-.638 Y15.177 Z.7 B0. C90. E.055
G1 X-1.864 Y15.077 Z.703 B0. C90. E.041
G1 X-3.197 Y14.851 Z.706 B0. C90. E.045
G1 X-4.432 Y14.531 Z.708 B0. C90. E.042
G1 X-5.672 Y14.093 Z.711 B0. C90. E.044
G1 X-6.85 Y13.56 Z.714 B0. C90. E.043
G1 X-7.982 Y12.926 Z.716 B0. C90. E.043
G1 X-9.06 Y12.195 Z.719 B0. C90. E.043
G1 X-10.08 Y11.364 Z.722 B0. C90. E.044
G1 X-11.051 Y10.423 Z.725 B0. C90. E.045
G1 X-11.887 Y9.459 Z.727 B0. C90. E.042
G1 X-12.66 Y8.397 Z.73 B0. C90. E.044
G1 X-13.329 Y7.289 Z.733 B0. C90. E.043
G1 X-13.902 Y6.126 Z.736 B0. C90. E.043
G1 X-14.376 Y4.913 Z.738 B0. C90. E.043
G1 X-14.747 Y3.65 Z.741 B0. C90. E.044
G1 X-15.006 Y2.373 Z.744 B0. C90. E.043
G1 X-15.154 Y1.066 Z.746 B0. C90. E.044
G1 X-15.19 Y-.236 Z.749 B0. C90. E.043
G1 X-15.113 Y-1.549 Z.752 B0. C90. E.044
G1 X-14.926 Y-2.832 Z.755 B0. C90. E.043
G1 X-14.629 Y-4.1 Z.757 B0. C90. E.043
G1 X-14.219 Y-5.35 Z.76 B0. C90. E.044
G1 X-13.708 Y-6.549 Z.763 B0. C90. E.043
G1 X-13.09 Y-7.71 Z.766 B0. C90. E.044
G1 X-12.385 Y-8.798 Z.768 B0. C90. E.043
G1 X-11.585 Y-9.827 Z.771 B0. C90. E.043
G1 X-10.692 Y-10.792 Z.774 B0. C90. E.044
G1 X-9.689 Y-11.7 Z.777 B0. C90. E.045
G1 X-8.673 Y-12.472 Z.779 B0. C90. E.042
G1 X-7.562 Y-13.176 Z.782 B0. C90. E.044
G1 X-6.415 Y-13.771 Z.785 B0. C90. E.043
G1 X-5.217 Y-14.268 Z.787 B0. C90. E.043
G1 X-3.976 Y-14.663 Z.79 B0. C90. E.043
G1 X-2.692 Y-14.951 Z.793 B0. C90. E.044
G1 X-1.352 Y-15.131 Z.796 B0. C90. E.045
G1 X-.009 Y-15.19 Z.799 B0. C90. E.045
G1 X1.735 Y-15.087 Z.802 B0. C90. E.058
G1 X3.01 Y-14.885 Z.805 B0. C90. E.043
G1 X4.264 Y-14.576 Z.808 B0. C90. E.043
G1 X5.511 Y-14.152 Z.81 B0. C90. E.044
G1 X6.702 Y-13.628 Z.813 B0. C90. E.043
G1 X7.535 Y-13.189 Z.815 B0. C90. E.031
G1 X8.617 Y-12.509 Z.818 B0. C90. E.042
G1 X9.665 Y-11.718 Z.821 B0. C90. E.044
G1 X10.625 Y-10.856 Z.823 B0. C90. E.043
G1 X11.51 Y-9.912 Z.826 B0. C90. E.043
G1 X12.319 Y-8.887 Z.829 B0. C90. E.043
G1 X13.04 Y-7.79 Z.831 B0. C90. E.044
G1 X13.682 Y-6.596 Z.834 B0. C90. E.045
G1 X14.189 Y-5.423 Z.837 B0. C90. E.042
G1 X14.604 Y-4.178 Z.84 B0. C90. E.044
G1 X14.906 Y-2.922 Z.842 B0. C90. E.043
G1 X15.086 Y-1.812 Z.845 B0. C90. E.037
G1 X15.193 Y-.338 Z.848 B0. C90. E.049
G1 X15.182 Y.702 Z.85 B0. C90. E.035
G1 X15.019 Y2.271 Z.853 B0. C90. E.052
G1 X14.767 Y3.559 Z.856 B0. C90. E.044
G1 X14.543 Y4.41 Z.858 B0. C90. E.029
G1 X14.034 Y5.829 Z.861 B0. C90. E.05
G1 X13.373 Y7.204 Z.864 B0. C90. E.051
G1 X12.705 Y8.326 Z.867 B0. C90. E.043
G1 X11.938 Y9.392 Z.87 B0. C90. E.044
G1 X11.088 Y10.383 Z.872 B0. C90. E.043
G1 X10.15 Y11.301 Z.875 B0. C90. E.044
G1 X9.483 Y11.875 Z.877 B0. C90. E.029
G1 X8.259 Y12.756 Z.88 B0. C90. E.05
G1 X6.935 Y13.514 Z.883 B0. C90. E.051
G1 X5.702 Y14.078 Z.886 B0. C90. E.045
G1 X4.498 Y14.508 Z.889 B0. C90. E.043
G1 X3.228 Y14.843 Z.892 B0. C90. E.044
G1 X1.957 Y15.063 Z.894 B0. C90. E.043
G1 X.978 Y15.168 Z.896 B0. C90. E.033
G1 X-.351 Y15.195 Z.899 B0. C90. E.044
G1 X-1.945 Y15.065 Z.902 B0. C90. E.053
G1 X-3.281 Y14.831 Z.905 B0. C90. E.045
G1 X-4.516 Y14.503 Z.908 B0. C90. E.043
G1 X-5.751 Y14.059 Z.911 B0. C90. E.044
G1 X-6.924 Y13.52 Z.913 B0. C90. E.043
G1 X-7.698 Y13.102 Z.915 B0. C90. E.029
G1 X-9.126 Y12.143 Z.919 B0. C90. E.057
G1 X-9.832 Y11.587 Z.921 B0. C90. E.03
G1 X-10.837 Y10.657 Z.924 B0. C90. E.046
G1 X-11.939 Y9.39 Z.927 B0. C90. E.056
G1 X-12.706 Y8.324 Z.93 B0. C90. E.044
G1 X-13.367 Y7.215 Z.933 B0. C90. E.043
G1 X-13.768 Y6.432 Z.934 B0. C90. E.029
G1 X-14.401 Y4.833 Z.938 B0. C90. E.057
G1 X-14.668 Y3.975 Z.94 B0. C90. E.03
G1 X-15.017 Y2.29 Z.943 B0. C90. E.057
G1 X-15.158 Y.984 Z.946 B0. C90. E.044
G1 X-15.187 Y-.321 Z.949 B0. C90. E.043
G1 X-15.102 Y-1.631 Z.952 B0. C90. E.044
G1 X-14.989 Y-2.503 Z.953 B0. C90. E.029
G1 X-14.604 Y-4.18 Z.957 B0. C90. E.057
G1 X-14.337 Y-5.038 Z.959 B0. C90. E.03
G1 X-13.67 Y-6.624 Z.963 B0. C90. E.057
G1 X-13.047 Y-7.78 Z.965 B0. C90. E.044
G1 X-12.58 Y-8.525 Z.967 B0. C90. E.029
G1 X-11.531 Y-9.888 Z.971 B0. C90. E.057
G1 X-10.931 Y-10.557 Z.973 B0. C90. E.03
G1 X-9.937 Y-11.5 Z.976 B0. C90. E.046
G1 X-8.602 Y-12.519 Z.979 B0. C90. E.056
G1 X-7.488 Y-13.216 Z.982 B0. C90. E.044
G1 X-6.34 Y-13.804 Z.984 B0. C90. E.043
G1 X-5.533 Y-14.153 Z.986 B0. C90. E.029
G1 X-4.103 Y-14.632 Z.989 B0. C90. E.05
G1 X-3.023 Y-14.893 Z.992 B0. C90. E.037
G1 X-1.67 Y-15.107 Z.995 B0. C90. E.046
G1 X-.012 Y-15.19 Z.998 B0. C90. E.055
G1 X1.222 Y-15.143 Z1.001 B0. C90. E.041
G1 X2.497 Y-14.986 Z1.003 B0. C90. E.043
G1 X3.759 Y-14.72 Z1.006 B0. C90. E.043
G1 X5.009 Y-14.344 Z1.009 B0. C90. E.043
G1 X6.231 Y-13.856 Z1.012 B0. C90. E.044
G1 X7.397 Y-13.271 Z1.014 B0. C90. E.043
G1 X8.533 Y-12.569 Z1.017 B0. C90. E.044
G1 X9.588 Y-11.784 Z1.02 B0. C90. E.044
G1 X10.551 Y-10.931 Z1.022 B0. C90. E.043
G1 X11.44 Y-9.997 Z1.025 B0. C90. E.043
G1 X12.256 Y-8.978 Z1.028 B0. C90. E.043
G1 X12.987 Y-7.885 Z1.031 B0. C90. E.044
G1 X13.615 Y-6.741 Z1.033 B0. C90. E.043
G1 X14.154 Y-5.52 Z1.036 B0. C90. E.044
G1 X14.578 Y-4.275 Z1.039 B0. C90. E.044
G1 X14.888 Y-3.027 Z1.042 B0. C90. E.043
G1 X15.083 Y-1.848 Z1.044 B0. C90. E.04
G1 X15.184 Y-.677 Z1.047 B0. C90. E.039
G1 X15.186 Y.626 Z1.049 B0. C90. E.043
G1 X15.038 Y2.163 Z1.053 B0. C90. E.051
G1 X14.794 Y3.456 Z1.055 B0. C90. E.044
G1 X14.448 Y4.698 Z1.058 B0. C90. E.043
G1 X13.992 Y5.921 Z1.061 B0. C90. E.043
G1 X13.427 Y7.109 Z1.063 B0. C90. E.044
G1 X12.767 Y8.236 Z1.066 B0. C90. E.043
G1 X12.007 Y9.309 Z1.069 B0. C90. E.044
G1 X11.164 Y10.305 Z1.072 B0. C90. E.043
G1 X10.23 Y11.232 Z1.074 B0. C90. E.044
G1 X9.241 Y12.059 Z1.077 B0. C90. E.043
G1 X8.172 Y12.808 Z1.08 B0. C90. E.043
G1 X7.033 Y13.467 Z1.083 B0. C90. E.044
G1 X5.851 Y14.021 Z1.085 B0. C90. E.043
G1 X4.597 Y14.479 Z1.088 B0. C90. E.044
G1 X3.328 Y14.823 Z1.091 B0. C90. E.044
G1 X2.063 Y15.052 Z1.094 B0. C90. E.043
G1 X.981 Y15.168 Z1.096 B0. C90. E.036
G1 X-.657 Y15.176 Z1.099 B0. C90. E.054
G1 X-2.189 Y15.028 Z1.102 B0. C90. E.051
G1 X-2.946 Y14.911 Z1.104 B0. C90. E.025
G1 X-4.24 Y14.595 Z1.107 B0. C90. E.044
G1 X-5.495 Y14.169 Z1.11 B0. C90. E.044
G1 X-6.674 Y13.655 Z1.112 B0. C90. E.043
G1 X-7.809 Y13.039 Z1.115 B0. C90. E.043
G1 X-8.894 Y12.325 Z1.118 B0. C90. E.043
G1 X-9.794 Y11.617 Z1.12 B0. C90. E.038
G1 X-10.878 Y10.615 Z1.123 B0. C90. E.049
G1 X-11.765 Y9.621 Z1.126 B0. C90. E.044
G1 X-12.558 Y8.56 Z1.129 B0. C90. E.044
G1 X-13.238 Y7.468 Z1.131 B0. C90. E.043
G1 X-13.824 Y6.317 Z1.134 B0. C90. E.043
G1 X-14.313 Y5.114 Z1.137 B0. C90. E.043
G1 X-14.703 Y3.85 Z1.14 B0. C90. E.044
G1 X-14.979 Y2.581 Z1.142 B0. C90. E.043
G1 X-15.146 Y1.269 Z1.145 B0. C90. E.044
G1 X-15.199 Y-.029 Z1.148 B0. C90. E.043
G1 X-15.139 Y-1.35 Z1.151 B0. C90. E.044
G1 X-14.97 Y-2.63 Z1.153 B0. C90. E.043
G1 X-14.691 Y-3.899 Z1.156 B0. C90. E.043
G1 X-14.352 Y-4.993 Z1.158 B0. C90. E.038
G1 X-13.803 Y-6.363 Z1.161 B0. C90. E.049
G1 X-13.282 Y-7.382 Z1.164 B0. C90. E.038
G1 X-12.51 Y-8.632 Z1.167 B0. C90. E.049
G1 X-11.727 Y-9.668 Z1.17 B0. C90. E.043
G1 X-10.843 Y-10.651 Z1.172 B0. C90. E.044
G1 X-9.894 Y-11.538 Z1.175 B0. C90. E.043
G1 X-8.844 Y-12.36 Z1.178 B0. C90. E.044
G1 X-7.733 Y-13.083 Z1.181 B0. C90. E.044
G1 X-6.601 Y-13.691 Z1.183 B0. C90. E.043
G1 X-5.415 Y-14.202 Z1.186 B0. C90. E.043
G1 X-4.182 Y-14.613 Z1.189 B0. C90. E.043
G1 X-2.896 Y-14.92 Z1.192 B0. C90. E.044
G1 X-1.612 Y-15.114 Z1.194 B0. C90. E.043
G1 X-.014 Y-15.19 Z1.198 B0. C90. E.053
G1 X1.2 Y-15.145 Z1.2 B0. C90. E.04
G1 X2.47 Y-14.991 Z1.203 B0. C90. E.043
G1 X3.728 Y-14.729 Z1.206 B0. C90. E.043
G1 X4.974 Y-14.357 Z1.208 B0. C90. E.043
G1 X6.203 Y-13.87 Z1.211 B0. C90. E.044
G1 X7.367 Y-13.289 Z1.214 B0. C90. E.043
G1 X8.509 Y-12.586 Z1.217 B0. C90. E.045
G1 X9.572 Y-11.798 Z1.219 B0. C90. E.044
G1 X10.532 Y-10.951 Z1.222 B0. C90. E.043
G1 X11.42 Y-10.022 Z1.225 B0. C90. E.043
G1 X12.235 Y-9.009 Z1.227 B0. C90. E.043
G1 X12.972 Y-7.911 Z1.23 B0. C90. E.044
G1 X13.6 Y-6.772 Z1.233 B0. C90. E.043
G1 X14.128 Y-5.593 Z1.236 B0. C90. E.043
G1 X14.529 Y-4.46 Z1.238 B0. C90. E.04
G1 X14.854 Y-3.223 Z1.241 B0. C90. E.043
G1 X15.099 Y-1.669 Z1.244 B0. C90. E.052
G1 X15.193 Y-.338 Z1.247 B0. C90. E.044
G1 X15.151 Y1.067 Z1.25 B0. C90. E.047
G1 X15.076 Y1.937 Z1.252 B0. C90. E.029
G1 X14.848 Y3.248 Z1.254 B0. C90. E.044
G1 X14.521 Y4.491 Z1.257 B0. C90. E.043
G1 X14.086 Y5.708 Z1.26 B0. C90. E.043
G1 X13.533 Y6.919 Z1.263 B0. C90. E.044
G1 X12.896 Y8.044 Z1.265 B0. C90. E.043
G1 X12.143 Y9.142 Z1.268 B0. C90. E.044
G1 X11.323 Y10.14 Z1.271 B0. C90. E.043
G1 X10.392 Y11.092 Z1.274 B0. C90. E.044
G1 X9.418 Y11.93 Z1.276 B0. C90. E.043
G1 X8.37 Y12.687 Z1.279 B0. C90. E.043
G1 X7.228 Y13.371 Z1.282 B0. C90. E.044
G1 X6.065 Y13.937 Z1.284 B0. C90. E.043
G1 X4.813 Y14.418 Z1.287 B0. C90. E.045
G1 X3.527 Y14.784 Z1.29 B0. C90. E.044
G1 X2.274 Y15.028 Z1.293 B0. C90. E.042
G1 X1.037 Y15.163 Z1.295 B0. C90. E.041
G1 X-.66 Y15.176 Z1.299 B0. C90. E.056
G1 X-2.174 Y15.03 Z1.302 B0. C90. E.051
G1 X-2.902 Y14.92 Z1.304 B0. C90. E.025
G1 X-4.206 Y14.606 Z1.306 B0. C90. E.045
G1 X-5.472 Y14.18 Z1.309 B0. C90. E.044
G1 X-6.644 Y13.67 Z1.312 B0. C90. E.043
G1 X-7.775 Y13.06 Z1.314 B0. C90. E.043
G1 X-8.857 Y12.352 Z1.317 B0. C90. E.043
G1 X-9.903 Y11.53 Z1.32 B0. C90. E.044
G1 X-10.847 Y10.647 Z1.323 B0. C90. E.043
G1 X-11.744 Y9.649 Z1.325 B0. C90. E.045
G1 X-12.544 Y8.581 Z1.328 B0. C90. E.044
G1 X-13.222 Y7.497 Z1.331 B0. C90. E.043
G1 X-13.808 Y6.353 Z1.334 B0. C90. E.043
G1 X-14.298 Y5.157 Z1.336 B0. C90. E.043
G1 X-14.694 Y3.886 Z1.339 B0. C90. E.044
G1 X-14.971 Y2.624 Z1.342 B0. C90. E.043
G1 X-15.143 Y1.304 Z1.345 B0. C90. E.044
G1 X-15.2 Y.012 Z1.347 B0. C90. E.043
G1 X-15.142 Y-1.318 Z1.35 B0. C90. E.044
G1 X-14.977 Y-2.592 Z1.353 B0. C90. E.043
G1 X-14.702 Y-3.855 Z1.356 B0. C90. E.043
G1 X-14.365 Y-4.951 Z1.358 B0. C90. E.038
G1 X-13.822 Y-6.324 Z1.361 B0. C90. E.049
G1 X-13.301 Y-7.346 Z1.363 B0. C90. E.038
G1 X-12.534 Y-8.598 Z1.366 B0. C90. E.049
G1 X-11.758 Y-9.632 Z1.369 B0. C90. E.043
G1 X-10.87 Y-10.624 Z1.372 B0. C90. E.044
G1 X-9.928 Y-11.509 Z1.375 B0. C90. E.043
G1 X-8.874 Y-12.34 Z1.377 B0. C90. E.045
G1 X-7.755 Y-13.072 Z1.38 B0. C90. E.044
G1 X-6.632 Y-13.677 Z1.383 B0. C90. E.042
G1 X-5.453 Y-14.188 Z1.386 B0. C90. E.043
G1 X-4.228 Y-14.6 Z1.388 B0. C90. E.043
G1 X-2.934 Y-14.914 Z1.391 B0. C90. E.044
G1 X-1.656 Y-15.109 Z1.394 B0. C90. E.043
G1 X-.014 Y-15.19 Z1.397 B0. C90. E.055
G1 X1.326 Y-15.132 Z1.4 B0. C90. E.045
G1 X2.592 Y-14.967 Z1.403 B0. C90. E.042
G1 X3.844 Y-14.696 Z1.405 B0. C90. E.043
G1 X4.795 Y-14.423 Z1.407 B0. C90. E.033
G1 X6.313 Y-13.817 Z1.411 B0. C90. E.054
G1 X7.204 Y-13.384 Z1.413 B0. C90. E.033
G1 X8.31 Y-12.726 Z1.416 B0. C90. E.043
G1 X9.369 Y-11.967 Z1.418 B0. C90. E.043
G1 X10.339 Y-11.139 Z1.421 B0. C90. E.042
G1 X11.239 Y-10.229 Z1.424 B0. C90. E.043
G1 X12.126 Y-9.165 Z1.427 B0. C90. E.046
G1 X13.032 Y-7.804 Z1.43 B0. C90. E.054
G1 X13.521 Y-6.943 Z1.432 B0. C90. E.033
G1 X14.059 Y-5.773 Z1.435 B0. C90. E.043
G1 X14.502 Y-4.548 Z1.438 B0. C90. E.043
G1 X14.832 Y-3.314 Z1.44 B0. C90. E.043
G1 X15.058 Y-2.053 Z1.443 B0. C90. E.043
G1 X15.192 Y-.363 Z1.446 B0. C90. E.056
G1 X15.185 Y.654 Z1.449 B0. C90. E.034
G1 X15.018 Y2.281 Z1.452 B0. C90. E.054
G1 X14.864 Y3.166 Z1.454 B0. C90. E.03
G1 X14.544 Y4.405 Z1.456 B0. C90. E.043
G1 X14.085 Y5.713 Z1.459 B0. C90. E.046
G1 X13.571 Y6.841 Z1.462 B0. C90. E.041
G1 X12.702 Y8.332 Z1.466 B0. C90. E.057
G1 X12.193 Y9.072 Z1.467 B0. C90. E.03
G1 X11.08 Y10.391 Z1.471 B0. C90. E.057
G1 X10.451 Y11.034 Z1.473 B0. C90. E.03
G1 X9.485 Y11.873 Z1.476 B0. C90. E.043
G1 X8.366 Y12.69 Z1.479 B0. C90. E.046
G1 X7.302 Y13.326 Z1.481 B0. C90. E.041
G1 X6.059 Y13.94 Z1.484 B0. C90. E.046
G1 X4.472 Y14.515 Z1.488 B0. C90. E.056
G1 X3.604 Y14.765 Z1.489 B0. C90. E.03
G1 X2.356 Y15.014 Z1.492 B0. C90. E.042
G1 X.939 Y15.169 Z1.495 B0. C90. E.047
G1 X-.726 Y15.171 Z1.499 B0. C90. E.055
G1 X-1.538 Y15.119 Z1.5 B0. C90. E.027
G1 X-2.909 Y14.919 Z1.503 B0. C90. E.046
G1 X-4.543 Y14.494 Z1.507 B0. C90. E.056
G1 X-5.398 Y14.207 Z1.509 B0. C90. E.03
G1 X-6.569 Y13.705 Z1.511 B0. C90. E.042
G1 X-7.698 Y13.103 Z1.514 B0. C90. E.043
G1 X-8.861 Y12.35 Z1.517 B0. C90. E.046
G1 X-9.837 Y11.584 Z1.519 B0. C90. E.041
G1 X-10.853 Y10.642 Z1.522 B0. C90. E.046
G1 X-11.957 Y9.366 Z1.526 B0. C90. E.056
G1 X-12.5 Y8.646 Z1.528 B0. C90. E.03
G1 X-13.18 Y7.567 Z1.53 B0. C90. E.042
G1 X-13.769 Y6.431 Z1.533 B0. C90. E.043
G1 X-14.404 Y4.826 Z1.537 B0. C90. E.057
G1 X-14.67 Y3.968 Z1.539 B0. C90. E.03
G1 X-15.019 Y2.278 Z1.542 B0. C90. E.057
G1 X-15.134 Y1.386 Z1.544 B0. C90. E.03
G1 X-15.186 Y-.339 Z1.548 B0. C90. E.057
G1 X-15.148 Y-1.237 Z1.549 B0. C90. E.03
G1 X-14.989 Y-2.506 Z1.552 B0. C90. E.043
G1 X-14.602 Y-4.188 Z1.556 B0. C90. E.057
G1 X-14.335 Y-5.047 Z1.558 B0. C90. E.03
G1 X-13.664 Y-6.637 Z1.561 B0. C90. E.057
G1 X-13.254 Y-7.437 Z1.563 B0. C90. E.03
G1 X-12.581 Y-8.524 Z1.566 B0. C90. E.043
G1 X-11.755 Y-9.636 Z1.569 B0. C90. E.046
G1 X-10.928 Y-10.561 Z1.571 B0. C90. E.041
G1 X-9.922 Y-11.514 Z1.574 B0. C90. E.046
G1 X-8.576 Y-12.536 Z1.578 B0. C90. E.056
G1 X-7.82 Y-13.032 Z1.58 B0. C90. E.03
G1 X-6.704 Y-13.64 Z1.582 B0. C90. E.042
G1 X-5.532 Y-14.153 Z1.585 B0. C90. E.043
G1 X-4.222 Y-14.602 Z1.588 B0. C90. E.046
G1 X-3.016 Y-14.895 Z1.59 B0. C90. E.041
G1 X-1.648 Y-15.11 Z1.593 B0. C90. E.046
G1 X-.009 Y-15.19 Z1.597 B0. C90. E.055
G1 X1.248 Y-15.14 Z1.599 B0. C90. E.042
G1 X2.566 Y-14.973 Z1.602 B0. C90. E.044
G1 X3.372 Y-14.814 Z1.604 B0. C90. E.027
G1 X4.798 Y-14.423 Z1.607 B0. C90. E.049
G1 X5.957 Y-13.981 Z1.61 B0. C90. E.041
G1 X7.207 Y-13.383 Z1.612 B0. C90. E.046
G1 X8.314 Y-12.724 Z1.615 B0. C90. E.043
G1 X9.373 Y-11.964 Z1.618 B0. C90. E.043
G1 X10.342 Y-11.137 Z1.621 B0. C90. E.042
G1 X11.241 Y-10.227 Z1.623 B0. C90. E.043
G1 X12.128 Y-9.163 Z1.626 B0. C90. E.046
G1 X12.832 Y-8.142 Z1.629 B0. C90. E.041
G1 X13.523 Y-6.941 Z1.632 B0. C90. E.046
G1 X14.06 Y-5.77 Z1.634 B0. C90. E.043
G1 X14.502 Y-4.547 Z1.637 B0. C90. E.043
G1 X14.833 Y-3.313 Z1.64 B0. C90. E.042
G1 X15.058 Y-2.054 Z1.642 B0. C90. E.043
G1 X15.186 Y-.634 Z1.645 B0. C90. E.047
G1 Y.622 Z1.648 B0. C90. E.042
G1 X15.08 Y1.886 Z1.651 B0. C90. E.042
G1 X14.864 Y3.168 Z1.653 B0. C90. E.043
G1 X14.544 Y4.406 Z1.656 B0. C90. E.043
G1 X14.085 Y5.713 Z1.659 B0. C90. E.046
G1 X13.57 Y6.841 Z1.661 B0. C90. E.041
G1 X12.922 Y7.998 Z1.664 B0. C90. E.044
G1 X12.192 Y9.073 Z1.667 B0. C90. E.043
G1 X11.355 Y10.101 Z1.67 B0. C90. E.044
G1 X10.451 Y11.035 Z1.672 B0. C90. E.043
G1 X9.485 Y11.873 Z1.675 B0. C90. E.043
G1 X8.366 Y12.69 Z1.678 B0. C90. E.046
G1 X7.302 Y13.327 Z1.681 B0. C90. E.041
G1 X6.06 Y13.94 Z1.684 B0. C90. E.046
G1 X4.858 Y14.402 Z1.686 B0. C90. E.043
G1 X3.603 Y14.765 Z1.689 B0. C90. E.043
G1 X2.356 Y15.014 Z1.692 B0. C90. E.042
G1 X.941 Y15.169 Z1.695 B0. C90. E.047
G1 X-.698 Y15.173 Z1.698 B0. C90. E.055
G1 X-1.897 Y15.072 Z1.701 B0. C90. E.04
G1 X-3.197 Y14.851 Z1.703 B0. C90. E.044
G1 X-4.466 Y14.52 Z1.706 B0. C90. E.044
G1 X-5.682 Y14.089 Z1.709 B0. C90. E.043
G1 X-6.892 Y13.538 Z1.711 B0. C90. E.044
G1 X-8.005 Y12.911 Z1.714 B0. C90. E.042
G1 X-9.138 Y12.135 Z1.717 B0. C90. E.046
G1 X-10.105 Y11.341 Z1.72 B0. C90. E.042
G1 X-11.051 Y10.424 Z1.722 B0. C90. E.044
G1 X-11.908 Y9.431 Z1.725 B0. C90. E.044
G1 X-12.666 Y8.388 Z1.728 B0. C90. E.043
G1 X-13.351 Y7.247 Z1.731 B0. C90. E.044
G1 X-13.913 Y6.1 Z1.733 B0. C90. E.042
G1 X-14.394 Y4.856 Z1.736 B0. C90. E.044
G1 X-14.755 Y3.617 Z1.739 B0. C90. E.043
G1 X-15.008 Y2.363 Z1.741 B0. C90. E.043
G1 X-15.154 Y1.08 Z1.744 B0. C90. E.043
G1 X-15.19 Y-.254 Z1.747 B0. C90. E.044
G1 X-15.107 Y-1.597 Z1.75 B0. C90. E.045
G1 X-14.92 Y-2.86 Z1.752 B0. C90. E.042
G1 X-14.611 Y-4.158 Z1.755 B0. C90. E.044
G1 X-14.206 Y-5.383 Z1.758 B0. C90. E.043
G1 X-13.704 Y-6.559 Z1.761 B0. C90. E.043
G1 X-13.068 Y-7.746 Z1.763 B0. C90. E.045
G1 X-12.371 Y-8.816 Z1.766 B0. C90. E.042
G1 X-11.523 Y-9.897 Z1.769 B0. C90. E.046
G1 X-10.671 Y-10.812 Z1.772 B0. C90. E.042
G1 X-9.693 Y-11.697 Z1.774 B0. C90. E.044
G1 X-8.646 Y-12.489 Z1.777 B0. C90. E.044
G1 X-7.556 Y-13.18 Z1.78 B0. C90. E.043
G1 X-6.376 Y-13.789 Z1.783 B0. C90. E.044
G1 X-5.195 Y-14.275 Z1.785 B0. C90. E.042
G1 X-3.884 Y-14.686 Z1.788 B0. C90. E.046
G1 X-2.663 Y-14.956 Z1.791 B0. C90. E.042
G1 X-1.356 Y-15.131 Z1.793 B0. C90. E.044
G1 X-.013 Y-15.19 Z1.796 B0. C90. E.045
G1 X1.43 Y-15.121 Z1.799 B0. C90. E.048
G1 X2.332 Y-15.019 Z1.801 B0. C90. E.03
G1 X3.487 Y-14.792 Z1.804 B0. C90. E.039
G1 X4.725 Y-14.444 Z1.806 B0. C90. E.043
G1 X5.981 Y-13.972 Z1.809 B0. C90. E.045
G1 X7.286 Y-13.337 Z1.812 B0. C90. E.048
G1 X8.354 Y-12.698 Z1.815 B0. C90. E.041
G1 X9.43 Y-11.92 Z1.818 B0. C90. E.044
G1 X10.434 Y-11.051 Z1.82 B0. C90. E.044
G1 X11.258 Y-10.21 Z1.823 B0. C90. E.039
G1 X12.079 Y-9.221 Z1.826 B0. C90. E.043
G1 X12.847 Y-8.121 Z1.828 B0. C90. E.045
G1 X13.561 Y-6.857 Z1.831 B0. C90. E.048
G1 X14.08 Y-5.727 Z1.834 B0. C90. E.041
G1 X14.525 Y-4.476 Z1.837 B0. C90. E.044
G1 X14.848 Y-3.249 Z1.839 B0. C90. E.042
G1 X15.096 Y-1.706 Z1.843 B0. C90. E.052
G1 X15.193 Y-.31 Z1.846 B0. C90. E.047
G1 X15.101 Y1.649 Z1.85 B0. C90. E.065
G1 X14.859 Y3.198 Z1.853 B0. C90. E.052
G1 X14.538 Y4.428 Z1.856 B0. C90. E.042
G1 X14.025 Y5.85 Z1.859 B0. C90. E.05
G1 X13.56 Y6.865 Z1.861 B0. C90. E.037
G1 X12.93 Y7.985 Z1.864 B0. C90. E.043
G1 X12.176 Y9.096 Z1.867 B0. C90. E.045
G1 X11.252 Y10.215 Z1.87 B0. C90. E.048
G1 X10.359 Y11.122 Z1.872 B0. C90. E.042
G1 X9.467 Y11.889 Z1.875 B0. C90. E.039
G1 X8.238 Y12.769 Z1.878 B0. C90. E.05
G1 X7.279 Y13.34 Z1.88 B0. C90. E.037
G1 X5.974 Y13.975 Z1.883 B0. C90. E.048
G1 X4.809 Y14.419 Z1.886 B0. C90. E.041
G1 X3.531 Y14.783 Z1.889 B0. C90. E.044
G1 X2.23 Y15.034 Z1.891 B0. C90. E.044
G1 X1. Y15.167 Z1.894 B0. C90. E.041
G1 X-.698 Y15.173 Z1.898 B0. C90. E.056
G1 X-1.565 Y15.117 Z1.899 B0. C90. E.029
G1 X-2.999 Y14.899 Z1.902 B0. C90. E.048
G1 X-4.21 Y14.605 Z1.905 B0. C90. E.041
G1 X-5.469 Y14.181 Z1.908 B0. C90. E.044
G1 X-6.685 Y13.65 Z1.911 B0. C90. E.044
G1 X-7.72 Y13.091 Z1.913 B0. C90. E.039
G1 X-8.799 Y12.39 Z1.916 B0. C90. E.043
G1 X-9.858 Y11.568 Z1.918 B0. C90. E.045
G1 X-10.916 Y10.574 Z1.922 B0. C90. E.048
G1 X-11.746 Y9.646 Z1.924 B0. C90. E.041
G1 X-12.543 Y8.584 Z1.927 B0. C90. E.044
G1 X-13.244 Y7.456 Z1.93 B0. C90. E.044
G1 X-13.781 Y6.409 Z1.932 B0. C90. E.039
G1 X-14.272 Y5.22 Z1.935 B0. C90. E.043
G1 X-14.679 Y3.942 Z1.938 B0. C90. E.045
G1 X-14.91 Y2.907 Z1.94 B0. C90. E.035
G1 X-15.111 Y1.567 Z1.943 B0. C90. E.045
G1 X-15.197 Y-.094 Z1.946 B0. C90. E.055
G1 X-15.137 Y-1.364 Z1.949 B0. C90. E.042
G1 X-14.986 Y-2.531 Z1.951 B0. C90. E.039
G1 X-14.717 Y-3.789 Z1.954 B0. C90. E.043
G1 X-14.327 Y-5.073 Z1.957 B0. C90. E.045
G1 X-13.931 Y-6.057 Z1.959 B0. C90. E.035
G1 X-13.241 Y-7.463 Z1.962 B0. C90. E.052
G1 X-12.569 Y-8.544 Z1.965 B0. C90. E.042
G1 X-11.8 Y-9.576 Z1.968 B0. C90. E.043
G1 X-10.911 Y-10.58 Z1.97 B0. C90. E.045
G1 X-10.141 Y-11.309 Z1.973 B0. C90. E.035
G1 X-8.938 Y-12.291 Z1.976 B0. C90. E.052
G1 X-7.759 Y-13.069 Z1.979 B0. C90. E.047
G1 X-6.592 Y-13.695 Z1.982 B0. C90. E.044
G1 X-5.511 Y-14.162 Z1.984 B0. C90. E.039
G1 X-4.294 Y-14.577 Z1.987 B0. C90. E.043
G1 X-2.992 Y-14.901 Z1.99 B0. C90. E.045
G1 X-1.557 Y-15.118 Z1.993 B0. C90. E.048
G1 X-.013 Y-15.19 Z1.996 B0. C90. E.051
G1 X1.248 Y-15.14 Z1.999 B0. C90. E.042
G1 X2.562 Y-14.974 Z2.001 B0. C90. E.044
G1 X3.802 Y-14.708 Z2.004 B0. C90. E.042
G1 X5.061 Y-14.324 Z2.007 B0. C90. E.044
G1 X6.278 Y-13.834 Z2.009 B0. C90. E.044
G1 X7.455 Y-13.237 Z2.012 B0. C90. E.044
G1 X8.558 Y-12.55 Z2.015 B0. C90. E.043
G1 X9.61 Y-11.766 Z2.018 B0. C90. E.044
G1 X10.599 Y-10.883 Z2.02 B0. C90. E.044
G1 X11.47 Y-9.961 Z2.023 B0. C90. E.042
G1 X12.289 Y-8.931 Z2.026 B0. C90. E.044
G1 X13.014 Y-7.838 Z2.029 B0. C90. E.044
G1 X13.644 Y-6.678 Z2.031 B0. C90. E.044
G1 X14.165 Y-5.488 Z2.034 B0. C90. E.043
G1 X14.586 Y-4.247 Z2.037 B0. C90. E.044
G1 X14.943 Y-2.717 Z2.04 B0. C90. E.052
G1 X15.106 Y-1.591 Z2.042 B0. C90. E.038
G1 X15.193 Y-.309 Z2.045 B0. C90. E.043
G1 X15.145 Y1.142 Z2.048 B0. C90. E.048
G1 X15.084 Y1.847 Z2.05 B0. C90. E.024
G1 X14.866 Y3.161 Z2.052 B0. C90. E.044
G1 X14.549 Y4.389 Z2.055 B0. C90. E.042
G1 X14.051 Y5.793 Z2.058 B0. C90. E.05
G1 X13.576 Y6.829 Z2.061 B0. C90. E.038
G1 X12.844 Y8.126 Z2.064 B0. C90. E.05
G1 X12.198 Y9.065 Z2.066 B0. C90. E.038
G1 X11.38 Y10.072 Z2.069 B0. C90. E.043
G1 X10.454 Y11.032 Z2.072 B0. C90. E.044
G1 X9.498 Y11.863 Z2.074 B0. C90. E.042
G1 X8.292 Y12.737 Z2.077 B0. C90. E.05
G1 X7.313 Y13.321 Z2.08 B0. C90. E.038
G1 X6.063 Y13.938 Z2.083 B0. C90. E.046
G1 X4.882 Y14.394 Z2.085 B0. C90. E.042
G1 X3.593 Y14.768 Z2.088 B0. C90. E.045
G1 X2.358 Y15.014 Z2.091 B0. C90. E.042
G1 X.951 Y15.169 Z2.094 B0. C90. E.047
G1 X-.707 Y15.173 Z2.097 B0. C90. E.055
G1 X-1.891 Y15.074 Z2.1 B0. C90. E.04
G1 X-3.192 Y14.853 Z2.102 B0. C90. E.044
G1 X-4.45 Y14.526 Z2.105 B0. C90. E.043
G1 X-5.687 Y14.087 Z2.108 B0. C90. E.044
G1 X-6.893 Y13.538 Z2.111 B0. C90. E.044
G1 X-7.611 Y13.15 Z2.112 B0. C90. E.027
G1 X-8.933 Y12.296 Z2.116 B0. C90. E.052
G1 X-9.829 Y11.591 Z2.118 B0. C90. E.038
G1 X-10.852 Y10.643 Z2.121 B0. C90. E.046
G1 X-11.697 Y9.7 Z2.124 B0. C90. E.042
G1 X-12.507 Y8.636 Z2.126 B0. C90. E.044
G1 X-13.18 Y7.567 Z2.129 B0. C90. E.042
G1 X-13.764 Y6.443 Z2.132 B0. C90. E.042
G1 X-14.329 Y5.066 Z2.135 B0. C90. E.05
G1 X-14.668 Y3.976 Z2.137 B0. C90. E.038
G1 X-15.012 Y2.33 Z2.141 B0. C90. E.056
G1 X-15.134 Y1.391 Z2.143 B0. C90. E.032
G1 X-15.197 Y.096 Z2.145 B0. C90. E.043
G1 X-15.148 Y-1.237 Z2.148 B0. C90. E.044
G1 X-14.991 Y-2.494 Z2.151 B0. C90. E.042
G1 X-14.676 Y-3.949 Z2.154 B0. C90. E.05
G1 X-14.338 Y-5.039 Z2.156 B0. C90. E.038
G1 X-13.688 Y-6.59 Z2.16 B0. C90. E.056
G1 X-13.256 Y-7.434 Z2.162 B0. C90. E.032
G1 X-12.59 Y-8.511 Z2.164 B0. C90. E.042
G1 X-11.697 Y-9.703 Z2.168 B0. C90. E.05
G1 X-10.936 Y-10.553 Z2.17 B0. C90. E.038
G1 X-9.925 Y-11.512 Z2.173 B0. C90. E.046
G1 X-8.931 Y-12.297 Z2.175 B0. C90. E.042
G1 X-7.81 Y-13.038 Z2.178 B0. C90. E.045
G1 X-6.706 Y-13.638 Z2.181 B0. C90. E.042
G1 X-5.376 Y-14.215 Z2.184 B0. C90. E.048
G1 X-4.137 Y-14.625 Z2.187 B0. C90. E.043
G1 X-3.027 Y-14.893 Z2.189 B0. C90. E.038
G1 X-1.651 Y-15.11 Z2.192 B0. C90. E.046
G1 X-.008 Y-15.19 Z2.195 B0. C90. E.055
G1 X1.332 Y-15.132 Z2.198 B0. C90. E.045
G1 X2.206 Y-15.037 Z2.2 B0. C90. E.029
G1 X3.45 Y-14.8 Z2.203 B0. C90. E.042
G1 X4.89 Y-14.39 Z2.206 B0. C90. E.05
G1 X5.948 Y-13.985 Z2.208 B0. C90. E.038
G1 X7.205 Y-13.384 Z2.211 B0. C90. E.046
G1 X8.628 Y-12.501 Z2.215 B0. C90. E.056
G1 X9.382 Y-11.957 Z2.217 B0. C90. E.031
G1 X10.341 Y-11.138 Z2.219 B0. C90. E.042
G1 X11.232 Y-10.237 Z2.222 B0. C90. E.042
G1 X12.185 Y-9.083 Z2.225 B0. C90. E.05
G1 X12.827 Y-8.15 Z2.227 B0. C90. E.038
G1 X13.522 Y-6.942 Z2.23 B0. C90. E.046
G1 X14.051 Y-5.792 Z2.233 B0. C90. E.042
G1 X14.506 Y-4.536 Z2.236 B0. C90. E.044
G1 X14.911 Y-2.898 Z2.239 B0. C90. E.056
G1 X15.137 Y-1.226 Z2.243 B0. C90. E.056
G1 X15.197 Y.123 Z2.246 B0. C90. E.045
G1 X15.084 Y1.848 Z2.249 B0. C90. E.057
G1 X14.865 Y3.164 Z2.252 B0. C90. E.044
G1 X14.548 Y4.391 Z2.255 B0. C90. E.042
G1 X14.048 Y5.801 Z2.258 B0. C90. E.05
G1 X13.575 Y6.831 Z2.26 B0. C90. E.038
G1 X12.838 Y8.134 Z2.263 B0. C90. E.05
G1 X12.197 Y9.067 Z2.266 B0. C90. E.038
G1 X11.103 Y10.368 Z2.269 B0. C90. E.057
G1 X10.453 Y11.033 Z2.271 B0. C90. E.031
G1 X9.497 Y11.864 Z2.274 B0. C90. E.042
G1 X8.284 Y12.742 Z2.277 B0. C90. E.05
G1 X7.311 Y13.322 Z2.279 B0. C90. E.038
G1 X6.062 Y13.939 Z2.282 B0. C90. E.046
G1 X4.488 Y14.511 Z2.286 B0. C90. E.056
G1 X3.592 Y14.768 Z2.288 B0. C90. E.031
G1 X2.358 Y15.014 Z2.29 B0. C90. E.042
G1 X.948 Y15.169 Z2.293 B0. C90. E.047
G1 X-.731 Y15.172 Z2.297 B0. C90. E.056
G1 X-1.527 Y15.12 Z2.298 B0. C90. E.027
G1 X-2.906 Y14.919 Z2.301 B0. C90. E.046
G1 X-4.527 Y14.5 Z2.305 B0. C90. E.056
G1 X-5.409 Y14.204 Z2.307 B0. C90. E.031
G1 X-6.567 Y13.706 Z2.309 B0. C90. E.042
G1 X-7.686 Y13.11 Z2.312 B0. C90. E.042
G1 X-8.94 Y12.291 Z2.315 B0. C90. E.05
G1 X-9.829 Y11.591 Z2.318 B0. C90. E.038
G1 X-10.851 Y10.644 Z2.32 B0. C90. E.046
G1 X-11.947 Y9.379 Z2.324 B0. C90. E.056
G1 X-12.506 Y8.638 Z2.326 B0. C90. E.031
G1 X-13.18 Y7.569 Z2.329 B0. C90. E.042
G1 X-13.763 Y6.444 Z2.331 B0. C90. E.042
G1 X-14.332 Y5.058 Z2.334 B0. C90. E.05
G1 X-14.668 Y3.978 Z2.337 B0. C90. E.038
G1 X-15.014 Y2.314 Z2.34 B0. C90. E.057
G1 X-15.134 Y1.392 Z2.342 B0. C90. E.031
G1 X-15.188 Y-.307 Z2.346 B0. C90. E.057
G1 X-15.148 Y-1.235 Z2.348 B0. C90. E.031
G1 X-14.991 Y-2.492 Z2.35 B0. C90. E.042
G1 X-14.674 Y-3.956 Z2.353 B0. C90. E.05
G1 X-14.339 Y-5.037 Z2.356 B0. C90. E.038
G1 X-13.681 Y-6.604 Z2.359 B0. C90. E.057
G1 X-13.258 Y-7.431 Z2.361 B0. C90. E.031
G1 X-12.591 Y-8.509 Z2.364 B0. C90. E.042
G1 X-11.693 Y-9.708 Z2.367 B0. C90. E.05
G1 X-10.938 Y-10.551 Z2.369 B0. C90. E.038
G1 X-9.928 Y-11.51 Z2.372 B0. C90. E.046
G1 X-8.594 Y-12.524 Z2.376 B0. C90. E.056
G1 X-7.814 Y-13.036 Z2.378 B0. C90. E.031
G1 X-6.71 Y-13.637 Z2.38 B0. C90. E.042
G1 X-5.373 Y-14.216 Z2.383 B0. C90. E.048
G1 X-4.13 Y-14.627 Z2.386 B0. C90. E.044
G1 X-3.031 Y-14.892 Z2.389 B0. C90. E.038
G1 X-1.655 Y-15.109 Z2.392 B0. C90. E.046
G1 X-.013 Y-15.19 Z2.395 B0. C90. E.055
G1 X1.551 Y-15.108 Z2.398 B0. C90. E.052
G1 X2.794 Y-14.929 Z2.401 B0. C90. E.042
G1 X4.022 Y-14.645 Z2.404 B0. C90. E.042
G1 X5.294 Y-14.236 Z2.406 B0. C90. E.044
G1 X6.487 Y-13.733 Z2.409 B0. C90. E.043
G1 X7.668 Y-13.11 Z2.412 B0. C90. E.044
G1 X8.333 Y-12.712 Z2.413 B0. C90. E.026
G1 X9.431 Y-11.919 Z2.416 B0. C90. E.045
G1 X10.383 Y-11.1 Z2.419 B0. C90. E.042
G1 X11.268 Y-10.199 Z2.421 B0. C90. E.042
G1 X12.087 Y-9.212 Z2.424 B0. C90. E.043
G1 X12.858 Y-8.105 Z2.427 B0. C90. E.045
G1 X13.494 Y-6.992 Z2.43 B0. C90. E.043
G1 X14.061 Y-5.769 Z2.432 B0. C90. E.045
G1 X14.63 Y-4.082 Z2.436 B0. C90. E.059
G1 X15.004 Y-2.366 Z2.44 B0. C90. E.058
G1 X15.151 Y-1.066 Z2.443 B0. C90. E.044
G1 X15.198 Y.071 Z2.445 B0. C90. E.038
G1 X15.08 Y1.889 Z2.449 B0. C90. E.061
G1 X14.854 Y3.219 Z2.452 B0. C90. E.045
G1 X14.532 Y4.449 Z2.454 B0. C90. E.042
G1 X14.033 Y5.834 Z2.457 B0. C90. E.049
G1 X13.552 Y6.88 Z2.46 B0. C90. E.038
G1 X13.021 Y7.825 Z2.462 B0. C90. E.036
G1 X12.164 Y9.112 Z2.465 B0. C90. E.051
G1 X11.353 Y10.105 Z2.468 B0. C90. E.043
G1 X10.413 Y11.072 Z2.471 B0. C90. E.045
G1 X9.45 Y11.903 Z2.473 B0. C90. E.042
G1 X8.58 Y12.536 Z2.476 B0. C90. E.036
G1 X7.265 Y13.35 Z2.479 B0. C90. E.051
G1 X6.292 Y13.827 Z2.481 B0. C90. E.036
G1 X4.836 Y14.409 Z2.484 B0. C90. E.052
G1 X3.53 Y14.783 Z2.487 B0. C90. E.045
G1 X2.294 Y15.025 Z2.49 B0. C90. E.042
G1 X1.101 Y15.157 Z2.492 B0. C90. E.04
G1 X-.673 Y15.176 Z2.496 B0. C90. E.059
G1 X-2.119 Y15.039 Z2.499 B0. C90. E.048
G1 X-3.432 Y14.795 Z2.502 B0. C90. E.044
G1 X-4.184 Y14.612 Z2.504 B0. C90. E.026
G1 X-5.469 Y14.181 Z2.507 B0. C90. E.045
G1 X-6.62 Y13.682 Z2.509 B0. C90. E.042
G1 X-7.576 Y13.17 Z2.511 B0. C90. E.036
G1 X-8.643 Y12.493 Z2.514 B0. C90. E.042
G1 X-9.873 Y11.556 Z2.517 B0. C90. E.051
G1 X-10.666 Y10.818 Z2.519 B0. C90. E.036
G1 X-11.728 Y9.665 Z2.523 B0. C90. E.052
G1 X-12.543 Y8.584 Z2.526 B0. C90. E.045
G1 X-13.209 Y7.518 Z2.528 B0. C90. E.042
G1 X-13.788 Y6.394 Z2.531 B0. C90. E.042
G1 X-14.202 Y5.392 Z2.533 B0. C90. E.036
G1 X-14.684 Y3.923 Z2.536 B0. C90. E.051
G1 X-14.962 Y2.671 Z2.539 B0. C90. E.043
G1 X-15.119 Y1.514 Z2.541 B0. C90. E.039
G1 X-15.198 Y.053 Z2.544 B0. C90. E.049
G1 X-15.144 Y-1.294 Z2.547 B0. C90. E.045
G1 X-15.008 Y-2.369 Z2.55 B0. C90. E.036
G1 X-14.757 Y-3.608 Z2.552 B0. C90. E.042
G1 X-14.375 Y-4.92 Z2.555 B0. C90. E.045
G1 X-13.84 Y-6.281 Z2.558 B0. C90. E.049
G1 X-13.313 Y-7.323 Z2.561 B0. C90. E.039
G1 X-12.557 Y-8.563 Z2.564 B0. C90. E.048
G1 X-11.913 Y-9.425 Z2.566 B0. C90. E.036
G1 X-10.899 Y-10.593 Z2.569 B0. C90. E.051
G1 X-10.111 Y-11.338 Z2.571 B0. C90. E.036
G1 X-8.894 Y-12.325 Z2.575 B0. C90. E.052
G1 X-7.758 Y-13.07 Z2.578 B0. C90. E.045
G1 X-6.657 Y-13.664 Z2.58 B0. C90. E.042
G1 X-5.49 Y-14.171 Z2.583 B0. C90. E.042
G1 X-4.471 Y-14.518 Z2.585 B0. C90. E.036
G1 X-2.974 Y-14.905 Z2.588 B0. C90. E.051
G1 X-1.903 Y-15.072 Z2.591 B0. C90. E.036
G1 X-.278 Y-15.196 Z2.594 B0. C90. E.054
G1 X-.013 Y-15.19 Z2.595 B0. C90. E.009
G1 X1.226 Y-15.143 Z2.597 B0. C90. E.041
G1 X2.467 Y-14.993 Z2.6 B0. C90. E.042
G1 X3.699 Y-14.738 Z2.602 B0. C90. E.042
G1 X4.94 Y-14.371 Z2.605 B0. C90. E.043
G1 X6.184 Y-13.879 Z2.608 B0. C90. E.045
G1 X7.344 Y-13.304 Z2.611 B0. C90. E.043
G1 X8.569 Y-12.542 Z2.614 B0. C90. E.048
G1 X9.593 Y-11.781 Z2.616 B0. C90. E.042
G1 X10.531 Y-10.953 Z2.619 B0. C90. E.042
G1 X11.401 Y-10.045 Z2.621 B0. C90. E.042
G1 X12.216 Y-9.038 Z2.624 B0. C90. E.043
G1 X12.963 Y-7.928 Z2.627 B0. C90. E.045
G1 X13.589 Y-6.795 Z2.63 B0. C90. E.043
G1 X14.17 Y-5.476 Z2.633 B0. C90. E.048
G1 X14.581 Y-4.269 Z2.635 B0. C90. E.042
G1 X14.885 Y-3.053 Z2.638 B0. C90. E.042
G1 X15.079 Y-1.895 Z2.64 B0. C90. E.039
G1 X15.188 Y-.541 Z2.643 B0. C90. E.045
G1 X15.153 Y1.05 Z2.647 B0. C90. E.053
G1 X15.078 Y1.914 Z2.648 B0. C90. E.029
G1 X14.847 Y3.252 Z2.651 B0. C90. E.045
G1 X14.525 Y4.475 Z2.654 B0. C90. E.042
G1 X14.101 Y5.67 Z2.657 B0. C90. E.042
G1 X13.539 Y6.906 Z2.659 B0. C90. E.045
G1 X12.912 Y8.017 Z2.662 B0. C90. E.042
G1 X12.146 Y9.138 Z2.665 B0. C90. E.045
G1 X11.337 Y10.124 Z2.668 B0. C90. E.042
G1 X10.512 Y10.973 Z2.67 B0. C90. E.039
G1 X9.429 Y11.921 Z2.673 B0. C90. E.048
G1 X8.403 Y12.664 Z2.676 B0. C90. E.042
G1 X7.239 Y13.365 Z2.679 B0. C90. E.045
G1 X6.093 Y13.924 Z2.681 B0. C90. E.042
G1 X4.9 Y14.387 Z2.684 B0. C90. E.043
G1 X3.656 Y14.75 Z2.687 B0. C90. E.043
G1 X2.259 Y15.03 Z2.69 B0. C90. E.047
G1 X1.038 Y15.163 Z2.692 B0. C90. E.041
G1 X-.677 Y15.176 Z2.696 B0. C90. E.057
G1 X-2.131 Y15.037 Z2.699 B0. C90. E.049
G1 X-2.874 Y14.925 Z2.7 B0. C90. E.025
G1 X-4.119 Y14.63 Z2.703 B0. C90. E.043
G1 X-5.347 Y14.224 Z2.706 B0. C90. E.043
G1 X-6.494 Y13.738 Z2.708 B0. C90. E.041
G1 X-7.758 Y13.07 Z2.711 B0. C90. E.048
G1 X-8.826 Y12.373 Z2.714 B0. C90. E.042
G1 X-9.896 Y11.536 Z2.717 B0. C90. E.045
G1 X-10.828 Y10.666 Z2.719 B0. C90. E.042
G1 X-11.684 Y9.714 Z2.722 B0. C90. E.043
G1 X-12.467 Y8.689 Z2.725 B0. C90. E.043
G1 X-13.138 Y7.636 Z2.727 B0. C90. E.042
G1 X-13.8 Y6.369 Z2.73 B0. C90. E.048
G1 X-14.285 Y5.189 Z2.733 B0. C90. E.042
G1 X-14.692 Y3.893 Z2.736 B0. C90. E.045
G1 X-14.967 Y2.648 Z2.739 B0. C90. E.042
G1 X-15.124 Y1.474 Z2.741 B0. C90. E.039
G1 X-15.196 Y.125 Z2.744 B0. C90. E.045
G1 X-15.152 Y-1.158 Z2.747 B0. C90. E.043
G1 X-14.979 Y-2.576 Z2.75 B0. C90. E.048
G1 X-14.71 Y-3.823 Z2.752 B0. C90. E.042
G1 X-14.364 Y-4.956 Z2.755 B0. C90. E.039
G1 X-13.831 Y-6.303 Z2.758 B0. C90. E.048
G1 X-13.295 Y-7.36 Z2.76 B0. C90. E.039
G1 X-12.542 Y-8.585 Z2.763 B0. C90. E.048
G1 X-11.783 Y-9.599 Z2.766 B0. C90. E.042
G1 X-10.879 Y-10.614 Z2.769 B0. C90. E.045
G1 X-9.951 Y-11.488 Z2.771 B0. C90. E.042
G1 X-8.703 Y-12.452 Z2.775 B0. C90. E.052
G1 X-7.867 Y-13.001 Z2.777 B0. C90. E.033
G1 X-6.78 Y-13.599 Z2.779 B0. C90. E.041
G1 X-5.466 Y-14.182 Z2.782 B0. C90. E.048
G1 X-4.265 Y-14.588 Z2.785 B0. C90. E.042
G1 X-2.946 Y-14.911 Z2.788 B0. C90. E.045
G1 X-1.685 Y-15.105 Z2.791 B0. C90. E.042
G1 X-.011 Y-15.19 Z2.794 B0. C90. E.056
G1 X1.202 Y-15.146 Z2.797 B0. C90. E.04
G1 X2.443 Y-14.998 Z2.799 B0. C90. E.042
G1 X3.666 Y-14.747 Z2.802 B0. C90. E.041
G1 X4.993 Y-14.351 Z2.805 B0. C90. E.046
G1 X6.156 Y-13.893 Z2.807 B0. C90. E.042
G1 X7.395 Y-13.274 Z2.81 B0. C90. E.046
G1 X8.495 Y-12.596 Z2.813 B0. C90. E.043
G1 X9.575 Y-11.797 Z2.816 B0. C90. E.045
G1 X10.513 Y-10.971 Z2.818 B0. C90. E.042
G1 X11.379 Y-10.072 Z2.821 B0. C90. E.041
G1 X12.247 Y-8.993 Z2.824 B0. C90. E.046
G1 X12.946 Y-7.958 Z2.826 B0. C90. E.042
G1 X13.614 Y-6.744 Z2.829 B0. C90. E.046
G1 X14.138 Y-5.566 Z2.832 B0. C90. E.043
G1 X14.575 Y-4.293 Z2.835 B0. C90. E.045
G1 X14.88 Y-3.08 Z2.837 B0. C90. E.042
G1 X15.084 Y-1.848 Z2.84 B0. C90. E.042
G1 X15.19 Y-.467 Z2.843 B0. C90. E.046
G1 X15.176 Y.783 Z2.846 B0. C90. E.042
G1 X15.04 Y2.16 Z2.848 B0. C90. E.046
G1 X14.813 Y3.391 Z2.851 B0. C90. E.042
G1 X14.485 Y4.595 Z2.854 B0. C90. E.042
G1 X14.005 Y5.895 Z2.857 B0. C90. E.046
G1 X13.475 Y7.026 Z2.859 B0. C90. E.042
G1 X12.805 Y8.184 Z2.862 B0. C90. E.044
G1 X12.06 Y9.246 Z2.865 B0. C90. E.043
G1 X11.2 Y10.27 Z2.868 B0. C90. E.044
G1 X10.281 Y11.19 Z2.87 B0. C90. E.043
G1 X9.329 Y11.996 Z2.873 B0. C90. E.042
G1 X8.196 Y12.795 Z2.876 B0. C90. E.046
G1 X7.119 Y13.426 Z2.878 B0. C90. E.042
G1 X5.91 Y14. Z2.881 B0. C90. E.044
G1 X4.648 Y14.465 Z2.884 B0. C90. E.045
G1 X3.357 Y14.819 Z2.887 B0. C90. E.045
G1 X2.128 Y15.046 Z2.889 B0. C90. E.042
G1 X.459 Y15.18 Z2.893 B0. C90. E.056
G1 X-.746 Y15.171 Z2.895 B0. C90. E.04
G1 X-1.586 Y15.116 Z2.897 B0. C90. E.028
G1 X-3.065 Y14.884 Z2.9 B0. C90. E.05
G1 X-4.366 Y14.554 Z2.903 B0. C90. E.045
G1 X-5.632 Y14.112 Z2.906 B0. C90. E.045
G1 X-6.774 Y13.602 Z2.909 B0. C90. E.042
G1 X-7.868 Y13.001 Z2.911 B0. C90. E.041
G1 X-8.989 Y12.253 Z2.914 B0. C90. E.045
G1 X-9.992 Y11.448 Z2.917 B0. C90. E.043
G1 X-10.961 Y10.525 Z2.919 B0. C90. E.044
G1 X-11.843 Y9.518 Z2.922 B0. C90. E.045
G1 X-12.638 Y8.434 Z2.925 B0. C90. E.045
G1 X-13.291 Y7.367 Z2.928 B0. C90. E.042
G1 X-13.851 Y6.252 Z2.93 B0. C90. E.041
G1 X-14.348 Y5.01 Z2.933 B0. C90. E.044
G1 X-14.722 Y3.768 Z2.936 B0. C90. E.043
G1 X-14.996 Y2.459 Z2.939 B0. C90. E.045
G1 X-15.151 Y1.168 Z2.941 B0. C90. E.043
G1 X-15.195 Y-.166 Z2.944 B0. C90. E.044
G1 X-15.125 Y-1.464 Z2.947 B0. C90. E.043
G1 X-14.955 Y-2.7 Z2.949 B0. C90. E.041
G1 X-14.66 Y-4.005 Z2.952 B0. C90. E.045
G1 X-14.265 Y-5.24 Z2.955 B0. C90. E.043
G1 X-13.748 Y-6.474 Z2.958 B0. C90. E.045
G1 X-13.144 Y-7.625 Z2.96 B0. C90. E.043
G1 X-12.475 Y-8.678 Z2.963 B0. C90. E.042
G1 X-11.656 Y-9.75 Z2.966 B0. C90. E.045
G1 X-10.791 Y-10.701 Z2.969 B0. C90. E.043
G1 X-9.808 Y-11.609 Z2.971 B0. C90. E.045
G1 X-8.74 Y-12.429 Z2.974 B0. C90. E.045
G1 X-7.614 Y-13.149 Z2.977 B0. C90. E.044
G1 X-6.508 Y-13.732 Z2.98 B0. C90. E.042
G1 X-5.36 Y-14.221 Z2.982 B0. C90. E.042
G1 X-4.077 Y-14.64 Z2.985 B0. C90. E.045
G1 X-2.825 Y-14.932 Z2.988 B0. C90. E.043
G1 X-1.501 Y-15.123 Z2.99 B0. C90. E.045
G1 X-.004 Y-15.189 Z2.994 B0. C90. E.05
G1 X1.434 Y-15.121 Z2.997 B0. C90. E.048
G1 X2.669 Y-14.954 Z2.999 B0. C90. E.041
G1 X3.877 Y-14.687 Z3.002 B0. C90. E.041
G1 X5.211 Y-14.268 Z3.005 B0. C90. E.046
G1 X6.355 Y-13.797 Z3.007 B0. C90. E.041
G1 X7.597 Y-13.154 Z3.01 B0. C90. E.047
G1 X8.704 Y-12.446 Z3.013 B0. C90. E.044
G1 X9.753 Y-11.644 Z3.016 B0. C90. E.044
G1 X10.676 Y-10.806 Z3.018 B0. C90. E.041
G1 X11.52 Y-9.901 Z3.021 B0. C90. E.041
G1 X12.381 Y-8.799 Z3.024 B0. C90. E.046
G1 X13.057 Y-7.763 Z3.026 B0. C90. E.041
G1 X13.714 Y-6.529 Z3.029 B0. C90. E.047
G1 X14.225 Y-5.322 Z3.032 B0. C90. E.044
G1 X14.636 Y-4.063 Z3.035 B0. C90. E.044
G1 X14.921 Y-2.849 Z3.038 B0. C90. E.041
G1 X15.103 Y-1.625 Z3.04 B0. C90. E.041
G1 X15.195 Y-.241 Z3.043 B0. C90. E.046
G1 X15.144 Y1.162 Z3.046 B0. C90. E.047
G1 X14.984 Y2.487 Z3.049 B0. C90. E.044
G1 X14.711 Y3.779 Z3.052 B0. C90. E.044
G1 X14.409 Y4.808 Z3.054 B0. C90. E.036
G1 X13.906 Y6.112 Z3.057 B0. C90. E.046
G1 X13.362 Y7.224 Z3.059 B0. C90. E.041
G1 X12.642 Y8.421 Z3.062 B0. C90. E.046
G1 X11.914 Y9.423 Z3.065 B0. C90. E.041
G1 X10.997 Y10.477 Z3.068 B0. C90. E.046
G1 X10.101 Y11.345 Z3.07 B0. C90. E.041
G1 X9.144 Y12.13 Z3.073 B0. C90. E.041
G1 X7.991 Y12.918 Z3.076 B0. C90. E.046
G1 X6.912 Y13.527 Z3.078 B0. C90. E.041
G1 X5.64 Y14.104 Z3.081 B0. C90. E.046
G1 X4.394 Y14.538 Z3.084 B0. C90. E.044
G1 X3.12 Y14.865 Z3.087 B0. C90. E.044
G1 X1.89 Y15.072 Z3.089 B0. C90. E.041
G1 X.656 Y15.176 Z3.092 B0. C90. E.041
G1 X-.816 Y15.167 Z3.095 B0. C90. E.049
G1 X-2.32 Y15.009 Z3.098 B0. C90. E.05
G1 X-3.687 Y14.734 Z3.101 B0. C90. E.046
G1 X-4.955 Y14.355 Z3.104 B0. C90. E.044
G1 X-6.162 Y13.882 Z3.107 B0. C90. E.043
G1 X-7.573 Y13.171 Z3.11 B0. C90. E.053
G1 X-8.659 Y12.482 Z3.113 B0. C90. E.043
G1 X-9.733 Y11.667 Z3.115 B0. C90. E.045
G1 X-10.674 Y10.81 Z3.118 B0. C90. E.042
G1 X-11.619 Y9.791 Z3.121 B0. C90. E.046
G1 X-12.433 Y8.734 Z3.124 B0. C90. E.044
G1 X-13.122 Y7.661 Z3.126 B0. C90. E.042
G1 X-13.706 Y6.557 Z3.129 B0. C90. E.042
G1 X-14.204 Y5.387 Z3.132 B0. C90. E.042
G1 X-14.632 Y4.093 Z3.135 B0. C90. E.045
G1 X-14.922 Y2.854 Z3.137 B0. C90. E.042
G1 X-15.12 Y1.504 Z3.14 B0. C90. E.045
G1 X-15.192 Y.233 Z3.143 B0. C90. E.042
G1 X-15.153 Y-1.128 Z3.146 B0. C90. E.045
G1 X-15.008 Y-2.368 Z3.148 B0. C90. E.042
G1 X-14.756 Y-3.615 Z3.151 B0. C90. E.042
G1 X-14.374 Y-4.924 Z3.154 B0. C90. E.045
G1 X-13.911 Y-6.108 Z3.156 B0. C90. E.042
G1 X-13.308 Y-7.333 Z3.159 B0. C90. E.045
G1 X-12.66 Y-8.4 Z3.162 B0. C90. E.042
G1 X-11.902 Y-9.439 Z3.165 B0. C90. E.043
G1 X-11.02 Y-10.459 Z3.167 B0. C90. E.045
G1 X-10.105 Y-11.343 Z3.17 B0. C90. E.042
G1 X-9.025 Y-12.224 Z3.173 B0. C90. E.046
G1 X-7.919 Y-12.967 Z3.176 B0. C90. E.044
G1 X-6.806 Y-13.585 Z3.178 B0. C90. E.042
G1 X-5.13 Y-14.298 Z3.182 B0. C90. E.061
G1 X-3.795 Y-14.708 Z3.185 B0. C90. E.046
G1 X-2.584 Y-14.969 Z3.188 B0. C90. E.041
G1 X-1.199 Y-15.142 Z3.191 B0. C90. E.046
G1 X-.006 Y-15.189 Z3.193 B0. C90. E.04
G1 X1.252 Y-15.141 Z3.196 B0. C90. E.042
G1 X2.488 Y-14.989 Z3.198 B0. C90. E.041
G1 X3.934 Y-14.671 Z3.202 B0. C90. E.049
G1 X5.213 Y-14.267 Z3.204 B0. C90. E.045
G1 X6.41 Y-13.771 Z3.207 B0. C90. E.043
G1 X7.599 Y-13.153 Z3.21 B0. C90. E.045
G1 X8.705 Y-12.445 Z3.213 B0. C90. E.044
G1 X9.755 Y-11.642 Z3.215 B0. C90. E.044
G1 X10.679 Y-10.802 Z3.218 B0. C90. E.042
G1 X11.559 Y-9.853 Z3.221 B0. C90. E.043
G1 X12.384 Y-8.795 Z3.223 B0. C90. E.045
G1 X13.088 Y-7.708 Z3.226 B0. C90. E.043
G1 X13.716 Y-6.524 Z3.229 B0. C90. E.045
G1 X14.226 Y-5.319 Z3.232 B0. C90. E.044
G1 X14.637 Y-4.058 Z3.234 B0. C90. E.044
G1 X14.922 Y-2.842 Z3.237 B0. C90. E.042
G1 X15.109 Y-1.561 Z3.24 B0. C90. E.043
G1 X15.2 Y.01 Z3.243 B0. C90. E.052
G1 X15.073 Y1.959 Z3.247 B0. C90. E.065
G1 X14.857 Y3.207 Z3.25 B0. C90. E.042
G1 X14.54 Y4.42 Z3.252 B0. C90. E.042
G1 X13.98 Y5.952 Z3.256 B0. C90. E.054
G1 X13.33 Y7.281 Z3.259 B0. C90. E.049
G1 X12.637 Y8.429 Z3.262 B0. C90. E.045
G1 X11.872 Y9.475 Z3.264 B0. C90. E.043
G1 X10.991 Y10.484 Z3.267 B0. C90. E.045
G1 X10.093 Y11.352 Z3.27 B0. C90. E.042
G1 X9.09 Y12.168 Z3.273 B0. C90. E.043
G1 X7.981 Y12.924 Z3.275 B0. C90. E.045
G1 X6.851 Y13.556 Z3.278 B0. C90. E.043
G1 X5.629 Y14.108 Z3.281 B0. C90. E.045
G1 X4.383 Y14.541 Z3.284 B0. C90. E.044
G1 X3.108 Y14.868 Z3.286 B0. C90. E.044
G1 X1.877 Y15.074 Z3.289 B0. C90. E.042
G1 X1.055 Y15.161 Z3.291 B0. C90. E.027
G1 X-.363 Y15.194 Z3.294 B0. C90. E.047
G1 X-1.741 Y15.097 Z3.297 B0. C90. E.046
G1 X-3.185 Y14.856 Z3.3 B0. C90. E.049
G1 X-4.153 Y14.62 Z3.302 B0. C90. E.033
G1 X-5.352 Y14.223 Z3.304 B0. C90. E.042
G1 X-6.521 Y13.727 Z3.307 B0. C90. E.042
G1 X-7.728 Y13.086 Z3.31 B0. C90. E.045
G1 X-8.768 Y12.411 Z3.312 B0. C90. E.041
G1 X-9.872 Y11.556 Z3.315 B0. C90. E.046
G1 X-10.781 Y10.71 Z3.318 B0. C90. E.041
G1 X-11.707 Y9.687 Z3.321 B0. C90. E.046
G1 X-12.472 Y8.681 Z3.324 B0. C90. E.042
G1 X-13.155 Y7.609 Z3.326 B0. C90. E.042
G1 X-13.786 Y6.397 Z3.329 B0. C90. E.045
G1 X-14.26 Y5.251 Z3.332 B0. C90. E.041
G1 X-14.684 Y3.92 Z3.335 B0. C90. E.046
G1 X-14.954 Y2.708 Z3.337 B0. C90. E.041
G1 X-15.141 Y1.319 Z3.34 B0. C90. E.047
G1 X-15.197 Y.081 Z3.343 B0. C90. E.041
G1 X-15.15 Y-1.193 Z3.345 B0. C90. E.042
G1 X-14.983 Y-2.548 Z3.348 B0. C90. E.045
G1 X-14.724 Y-3.762 Z3.351 B0. C90. E.041
G1 X-14.318 Y-5.097 Z3.354 B0. C90. E.046
G1 X-13.853 Y-6.249 Z3.356 B0. C90. E.041
G1 X-13.279 Y-7.39 Z3.359 B0. C90. E.042
G1 X-12.562 Y-8.554 Z3.362 B0. C90. E.045
G1 X-11.702 Y-9.699 Z3.365 B0. C90. E.048
G1 X-10.599 Y-10.881 Z3.368 B0. C90. E.054
G1 X-9.554 Y-11.809 Z3.371 B0. C90. E.046
G1 X-8.49 Y-12.592 Z3.374 B0. C90. E.044
G1 X-7.371 Y-13.281 Z3.377 B0. C90. E.044
G1 X-6.256 Y-13.842 Z3.379 B0. C90. E.042
G1 X-5.056 Y-14.322 Z3.382 B0. C90. E.043
G1 X-4.138 Y-14.624 Z3.384 B0. C90. E.032
G1 X-2.561 Y-14.972 Z3.387 B0. C90. E.054
G1 X-1.173 Y-15.144 Z3.39 B0. C90. E.047
G1 X-.005 Y-15.189 Z3.393 B0. C90. E.039
G1 X1.656 Y-15.098 Z3.396 B0. C90. E.055
G1 X2.884 Y-14.912 Z3.399 B0. C90. E.041
G1 X3.628 Y-14.759 Z3.4 B0. C90. E.025
G1 X4.969 Y-14.361 Z3.403 B0. C90. E.047
G1 X6.123 Y-13.91 Z3.406 B0. C90. E.041
G1 X7.376 Y-13.286 Z3.409 B0. C90. E.047
G1 X8.382 Y-12.679 Z3.411 B0. C90. E.039
G1 X9.559 Y-11.811 Z3.414 B0. C90. E.049
G1 X10.492 Y-10.994 Z3.417 B0. C90. E.041
G1 X11.353 Y-10.104 Z3.42 B0. C90. E.041
G1 X12.232 Y-9.015 Z3.422 B0. C90. E.047
G1 X12.928 Y-7.991 Z3.425 B0. C90. E.041
G1 X13.604 Y-6.765 Z3.428 B0. C90. E.047
G1 X14.09 Y-5.699 Z3.43 B0. C90. E.039
G1 X14.569 Y-4.314 Z3.433 B0. C90. E.049
G1 X14.875 Y-3.113 Z3.436 B0. C90. E.041
G1 X15.08 Y-1.891 Z3.439 B0. C90. E.041
G1 X15.189 Y-.498 Z3.442 B0. C90. E.046
G1 X15.191 Y.355 Z3.443 B0. C90. E.028
G1 X15.082 Y1.868 Z3.447 B0. C90. E.05
G1 X14.823 Y3.353 Z3.45 B0. C90. E.05
G1 X14.386 Y4.872 Z3.453 B0. C90. E.053
G1 X13.979 Y5.955 Z3.455 B0. C90. E.039
G1 X13.329 Y7.283 Z3.459 B0. C90. E.049
G1 X12.74 Y8.279 Z3.461 B0. C90. E.039
G1 X11.872 Y9.475 Z3.464 B0. C90. E.049
G1 X11.118 Y10.354 Z3.466 B0. C90. E.039
G1 X10.236 Y11.23 Z3.469 B0. C90. E.041
G1 X9.093 Y12.166 Z3.472 B0. C90. E.049
G1 X8.143 Y12.828 Z3.475 B0. C90. E.039
G1 X6.856 Y13.554 Z3.478 B0. C90. E.049
G1 X5.805 Y14.041 Z3.48 B0. C90. E.039
G1 X4.79 Y14.425 Z3.482 B0. C90. E.036
G1 X3.293 Y14.832 Z3.486 B0. C90. E.052
G1 X2.07 Y15.053 Z3.488 B0. C90. E.041
G1 X.597 Y15.177 Z3.491 B0. C90. E.049
G1 X-.446 Y15.191 Z3.493 B0. C90. E.035
G1 X-2.219 Y15.025 Z3.497 B0. C90. E.059
G1 X-3.175 Y14.858 Z3.499 B0. C90. E.032
G1 X-4.224 Y14.6 Z3.501 B0. C90. E.036
G1 X-5.693 Y14.086 Z3.505 B0. C90. E.052
G1 X-6.826 Y13.575 Z3.507 B0. C90. E.041
G1 X-8.11 Y12.843 Z3.51 B0. C90. E.049
G1 X-9.067 Y12.192 Z3.513 B0. C90. E.039
G1 X-10.205 Y11.249 Z3.516 B0. C90. E.049
G1 X-11.036 Y10.443 Z3.518 B0. C90. E.039
G1 X-11.751 Y9.637 Z3.521 B0. C90. E.036
G1 X-12.673 Y8.379 Z3.524 B0. C90. E.052
G1 X-13.317 Y7.317 Z3.526 B0. C90. E.041
G1 X-13.96 Y5.986 Z3.53 B0. C90. E.049
G1 X-14.38 Y4.907 Z3.532 B0. C90. E.039
G1 X-14.784 Y3.486 Z3.535 B0. C90. E.049
G1 X-15.011 Y2.35 Z3.537 B0. C90. E.039
G1 X-15.165 Y.874 Z3.541 B0. C90. E.049
G1 X-15.19 Y-.278 Z3.543 B0. C90. E.038
G1 X-15.07 Y-1.894 Z3.546 B0. C90. E.054
G1 X-14.967 Y-2.646 Z3.548 B0. C90. E.025
G1 X-14.658 Y-4.012 Z3.551 B0. C90. E.047
G1 X-14.157 Y-5.506 Z3.554 B0. C90. E.052
G1 X-13.699 Y-6.57 Z3.557 B0. C90. E.039
G1 X-12.917 Y-7.99 Z3.56 B0. C90. E.054
G1 X-12.511 Y-8.63 Z3.562 B0. C90. E.025
G1 X-11.662 Y-9.744 Z3.565 B0. C90. E.047
G1 X-10.832 Y-10.663 Z3.567 B0. C90. E.041
G1 X-9.803 Y-11.613 Z3.57 B0. C90. E.047
G1 X-8.869 Y-12.343 Z3.572 B0. C90. E.039
G1 X-7.564 Y-13.177 Z3.576 B0. C90. E.052
G1 X-6.115 Y-13.903 Z3.579 B0. C90. E.054
G1 X-5.417 Y-14.201 Z3.581 B0. C90. E.025
G1 X-4.087 Y-14.638 Z3.584 B0. C90. E.047
G1 X-2.547 Y-14.975 Z3.587 B0. C90. E.052
G1 X-.966 Y-15.158 Z3.59 B0. C90. E.053
G1 X-.003 Y-15.189 Z3.592 B0. C90. E.032
G1 X.965 Y-15.168 Z3.594 B0. C90. E.032
G1 X2.372 Y-15.012 Z3.597 B0. C90. E.047
G1 X3.754 Y-14.722 Z3.6 B0. C90. E.047
G1 X4.931 Y-14.376 Z3.603 B0. C90. E.041
G1 X6.086 Y-13.928 Z3.605 B0. C90. E.041
G1 X7.342 Y-13.306 Z3.608 B0. C90. E.047
G1 X8.361 Y-12.693 Z3.611 B0. C90. E.04
G1 X9.654 Y-11.729 Z3.614 B0. C90. E.054
G1 X10.717 Y-10.765 Z3.617 B0. C90. E.048
G1 X11.551 Y-9.864 Z3.62 B0. C90. E.041
G1 X12.302 Y-8.914 Z3.622 B0. C90. E.04
G1 X13.083 Y-7.717 Z3.625 B0. C90. E.048
G1 X13.658 Y-6.65 Z3.628 B0. C90. E.04
G1 X14.082 Y-5.718 Z3.63 B0. C90. E.034
G1 X14.603 Y-4.188 Z3.633 B0. C90. E.054
G1 X14.931 Y-2.791 Z3.636 B0. C90. E.048
G1 X15.107 Y-1.576 Z3.639 B0. C90. E.041
G1 X15.196 Y-.167 Z3.642 B0. C90. E.047
G1 X15.107 Y1.593 Z3.646 B0. C90. E.059
G1 X14.83 Y3.326 Z3.649 B0. C90. E.058
G1 X14.393 Y4.852 Z3.653 B0. C90. E.053
G1 X13.965 Y5.985 Z3.655 B0. C90. E.04
G1 X13.337 Y7.269 Z3.658 B0. C90. E.048
G1 X12.719 Y8.31 Z3.661 B0. C90. E.04
G1 X11.879 Y9.466 Z3.664 B0. C90. E.048
G1 X11.089 Y10.384 Z3.666 B0. C90. E.04
G1 X10.058 Y11.382 Z3.669 B0. C90. E.048
G1 X9.105 Y12.157 Z3.672 B0. C90. E.041
G1 X8.11 Y12.848 Z3.674 B0. C90. E.04
G1 X6.866 Y13.55 Z3.677 B0. C90. E.048
G1 X5.765 Y14.056 Z3.68 B0. C90. E.04
G1 X4.799 Y14.422 Z3.682 B0. C90. E.034
G1 X3.247 Y14.841 Z3.685 B0. C90. E.053
G1 X1.831 Y15.079 Z3.688 B0. C90. E.048
G1 X.607 Y15.177 Z3.691 B0. C90. E.041
G1 X-.843 Y15.166 Z3.694 B0. C90. E.048
G1 X-2.369 Y15.002 Z3.697 B0. C90. E.051
G1 X-3.621 Y14.751 Z3.7 B0. C90. E.042
G1 X-4.22 Y14.601 Z3.701 B0. C90. E.021
G1 X-5.666 Y14.098 Z3.704 B0. C90. E.051
G1 X-7.042 Y13.459 Z3.707 B0. C90. E.05
G1 X-8.106 Y12.845 Z3.71 B0. C90. E.041
G1 X-9.106 Y12.162 Z3.712 B0. C90. E.04
G1 X-10.205 Y11.249 Z3.715 B0. C90. E.048
G1 X-11.072 Y10.403 Z3.718 B0. C90. E.04
G1 X-11.751 Y9.637 Z3.72 B0. C90. E.034
G1 X-12.66 Y8.4 Z3.723 B0. C90. E.051
G1 X-13.431 Y7.094 Z3.726 B0. C90. E.05
G1 X-13.961 Y5.985 Z3.729 B0. C90. E.041
G1 X-14.396 Y4.855 Z3.732 B0. C90. E.04
G1 X-14.786 Y3.48 Z3.735 B0. C90. E.048
G1 X-15.018 Y2.292 Z3.737 B0. C90. E.04
G1 X-15.165 Y.864 Z3.74 B0. C90. E.048
G1 X-15.188 Y-.34 Z3.743 B0. C90. E.04
G1 X-15.086 Y-1.772 Z3.746 B0. C90. E.048
G1 X-14.894 Y-2.986 Z3.748 B0. C90. E.041
G1 X-14.611 Y-4.163 Z3.751 B0. C90. E.04
G1 X-14.153 Y-5.516 Z3.754 B0. C90. E.048
G1 X-13.671 Y-6.627 Z3.756 B0. C90. E.04
G1 X-12.982 Y-7.887 Z3.759 B0. C90. E.048
G1 X-12.301 Y-8.91 Z3.762 B0. C90. E.041
G1 X-11.556 Y-9.863 Z3.764 B0. C90. E.04
G1 X-10.575 Y-10.904 Z3.767 B0. C90. E.048
G1 X-9.675 Y-11.713 Z3.77 B0. C90. E.04
G1 X-8.86 Y-12.35 Z3.772 B0. C90. E.034
G1 X-7.574 Y-13.171 Z3.775 B0. C90. E.051
G1 X-6.222 Y-13.857 Z3.778 B0. C90. E.05
G1 X-5.08 Y-14.314 Z3.781 B0. C90. E.041
G1 X-3.926 Y-14.677 Z3.783 B0. C90. E.04
G1 X-2.529 Y-14.978 Z3.787 B0. C90. E.048
G1 X-1.328 Y-15.134 Z3.789 B0. C90. E.04
G1 X-.005 Y-15.189 Z3.792 B0. C90. E.044
G1 X1.309 Y-15.135 Z3.795 B0. C90. E.044
G1 X3.119 Y-14.866 Z3.798 B0. C90. E.061
G1 X4.707 Y-14.45 Z3.802 B0. C90. E.055
G1 X5.999 Y-13.964 Z3.805 B0. C90. E.046
G1 X7.135 Y-13.418 Z3.807 B0. C90. E.042
G1 X8.244 Y-12.767 Z3.81 B0. C90. E.043
G1 X9.358 Y-11.975 Z3.813 B0. C90. E.045
G1 X10.403 Y-11.08 Z3.816 B0. C90. E.046
G1 X11.556 Y-9.857 Z3.819 B0. C90. E.056
G1 X12.398 Y-8.776 Z3.822 B0. C90. E.046
G1 X13.087 Y-7.711 Z3.825 B0. C90. E.042
G1 X13.729 Y-6.498 Z3.828 B0. C90. E.046
G1 X14.232 Y-5.302 Z3.83 B0. C90. E.043
G1 X14.617 Y-4.134 Z3.833 B0. C90. E.041
G1 X14.932 Y-2.785 Z3.836 B0. C90. E.046
G1 X15.108 Y-1.568 Z3.838 B0. C90. E.041
G1 X15.2 Y.003 Z3.842 B0. C90. E.052
G1 X15.075 Y1.945 Z3.846 B0. C90. E.065
G1 X14.853 Y3.222 Z3.849 B0. C90. E.043
G1 X14.391 Y4.859 Z3.852 B0. C90. E.057
G1 X13.896 Y6.135 Z3.855 B0. C90. E.046
G1 X13.334 Y7.274 Z3.858 B0. C90. E.042
G1 X12.625 Y8.447 Z3.86 B0. C90. E.046
G1 X11.876 Y9.47 Z3.863 B0. C90. E.042
G1 X10.972 Y10.504 Z3.866 B0. C90. E.046
G1 X10.054 Y11.386 Z3.869 B0. C90. E.042
G1 X9.1 Y12.161 Z3.871 B0. C90. E.041
G1 X7.968 Y12.933 Z3.874 B0. C90. E.046
G1 X6.86 Y13.552 Z3.877 B0. C90. E.042
G1 X5.61 Y14.116 Z3.88 B0. C90. E.046
G1 X4.372 Y14.544 Z3.882 B0. C90. E.044
G1 X3.083 Y14.873 Z3.885 B0. C90. E.044
G1 X1.827 Y15.079 Z3.888 B0. C90. E.042
G1 X.601 Y15.177 Z3.89 B0. C90. E.041
G1 X-.809 Y15.168 Z3.893 B0. C90. E.047
G1 X-2.431 Y14.992 Z3.897 B0. C90. E.054
G1 X-3.732 Y14.724 Z3.899 B0. C90. E.044
G1 X-5.01 Y14.337 Z3.902 B0. C90. E.044
G1 X-6.645 Y13.669 Z3.906 B0. C90. E.059
G1 X-8.11 Y12.843 Z3.91 B0. C90. E.056
G1 X-9.234 Y12.061 Z3.912 B0. C90. E.046
G1 X-10.208 Y11.247 Z3.915 B0. C90. E.042
G1 X-11.181 Y10.281 Z3.918 B0. C90. E.046
G1 X-12.018 Y9.286 Z3.921 B0. C90. E.043
G1 X-12.731 Y8.287 Z3.923 B0. C90. E.041
G1 X-13.433 Y7.091 Z3.926 B0. C90. E.046
G1 X-13.962 Y5.982 Z3.929 B0. C90. E.041
G1 X-14.445 Y4.7 Z3.931 B0. C90. E.046
G1 X-14.786 Y3.478 Z3.934 B0. C90. E.042
G1 X-15.04 Y2.13 Z3.937 B0. C90. E.046
G1 X-15.165 Y.861 Z3.94 B0. C90. E.042
G1 X-15.186 Y-.392 Z3.942 B0. C90. E.042
G1 X-15.086 Y-1.774 Z3.945 B0. C90. E.046
G1 X-14.893 Y-2.988 Z3.948 B0. C90. E.041
G1 X-14.563 Y-4.318 Z3.951 B0. C90. E.046
G1 X-14.152 Y-5.518 Z3.953 B0. C90. E.042
G1 X-13.596 Y-6.773 Z3.956 B0. C90. E.046
G1 X-12.981 Y-7.888 Z3.959 B0. C90. E.042
G1 X-12.3 Y-8.912 Z3.961 B0. C90. E.041
G1 X-11.448 Y-9.984 Z3.964 B0. C90. E.046
G1 X-10.574 Y-10.905 Z3.967 B0. C90. E.042
G1 X-9.548 Y-11.814 Z3.97 B0. C90. E.046
G1 X-8.491 Y-12.591 Z3.973 B0. C90. E.044
G1 X-7.36 Y-13.287 Z3.975 B0. C90. E.044
G1 X-6.221 Y-13.858 Z3.978 B0. C90. E.042
G1 X-5.08 Y-14.314 Z3.981 B0. C90. E.041
G1 X-3.77 Y-14.715 Z3.983 B0. C90. E.046
G1 X-2.528 Y-14.978 Z3.986 B0. C90. E.042
G1 X-1.167 Y-15.145 Z3.989 B0. C90. E.046
G1 X-.006 Y-15.189 Z3.991 B0. C90. E.039
G1 X1.242 Y-15.142 Z3.994 B0. C90. E.042
G1 X2.462 Y-14.995 Z3.996 B0. C90. E.041
G1 X3.664 Y-14.748 Z3.999 B0. C90. E.041
G1 X5.02 Y-14.342 Z4.002 B0. C90. E.047
G1 X6.16 Y-13.892 Z4.005 B0. C90. E.041
G1 X7.426 Y-13.256 Z4.008 B0. C90. E.047
G1 X9.018 Y-12.219 Z4.012 B0. C90. E.063
G1 X10.032 Y-11.405 Z4.014 B0. C90. E.043
G1 X10.922 Y-10.555 Z4.017 B0. C90. E.041
G1 X11.76 Y-9.609 Z4.019 B0. C90. E.042
G1 X12.583 Y-8.507 Z4.022 B0. C90. E.046
G1 X13.246 Y-7.431 Z4.025 B0. C90. E.042
G1 X13.882 Y-6.166 Z4.028 B0. C90. E.047
G1 X14.355 Y-4.958 Z4.031 B0. C90. E.043
G1 X14.71 Y-3.782 Z4.033 B0. C90. E.041
G1 X14.981 Y-2.506 Z4.036 B0. C90. E.043
G1 X15.136 Y-1.245 Z4.039 B0. C90. E.042
G1 X15.19 Y-.49 Z4.04 B0. C90. E.025
G1 X15.144 Y1.159 Z4.044 B0. C90. E.055
G1 X15.035 Y2.193 Z4.046 B0. C90. E.035
G1 X14.706 Y3.797 Z4.049 B0. C90. E.054
G1 X14.411 Y4.803 Z4.052 B0. C90. E.035
G1 X13.901 Y6.125 Z4.054 B0. C90. E.047
G1 X13.363 Y7.224 Z4.057 B0. C90. E.041
G1 X12.632 Y8.437 Z4.06 B0. C90. E.047
G1 X11.913 Y9.426 Z4.063 B0. C90. E.041
G1 X10.982 Y10.494 Z4.065 B0. C90. E.047
G1 X10.096 Y11.35 Z4.068 B0. C90. E.041
G1 X9.15 Y12.125 Z4.071 B0. C90. E.041
G1 X7.981 Y12.925 Z4.074 B0. C90. E.047
G1 X6.916 Y13.525 Z4.076 B0. C90. E.041
G1 X5.625 Y14.11 Z4.079 B0. C90. E.047
G1 X4.743 Y14.44 Z4.081 B0. C90. E.031
G1 X3.212 Y14.848 Z4.084 B0. C90. E.053
G1 X1.885 Y15.073 Z4.087 B0. C90. E.045
G1 X.667 Y15.176 Z4.09 B0. C90. E.041
G1 X-.65 Y15.178 Z4.093 B0. C90. E.044
G1 X-1.968 Y15.063 Z4.095 B0. C90. E.044
G1 X-3.364 Y14.813 Z4.098 B0. C90. E.047
G1 X-4.623 Y14.468 Z4.101 B0. C90. E.043
G1 X-5.875 Y14.008 Z4.104 B0. C90. E.044
G1 X-6.99 Y13.487 Z4.106 B0. C90. E.041
G1 X-8.052 Y12.881 Z4.109 B0. C90. E.041
G1 X-9.218 Y12.074 Z4.112 B0. C90. E.047
G1 X-10.158 Y11.294 Z4.114 B0. C90. E.041
G1 X-11.167 Y10.297 Z4.117 B0. C90. E.047
G1 X-11.786 Y9.598 Z4.119 B0. C90. E.031
G1 X-12.688 Y8.356 Z4.123 B0. C90. E.051
G1 X-13.403 Y7.149 Z4.125 B0. C90. E.047
G1 X-13.935 Y6.049 Z4.128 B0. C90. E.041
G1 X-14.438 Y4.723 Z4.131 B0. C90. E.047
G1 X-14.771 Y3.547 Z4.134 B0. C90. E.041
G1 X-15.037 Y2.155 Z4.136 B0. C90. E.047
G1 X-15.162 Y.93 Z4.139 B0. C90. E.041
G1 X-15.2 Y.004 Z4.141 B0. C90. E.031
G1 X-15.125 Y-1.475 Z4.144 B0. C90. E.049
G1 X-14.934 Y-2.802 Z4.147 B0. C90. E.045
G1 X-14.661 Y-4.004 Z4.149 B0. C90. E.041
G1 X-14.223 Y-5.343 Z4.152 B0. C90. E.047
G1 X-13.826 Y-6.313 Z4.155 B0. C90. E.035
G1 X-13.081 Y-7.728 Z4.158 B0. C90. E.053
G1 X-12.348 Y-8.848 Z4.161 B0. C90. E.045
G1 X-11.469 Y-9.961 Z4.164 B0. C90. E.047
G1 X-10.632 Y-10.851 Z4.166 B0. C90. E.041
G1 X-9.573 Y-11.795 Z4.169 B0. C90. E.047
G1 X-8.827 Y-12.374 Z4.171 B0. C90. E.031
G1 X-7.489 Y-13.218 Z4.175 B0. C90. E.053
G1 X-6.29 Y-13.828 Z4.177 B0. C90. E.045
G1 X-4.805 Y-14.406 Z4.181 B0. C90. E.053
G1 X-4.275 Y-14.585 Z4.182 B0. C90. E.019
G1 X-2.723 Y-14.948 Z4.185 B0. C90. E.053
G1 X-1.202 Y-15.143 Z4.188 B0. C90. E.051
G1 X-.003 Y-15.189 Z4.191 B0. C90. E.04
G1 X.83 Y-15.171 Z4.193 B0. C90. E.028
G1 X2.46 Y-14.995 Z4.196 B0. C90. E.055
G1 X3.986 Y-14.656 Z4.199 B0. C90. E.052
G1 X5.052 Y-14.33 Z4.202 B0. C90. E.037
G1 X6.464 Y-13.744 Z4.205 B0. C90. E.051
G1 X7.824 Y-13.019 Z4.208 B0. C90. E.051
G1 X8.372 Y-12.686 Z4.209 B0. C90. E.021
G1 X9.637 Y-11.745 Z4.213 B0. C90. E.052
G1 X10.822 Y-10.658 Z4.216 B0. C90. E.053
G1 X11.355 Y-10.101 Z4.218 B0. C90. E.026
G1 X12.246 Y-8.997 Z4.221 B0. C90. E.047
G1 X13.118 Y-7.657 Z4.224 B0. C90. E.053
G1 X13.825 Y-6.29 Z4.227 B0. C90. E.051
G1 X14.087 Y-5.707 Z4.229 B0. C90. E.021
G1 X14.597 Y-4.211 Z4.232 B0. C90. E.053
G1 X14.891 Y-3.024 Z4.234 B0. C90. E.041
G1 X15.113 Y-1.511 Z4.238 B0. C90. E.051
G1 X15.195 Y-.231 Z4.24 B0. C90. E.043
G1 X15.154 Y1.05 Z4.243 B0. C90. E.043
G1 X15.04 Y2.166 Z4.245 B0. C90. E.037
G1 X14.818 Y3.374 Z4.248 B0. C90. E.041
G1 X14.333 Y5.019 Z4.252 B0. C90. E.057
G1 X13.981 Y5.952 Z4.254 B0. C90. E.033
G1 X13.306 Y7.324 Z4.257 B0. C90. E.051
G1 X12.738 Y8.283 Z4.259 B0. C90. E.037
G1 X11.837 Y9.518 Z4.262 B0. C90. E.051
G1 X11.11 Y10.363 Z4.265 B0. C90. E.037
G1 X10.242 Y11.225 Z4.267 B0. C90. E.041
G1 X9.058 Y12.192 Z4.27 B0. C90. E.051
G1 X8.143 Y12.829 Z4.273 B0. C90. E.037
G1 X6.81 Y13.577 Z4.276 B0. C90. E.051
G1 X5.397 Y14.198 Z4.279 B0. C90. E.051
G1 X4.794 Y14.423 Z4.281 B0. C90. E.021
G1 X3.277 Y14.835 Z4.284 B0. C90. E.052
G1 X2.073 Y15.053 Z4.286 B0. C90. E.041
G1 X.55 Y15.178 Z4.29 B0. C90. E.051
G1 X-.271 Y15.197 Z4.291 B0. C90. E.027
G1 X-1.781 Y15.091 Z4.294 B0. C90. E.05
G1 X-3.187 Y14.856 Z4.297 B0. C90. E.047
G1 X-4.225 Y14.6 Z4.3 B0. C90. E.036
G1 X-5.711 Y14.078 Z4.303 B0. C90. E.052
G1 X-6.827 Y13.575 Z4.305 B0. C90. E.041
G1 X-8.153 Y12.814 Z4.309 B0. C90. E.051
G1 X-9.074 Y12.187 Z4.311 B0. C90. E.037
G1 X-10.249 Y11.209 Z4.314 B0. C90. E.051
G1 X-11.332 Y10.114 Z4.317 B0. C90. E.051
G1 X-12.202 Y9.041 Z4.32 B0. C90. E.046
G1 X-13.095 Y7.707 Z4.324 B0. C90. E.053
G1 X-13.671 Y6.627 Z4.326 B0. C90. E.041
G1 X-14.384 Y4.895 Z4.33 B0. C90. E.062
G1 X-14.798 Y3.423 Z4.333 B0. C90. E.051
G1 X-15.014 Y2.329 Z4.336 B0. C90. E.037
G1 X-15.173 Y.688 Z4.339 B0. C90. E.055
G1 X-15.198 Y.049 Z4.34 B0. C90. E.021
G1 X-15.123 Y-1.493 Z4.344 B0. C90. E.051
G1 X-14.882 Y-3.039 Z4.347 B0. C90. E.052
G1 X-14.624 Y-4.123 Z4.349 B0. C90. E.037
G1 X-14.131 Y-5.57 Z4.352 B0. C90. E.051
G1 X-13.688 Y-6.593 Z4.355 B0. C90. E.037
G1 X-13.115 Y-7.674 Z4.357 B0. C90. E.041
G1 X-12.271 Y-8.95 Z4.361 B0. C90. E.051
G1 X-11.587 Y-9.829 Z4.363 B0. C90. E.037
G1 X-10.536 Y-10.94 Z4.366 B0. C90. E.051
G1 X-9.372 Y-11.953 Z4.369 B0. C90. E.051
G1 X-8.863 Y-12.347 Z4.371 B0. C90. E.021
G1 X-7.538 Y-13.191 Z4.374 B0. C90. E.052
G1 X-6.453 Y-13.757 Z4.377 B0. C90. E.041
G1 X-5.035 Y-14.33 Z4.38 B0. C90. E.051
G1 X-3.973 Y-14.666 Z4.382 B0. C90. E.037
G1 X-2.477 Y-14.986 Z4.385 B0. C90. E.051
G1 X-.945 Y-15.16 Z4.388 B0. C90. E.051
G1 X-.004 Y-15.189 Z4.39 B0. C90. E.031
G1 X1.269 Y-15.14 Z4.393 B0. C90. E.042
G1 X3.051 Y-14.879 Z4.397 B0. C90. E.06
G1 X4.691 Y-14.455 Z4.4 B0. C90. E.056
G1 X5.96 Y-13.98 Z4.403 B0. C90. E.045
G1 X7.124 Y-13.424 Z4.406 B0. C90. E.043
G1 X8.232 Y-12.775 Z4.409 B0. C90. E.043
G1 X9.313 Y-12.007 Z4.411 B0. C90. E.044
G1 X10.293 Y-11.181 Z4.414 B0. C90. E.043
G1 X11.231 Y-10.238 Z4.417 B0. C90. E.044
G1 X12.059 Y-9.247 Z4.42 B0. C90. E.043
G1 X12.836 Y-8.138 Z4.422 B0. C90. E.045
G1 X13.479 Y-7.02 Z4.425 B0. C90. E.043
G1 X14.022 Y-5.859 Z4.428 B0. C90. E.043
G1 X14.479 Y-4.612 Z4.431 B0. C90. E.044
G1 X14.817 Y-3.377 Z4.433 B0. C90. E.043
G1 X15.056 Y-2.066 Z4.436 B0. C90. E.044
G1 X15.184 Y-.665 Z4.439 B0. C90. E.047
G1 X15.182 Y.724 Z4.442 B0. C90. E.046
G1 X15.044 Y2.143 Z4.445 B0. C90. E.047
G1 X14.759 Y3.599 Z4.448 B0. C90. E.049
G1 X14.426 Y4.761 Z4.451 B0. C90. E.04
G1 X13.912 Y6.101 Z4.453 B0. C90. E.048
G1 X13.312 Y7.314 Z4.456 B0. C90. E.045
G1 X12.644 Y8.42 Z4.459 B0. C90. E.043
G1 X11.844 Y9.509 Z4.462 B0. C90. E.045
G1 X10.993 Y10.483 Z4.465 B0. C90. E.043
G1 X10.118 Y11.332 Z4.467 B0. C90. E.041
G1 X9.348 Y11.983 Z4.469 B0. C90. E.034
G1 X8.153 Y12.823 Z4.472 B0. C90. E.049
G1 X6.819 Y13.572 Z4.475 B0. C90. E.051
G1 X5.642 Y14.104 Z4.478 B0. C90. E.043
G1 X4.778 Y14.429 Z4.48 B0. C90. E.031
G1 X3.289 Y14.833 Z4.483 B0. C90. E.051
G1 X2.085 Y15.052 Z4.486 B0. C90. E.041
G1 X.56 Y15.178 Z4.489 B0. C90. E.051
G1 X-.86 Y15.165 Z4.492 B0. C90. E.047
G1 X-1.543 Y15.119 Z4.493 B0. C90. E.023
G1 X-3.074 Y14.883 Z4.497 B0. C90. E.052
G1 X-4.558 Y14.491 Z4.5 B0. C90. E.051
G1 X-5.864 Y14.012 Z4.503 B0. C90. E.046
G1 X-6.971 Y13.498 Z4.505 B0. C90. E.041
G1 X-8.144 Y12.821 Z4.508 B0. C90. E.045
G1 X-9.204 Y12.086 Z4.511 B0. C90. E.043
G1 X-10.241 Y11.217 Z4.514 B0. C90. E.045
G1 X-11.158 Y10.307 Z4.516 B0. C90. E.043
G1 X-11.765 Y9.62 Z4.518 B0. C90. E.03
G1 X-12.68 Y8.37 Z4.522 B0. C90. E.052
G1 X-13.315 Y7.323 Z4.524 B0. C90. E.041
G1 X-13.977 Y5.944 Z4.527 B0. C90. E.051
G1 X-14.433 Y4.737 Z4.53 B0. C90. E.043
G1 X-14.796 Y3.434 Z4.533 B0. C90. E.045
G1 X-15.035 Y2.165 Z4.536 B0. C90. E.043
G1 X-15.162 Y.951 Z4.538 B0. C90. E.041
G1 X-15.182 Y-.473 Z4.541 B0. C90. E.047
G1 X-15.097 Y-1.69 Z4.544 B0. C90. E.041
G1 X-14.885 Y-3.028 Z4.547 B0. C90. E.045
G1 X-14.576 Y-4.28 Z4.549 B0. C90. E.043
G1 X-14.135 Y-5.56 Z4.552 B0. C90. E.045
G1 X-13.613 Y-6.741 Z4.555 B0. C90. E.043
G1 X-13.029 Y-7.812 Z4.557 B0. C90. E.041
G1 X-12.487 Y-8.663 Z4.559 B0. C90. E.034
G1 X-11.536 Y-9.886 Z4.563 B0. C90. E.052
G1 X-10.545 Y-10.932 Z4.566 B0. C90. E.048
G1 X-9.58 Y-11.789 Z4.568 B0. C90. E.043
G1 X-8.849 Y-12.357 Z4.57 B0. C90. E.031
G1 X-7.085 Y-13.436 Z4.575 B0. C90. E.069
G1 X-5.933 Y-13.982 Z4.577 B0. C90. E.042
G1 X-4.693 Y-14.444 Z4.58 B0. C90. E.044
G1 X-3.421 Y-14.8 Z4.583 B0. C90. E.044
G1 X-1.754 Y-15.095 Z4.586 B0. C90. E.056
G1 X-.471 Y-15.19 Z4.589 B0. C90. E.043
G1 X-.003 Y-15.189 Z4.59 B0. C90. E.016
G1 X1.799 Y-15.083 Z4.594 B0. C90. E.06
G1 X3.039 Y-14.882 Z4.596 B0. C90. E.042
G1 X4.359 Y-14.549 Z4.599 B0. C90. E.045
G1 X5.948 Y-13.985 Z4.603 B0. C90. E.056
G1 X7.159 Y-13.407 Z4.606 B0. C90. E.045
G1 X8.422 Y-12.652 Z4.609 B0. C90. E.049
G1 X10.032 Y-11.406 Z4.613 B0. C90. E.068
G1 X10.939 Y-10.538 Z4.616 B0. C90. E.042
G1 X11.838 Y-9.515 Z4.618 B0. C90. E.045
G1 X12.827 Y-8.15 Z4.622 B0. C90. E.056
G1 X13.497 Y-6.987 Z4.625 B0. C90. E.045
G1 X14.109 Y-5.652 Z4.628 B0. C90. E.049
G1 X14.729 Y-3.712 Z4.632 B0. C90. E.068
G1 X14.986 Y-2.481 Z4.635 B0. C90. E.042
G1 X15.149 Y-1.091 Z4.638 B0. C90. E.047
G1 X15.193 Y.253 Z4.64 B0. C90. E.045
G1 X15.081 Y1.881 Z4.644 B0. C90. E.054
G1 X14.764 Y3.581 Z4.647 B0. C90. E.058
G1 X14.374 Y4.907 Z4.65 B0. C90. E.046
G1 X13.92 Y6.084 Z4.653 B0. C90. E.042
G1 X13.492 Y6.997 Z4.655 B0. C90. E.034
G1 X12.688 Y8.356 Z4.658 B0. C90. E.053
G1 X11.836 Y9.519 Z4.661 B0. C90. E.048
G1 X11.008 Y10.468 Z4.664 B0. C90. E.042
G1 X10.133 Y11.319 Z4.667 B0. C90. E.041
G1 X9.364 Y11.971 Z4.669 B0. C90. E.034
G1 X8.069 Y12.873 Z4.672 B0. C90. E.052
G1 X7.148 Y13.412 Z4.674 B0. C90. E.035
G1 X5.716 Y14.076 Z4.677 B0. C90. E.053
G1 X4.743 Y14.44 Z4.68 B0. C90. E.035
G1 X2.773 Y14.934 Z4.684 B0. C90. E.068
G1 X1.531 Y15.112 Z4.687 B0. C90. E.042
G1 X.928 Y15.17 Z4.688 B0. C90. E.02
G1 X-.776 Y15.171 Z4.691 B0. C90. E.057
G1 X-2.312 Y15.011 Z4.695 B0. C90. E.051
G1 X-3.706 Y14.731 Z4.698 B0. C90. E.047
G1 X-5.368 Y14.217 Z4.701 B0. C90. E.058
G1 X-6.95 Y13.509 Z4.705 B0. C90. E.058
G1 X-7.834 Y13.024 Z4.707 B0. C90. E.034
G1 X-9.501 Y11.851 Z4.711 B0. C90. E.068
G1 X-10.804 Y10.689 Z4.715 B0. C90. E.058
G1 X-11.786 Y9.596 Z4.718 B0. C90. E.049
G1 X-12.702 Y8.334 Z4.721 B0. C90. E.052
G1 X-13.33 Y7.293 Z4.724 B0. C90. E.04
G1 X-13.836 Y6.289 Z4.726 B0. C90. E.037
G1 X-14.392 Y4.872 Z4.729 B0. C90. E.051
G1 X-14.797 Y3.429 Z4.732 B0. C90. E.05
G1 X-15.032 Y2.191 Z4.735 B0. C90. E.042
G1 X-15.168 Y.808 Z4.738 B0. C90. E.046
G1 X-15.184 Y-.446 Z4.741 B0. C90. E.042
G1 X-15.101 Y-1.663 Z4.743 B0. C90. E.041
G1 X-14.964 Y-2.662 Z4.745 B0. C90. E.034
G1 X-14.618 Y-4.144 Z4.748 B0. C90. E.051
G1 X-14.134 Y-5.563 Z4.752 B0. C90. E.05
G1 X-13.626 Y-6.716 Z4.754 B0. C90. E.042
G1 X-13.044 Y-7.788 Z4.757 B0. C90. E.041
G1 X-12.505 Y-8.64 Z4.759 B0. C90. E.034
G1 X-11.228 Y-10.23 Z4.763 B0. C90. E.068
G1 X-10.819 Y-10.675 Z4.764 B0. C90. E.02
G1 X-9.693 Y-11.7 Z4.768 B0. C90. E.051
G1 X-8.827 Y-12.374 Z4.77 B0. C90. E.037
G1 X-7.518 Y-13.203 Z4.773 B0. C90. E.052
G1 X-6.439 Y-13.763 Z4.776 B0. C90. E.04
G1 X-5.405 Y-14.206 Z4.778 B0. C90. E.037
G1 X-3.956 Y-14.671 Z4.781 B0. C90. E.051
G1 X-2.862 Y-14.927 Z4.784 B0. C90. E.037
G1 X-1.353 Y-15.134 Z4.787 B0. C90. E.051
G1 X-.004 Y-15.189 Z4.79 B0. C90. E.045
G1 X1.291 Y-15.138 Z4.792 B0. C90. E.043
G1 X2.498 Y-14.988 Z4.795 B0. C90. E.04
G1 X3.962 Y-14.663 Z4.798 B0. C90. E.05
G1 X5.059 Y-14.328 Z4.8 B0. C90. E.038
G1 X6.445 Y-13.754 Z4.803 B0. C90. E.05
G1 X7.467 Y-13.232 Z4.806 B0. C90. E.038
G1 X8.383 Y-12.678 Z4.808 B0. C90. E.036
G1 X9.622 Y-11.758 Z4.811 B0. C90. E.051
G1 X10.557 Y-10.929 Z4.814 B0. C90. E.042
G1 X11.578 Y-9.831 Z4.817 B0. C90. E.05
G1 X12.291 Y-8.932 Z4.819 B0. C90. E.038
G1 X13.108 Y-7.675 Z4.823 B0. C90. E.05
G1 X13.652 Y-6.664 Z4.825 B0. C90. E.038
G1 X14.093 Y-5.692 Z4.827 B0. C90. E.035
G1 X14.593 Y-4.228 Z4.83 B0. C90. E.051
G1 X14.893 Y-3.015 Z4.833 B0. C90. E.042
G1 X15.112 Y-1.532 Z4.836 B0. C90. E.05
G1 X15.2 Y.003 Z4.84 B0. C90. E.051
G1 X15.106 Y1.607 Z4.843 B0. C90. E.053
G1 X14.861 Y3.183 Z4.846 B0. C90. E.053
G1 X14.429 Y4.752 Z4.85 B0. C90. E.054
G1 X13.991 Y5.93 Z4.852 B0. C90. E.042
G1 X13.316 Y7.308 Z4.855 B0. C90. E.051
G1 X12.73 Y8.295 Z4.858 B0. C90. E.038
G1 X11.847 Y9.506 Z4.861 B0. C90. E.05
G1 X11.098 Y10.376 Z4.863 B0. C90. E.038
G1 X10.234 Y11.232 Z4.866 B0. C90. E.04
G1 X9.073 Y12.18 Z4.869 B0. C90. E.05
G1 X8.131 Y12.836 Z4.871 B0. C90. E.038
G1 X6.824 Y13.57 Z4.875 B0. C90. E.05
G1 X5.782 Y14.051 Z4.877 B0. C90. E.038
G1 X4.773 Y14.43 Z4.879 B0. C90. E.036
G1 X3.257 Y14.84 Z4.882 B0. C90. E.052
G1 X2.061 Y15.055 Z4.885 B0. C90. E.04
G1 X.566 Y15.178 Z4.888 B0. C90. E.05
G1 X-.297 Y15.196 Z4.89 B0. C90. E.029
G1 X-1.789 Y15.09 Z4.893 B0. C90. E.05
G1 X-3.206 Y14.852 Z4.896 B0. C90. E.048
G1 X-4.248 Y14.593 Z4.898 B0. C90. E.036
G1 X-5.733 Y14.069 Z4.902 B0. C90. E.052
G1 X-6.841 Y13.568 Z4.904 B0. C90. E.04
G1 X-8.141 Y12.823 Z4.907 B0. C90. E.05
G1 X-9.09 Y12.176 Z4.91 B0. C90. E.038
G1 X-10.241 Y11.216 Z4.913 B0. C90. E.05
G1 X-11.063 Y10.414 Z4.915 B0. C90. E.038
G1 X-11.771 Y9.613 Z4.917 B0. C90. E.036
G1 X-12.701 Y8.337 Z4.921 B0. C90. E.052
G1 X-13.105 Y7.691 Z4.922 B0. C90. E.025
G1 X-13.84 Y6.28 Z4.926 B0. C90. E.053
G1 X-14.37 Y4.941 Z4.929 B0. C90. E.048
G1 X-14.797 Y3.431 Z4.932 B0. C90. E.052
G1 X-15.018 Y2.304 Z4.934 B0. C90. E.038
G1 X-15.168 Y.809 Z4.938 B0. C90. E.05
G1 X-15.189 Y-.335 Z4.94 B0. C90. E.038
G1 X-15.156 Y-1.098 Z4.942 B0. C90. E.025
G1 X-14.961 Y-2.676 Z4.945 B0. C90. E.053
G1 X-14.637 Y-4.082 Z4.948 B0. C90. E.048
G1 X-14.134 Y-5.564 Z4.951 B0. C90. E.052
G1 X-13.676 Y-6.618 Z4.954 B0. C90. E.038
G1 X-12.904 Y-8.012 Z4.957 B0. C90. E.053
G1 X-12.496 Y-8.651 Z4.959 B0. C90. E.025
G1 X-11.619 Y-9.794 Z4.961 B0. C90. E.048
G1 X-10.542 Y-10.935 Z4.965 B0. C90. E.052
G1 X-9.689 Y-11.704 Z4.967 B0. C90. E.038
G1 X-8.837 Y-12.366 Z4.969 B0. C90. E.036
G1 X-7.512 Y-13.206 Z4.973 B0. C90. E.052
G1 X-6.085 Y-13.917 Z4.976 B0. C90. E.053
G1 X-5.386 Y-14.212 Z4.978 B0. C90. E.025
G1 X-4.016 Y-14.656 Z4.981 B0. C90. E.048
G1 X-2.483 Y-14.985 Z4.984 B0. C90. E.052
G1 X-1.344 Y-15.134 Z4.986 B0. C90. E.038
G1 X-.003 Y-15.189 Z4.989 B0. C90. E.045
G1 X1.499 Y-15.116 Z4.992 B0. C90. E.05
G1 X2.871 Y-14.915 Z4.995 B0. C90. E.046
G1 X4.047 Y-14.639 Z4.998 B0. C90. E.04
G1 X5.249 Y-14.255 Z5. B0. C90. E.042
G1 X6.527 Y-13.715 Z5.003 B0. C90. E.046
G1 X7.644 Y-13.127 Z5.006 B0. C90. E.042
G1 X8.764 Y-12.402 Z5.009 B0. C90. E.044
G1 X9.806 Y-11.6 Z5.011 B0. C90. E.044
G1 X10.823 Y-10.657 Z5.014 B0. C90. E.046
G1 X11.634 Y-9.763 Z5.017 B0. C90. E.04
G1 X12.406 Y-8.765 Z5.019 B0. C90. E.042
G1 X13.153 Y-7.595 Z5.022 B0. C90. E.046
G1 X13.739 Y-6.477 Z5.025 B0. C90. E.042
G1 X14.25 Y-5.252 Z5.028 B0. C90. E.044
G1 X14.625 Y-4.107 Z5.03 B0. C90. E.04
G1 X14.927 Y-2.818 Z5.033 B0. C90. E.044
G1 X15.103 Y-1.632 Z5.036 B0. C90. E.04
G1 X15.195 Y-.226 Z5.039 B0. C90. E.047
G1 X15.147 Y1.131 Z5.041 B0. C90. E.045
G1 X14.982 Y2.502 Z5.044 B0. C90. E.046
G1 X14.717 Y3.761 Z5.047 B0. C90. E.043
G1 X14.5 Y4.554 Z5.049 B0. C90. E.027
G1 X14.028 Y5.847 Z5.052 B0. C90. E.046
G1 X13.427 Y7.112 Z5.055 B0. C90. E.047
G1 X12.8 Y8.192 Z5.057 B0. C90. E.042
G1 X12.07 Y9.235 Z5.06 B0. C90. E.042
G1 X11.392 Y10.057 Z5.062 B0. C90. E.035
G1 X10.512 Y10.974 Z5.065 B0. C90. E.042
G1 X9.36 Y11.974 Z5.068 B0. C90. E.051
G1 X7.958 Y12.939 Z5.071 B0. C90. E.057
G1 X6.743 Y13.61 Z5.074 B0. C90. E.046
G1 X5.591 Y14.124 Z5.077 B0. C90. E.042
G1 X4.32 Y14.559 Z5.08 B0. C90. E.045
G1 X3.054 Y14.88 Z5.082 B0. C90. E.043
G1 X1.684 Y15.096 Z5.085 B0. C90. E.046
G1 X.479 Y15.18 Z5.088 B0. C90. E.04
G1 X-.88 Y15.164 Z5.091 B0. C90. E.045
G1 X-1.978 Y15.062 Z5.093 B0. C90. E.037
G1 X-3.291 Y14.831 Z5.096 B0. C90. E.044
G1 X-4.548 Y14.495 Z5.099 B0. C90. E.043
G1 X-5.815 Y14.034 Z5.101 B0. C90. E.045
G1 X-7.016 Y13.474 Z5.104 B0. C90. E.044
G1 X-8.057 Y12.878 Z5.107 B0. C90. E.04
G1 X-9.248 Y12.051 Z5.11 B0. C90. E.048
G1 X-10.307 Y11.155 Z5.113 B0. C90. E.046
G1 X-11.199 Y10.263 Z5.115 B0. C90. E.042
G1 X-12.051 Y9.241 Z5.118 B0. C90. E.044
G1 X-12.748 Y8.262 Z5.12 B0. C90. E.04
G1 X-13.42 Y7.119 Z5.123 B0. C90. E.044
G1 X-13.939 Y6.038 Z5.126 B0. C90. E.04
G1 X-14.451 Y4.682 Z5.129 B0. C90. E.048
G1 X-14.816 Y3.343 Z5.132 B0. C90. E.046
G1 X-15.044 Y2.102 Z5.134 B0. C90. E.042
G1 X-15.172 Y.721 Z5.137 B0. C90. E.046
G1 X-15.18 Y-.541 Z5.14 B0. C90. E.042
G1 X-15.09 Y-1.746 Z5.142 B0. C90. E.04
G1 X-14.906 Y-2.932 Z5.145 B0. C90. E.04
G1 X-14.558 Y-4.339 Z5.148 B0. C90. E.048
G1 X-14.1 Y-5.648 Z5.151 B0. C90. E.046
G1 X-13.583 Y-6.799 Z5.153 B0. C90. E.042
G1 X-12.906 Y-8.01 Z5.156 B0. C90. E.046
G1 X-12.226 Y-9.009 Z5.159 B0. C90. E.04
G1 X-11.439 Y-9.995 Z5.162 B0. C90. E.042
G1 X-10.478 Y-10.995 Z5.164 B0. C90. E.046
G1 X-9.53 Y-11.829 Z5.167 B0. C90. E.042
G1 X-8.444 Y-12.622 Z5.17 B0. C90. E.045
G1 X-7.333 Y-13.303 Z5.173 B0. C90. E.043
G1 X-6.088 Y-13.916 Z5.176 B0. C90. E.046
G1 X-4.371 Y-14.553 Z5.179 B0. C90. E.061
G1 X-3.14 Y-14.868 Z5.182 B0. C90. E.042
G1 X-1.779 Y-15.092 Z5.185 B0. C90. E.046
G1 X-.004 Y-15.189 Z5.189 B0. C90. E.059
G1 X.97 Y-15.168 Z5.191 B0. C90. E.032
G1 X2.312 Y-15.021 Z5.193 B0. C90. E.045
G1 X3.654 Y-14.751 Z5.196 B0. C90. E.046
G1 X5.268 Y-14.248 Z5.2 B0. C90. E.056
G1 X6.533 Y-13.712 Z5.203 B0. C90. E.046
G1 X7.662 Y-13.116 Z5.205 B0. C90. E.042
G1 X8.769 Y-12.399 Z5.208 B0. C90. E.044
G1 X9.811 Y-11.596 Z5.211 B0. C90. E.044
G1 X10.828 Y-10.652 Z5.214 B0. C90. E.046
G1 X11.64 Y-9.756 Z5.216 B0. C90. E.04
G1 X12.419 Y-8.747 Z5.219 B0. C90. E.042
G1 X13.157 Y-7.588 Z5.222 B0. C90. E.046
G1 X13.749 Y-6.457 Z5.225 B0. C90. E.042
G1 X14.252 Y-5.246 Z5.227 B0. C90. E.044
G1 X14.627 Y-4.1 Z5.23 B0. C90. E.04
G1 X14.931 Y-2.797 Z5.233 B0. C90. E.044
G1 X15.118 Y-1.452 Z5.236 B0. C90. E.045
G1 X15.2 Y.007 Z5.239 B0. C90. E.049
G1 X15.074 Y1.948 Z5.243 B0. C90. E.065
G1 X14.759 Y3.602 Z5.246 B0. C90. E.056
G1 X14.462 Y4.66 Z5.249 B0. C90. E.037
G1 X13.889 Y6.153 Z5.252 B0. C90. E.053
G1 X13.355 Y7.239 Z5.254 B0. C90. E.04
G1 X12.61 Y8.47 Z5.257 B0. C90. E.048
G1 X11.783 Y9.585 Z5.26 B0. C90. E.046
G1 X10.948 Y10.53 Z5.263 B0. C90. E.042
G1 X9.94 Y11.485 Z5.266 B0. C90. E.046
G1 X8.994 Y12.237 Z5.268 B0. C90. E.04
G1 X7.95 Y12.945 Z5.271 B0. C90. E.042
G1 X6.734 Y13.614 Z5.274 B0. C90. E.046
G1 X5.582 Y14.128 Z5.276 B0. C90. E.042
G1 X4.748 Y14.439 Z5.278 B0. C90. E.03
G1 X3.193 Y14.853 Z5.282 B0. C90. E.054
G1 X1.28 Y15.139 Z5.286 B0. C90. E.064
G1 X-.388 Y15.193 Z5.289 B0. C90. E.056
G1 X-1.871 Y15.078 Z5.292 B0. C90. E.049
G1 X-3.3 Y14.829 Z5.295 B0. C90. E.048
G1 X-4.525 Y14.503 Z5.298 B0. C90. E.042
G1 X-5.823 Y14.031 Z5.301 B0. C90. E.046
G1 X-7.036 Y13.463 Z5.304 B0. C90. E.045
G1 X-8.208 Y12.779 Z5.307 B0. C90. E.045
G1 X-9.267 Y12.036 Z5.309 B0. C90. E.043
G1 X-10.314 Y11.149 Z5.312 B0. C90. E.046
G1 X-11.216 Y10.244 Z5.315 B0. C90. E.042
G1 X-12.057 Y9.234 Z5.318 B0. C90. E.044
G1 X-12.753 Y8.253 Z5.32 B0. C90. E.04
G1 X-13.43 Y7.098 Z5.323 B0. C90. E.045
G1 X-14.008 Y5.87 Z5.326 B0. C90. E.045
G1 X-14.459 Y4.658 Z5.328 B0. C90. E.043
G1 X-14.818 Y3.333 Z5.331 B0. C90. E.046
G1 X-15.048 Y2.076 Z5.334 B0. C90. E.042
G1 X-15.173 Y.71 Z5.337 B0. C90. E.046
G1 X-15.179 Y-.568 Z5.339 B0. C90. E.043
G1 X-15.068 Y-1.921 Z5.342 B0. C90. E.045
G1 X-14.867 Y-3.109 Z5.345 B0. C90. E.04
G1 X-14.55 Y-4.363 Z5.348 B0. C90. E.043
G1 X-14.095 Y-5.659 Z5.35 B0. C90. E.046
G1 X-13.571 Y-6.823 Z5.353 B0. C90. E.042
G1 X-12.899 Y-8.02 Z5.356 B0. C90. E.046
G1 X-12.219 Y-9.019 Z5.359 B0. C90. E.04
G1 X-11.422 Y-10.014 Z5.361 B0. C90. E.042
G1 X-10.468 Y-11.004 Z5.364 B0. C90. E.046
G1 X-9.51 Y-11.845 Z5.367 B0. C90. E.042
G1 X-8.433 Y-12.629 Z5.37 B0. C90. E.044
G1 X-7.321 Y-13.31 Z5.372 B0. C90. E.043
G1 X-6.075 Y-13.922 Z5.375 B0. C90. E.046
G1 X-4.949 Y-14.358 Z5.378 B0. C90. E.04
G1 X-3.729 Y-14.726 Z5.38 B0. C90. E.042
G1 X-2.382 Y-15. Z5.383 B0. C90. E.046
G1 X-1.115 Y-15.149 Z5.386 B0. C90. E.042
G1 X-.004 Y-15.19 Z5.388 B0. C90. E.037
G1 X1.369 Y-15.13 Z5.391 B0. C90. E.046
G1 X2.727 Y-14.944 Z5.394 B0. C90. E.046
G1 X4.049 Y-14.638 Z5.397 B0. C90. E.045
G1 X5.281 Y-14.243 Z5.399 B0. C90. E.043
G1 X6.53 Y-13.713 Z5.402 B0. C90. E.045
G1 X7.675 Y-13.109 Z5.405 B0. C90. E.043
G1 X8.758 Y-12.407 Z5.408 B0. C90. E.043
G1 X9.709 Y-11.684 Z5.41 B0. C90. E.04
G1 X10.722 Y-10.761 Z5.413 B0. C90. E.046
G1 X11.637 Y-9.759 Z5.416 B0. C90. E.045
G1 X12.428 Y-8.735 Z5.419 B0. C90. E.043
G1 X13.156 Y-7.59 Z5.421 B0. C90. E.045
G1 X13.756 Y-6.443 Z5.424 B0. C90. E.043
G1 X14.248 Y-5.257 Z5.427 B0. C90. E.043
G1 X14.623 Y-4.116 Z5.429 B0. C90. E.04
G1 X14.934 Y-2.781 Z5.432 B0. C90. E.046
G1 X15.12 Y-1.437 Z5.435 B0. C90. E.045
G1 X15.195 Y-.235 Z5.438 B0. C90. E.04
G1 X15.148 Y1.124 Z5.44 B0. C90. E.045
G1 X14.995 Y2.431 Z5.443 B0. C90. E.044
G1 X14.728 Y3.718 Z5.446 B0. C90. E.044
G1 X14.403 Y4.826 Z5.448 B0. C90. E.038
G1 X13.946 Y6.029 Z5.451 B0. C90. E.043
G1 X13.346 Y7.254 Z5.454 B0. C90. E.045
G1 X12.686 Y8.36 Z5.457 B0. C90. E.043
G1 X11.883 Y9.463 Z5.459 B0. C90. E.045
G1 X11.04 Y10.436 Z5.462 B0. C90. E.043
G1 X10.054 Y11.388 Z5.465 B0. C90. E.046
G1 X9.125 Y12.143 Z5.468 B0. C90. E.04
G1 X8.066 Y12.876 Z5.47 B0. C90. E.043
G1 X6.877 Y13.545 Z5.473 B0. C90. E.045
G1 X5.706 Y14.08 Z5.476 B0. C90. E.043
G1 X4.753 Y14.437 Z5.478 B0. C90. E.034
G1 X3.336 Y14.825 Z5.481 B0. C90. E.049
G1 X2.156 Y15.045 Z5.483 B0. C90. E.04
G1 X.715 Y15.175 Z5.487 B0. C90. E.048
G1 X-.761 Y15.172 Z5.49 B0. C90. E.049
G1 X-2.382 Y15. Z5.493 B0. C90. E.054
G1 X-3.682 Y14.737 Z5.496 B0. C90. E.044
G1 X-5.293 Y14.242 Z5.499 B0. C90. E.056
G1 X-6.447 Y13.761 Z5.502 B0. C90. E.042
G1 X-7.561 Y13.18 Z5.505 B0. C90. E.042
G1 X-8.749 Y12.424 Z5.507 B0. C90. E.047
G1 X-9.737 Y11.666 Z5.51 B0. C90. E.041
G1 X-10.776 Y10.715 Z5.513 B0. C90. E.047
G1 X-11.718 Y9.672 Z5.516 B0. C90. E.047
G1 X-12.749 Y8.26 Z5.52 B0. C90. E.058
G1 X-13.441 Y7.077 Z5.522 B0. C90. E.046
G1 X-14.017 Y5.848 Z5.525 B0. C90. E.045
G1 X-14.466 Y4.634 Z5.528 B0. C90. E.043
G1 X-14.82 Y3.325 Z5.531 B0. C90. E.045
G1 X-15.051 Y2.051 Z5.534 B0. C90. E.043
G1 X-15.173 Y.7 Z5.536 B0. C90. E.045
G1 X-15.178 Y-.595 Z5.539 B0. C90. E.043
G1 X-15.065 Y-1.946 Z5.542 B0. C90. E.045
G1 X-14.862 Y-3.133 Z5.545 B0. C90. E.04
G1 X-14.543 Y-4.388 Z5.547 B0. C90. E.043
G1 X-14.185 Y-5.439 Z5.55 B0. C90. E.037
G1 X-13.711 Y-6.551 Z5.552 B0. C90. E.04
G1 X-13.024 Y-7.821 Z5.555 B0. C90. E.048
G1 X-12.364 Y-8.826 Z5.558 B0. C90. E.04
G1 X-11.629 Y-9.783 Z5.56 B0. C90. E.04
G1 X-10.823 Y-10.672 Z5.563 B0. C90. E.04
G1 X-10.005 Y-11.439 Z5.565 B0. C90. E.037
G1 X-8.896 Y-12.322 Z5.568 B0. C90. E.047
G1 X-7.867 Y-13.001 Z5.57 B0. C90. E.041
G1 X-6.514 Y-13.732 Z5.574 B0. C90. E.051
G1 X-5.412 Y-14.204 Z5.576 B0. C90. E.04
G1 X-4.348 Y-14.561 Z5.579 B0. C90. E.037
G1 X-2.617 Y-14.965 Z5.582 B0. C90. E.059
G1 X-1.419 Y-15.13 Z5.585 B0. C90. E.04
G1 X-.003 Y-15.19 Z5.588 B0. C90. E.047
G1 X.873 Y-15.17 Z5.59 B0. C90. E.029
G1 X2.424 Y-15.004 Z5.593 B0. C90. E.052
G1 X3.806 Y-14.708 Z5.596 B0. C90. E.047
G1 X4.995 Y-14.353 Z5.598 B0. C90. E.041
G1 X6.305 Y-13.822 Z5.601 B0. C90. E.047
G1 X7.413 Y-13.265 Z5.604 B0. C90. E.041
G1 X8.327 Y-12.714 Z5.606 B0. C90. E.036
G1 X9.322 Y-12. Z5.609 B0. C90. E.041
G1 X10.506 Y-10.981 Z5.612 B0. C90. E.052
G1 X11.477 Y-9.954 Z5.615 B0. C90. E.047
G1 X12.254 Y-8.987 Z5.618 B0. C90. E.041
G1 X13.033 Y-7.807 Z5.621 B0. C90. E.047
G1 X13.627 Y-6.719 Z5.623 B0. C90. E.041
G1 X14.068 Y-5.751 Z5.625 B0. C90. E.035
G1 X14.484 Y-4.598 Z5.628 B0. C90. E.041
G1 X14.881 Y-3.084 Z5.631 B0. C90. E.052
G1 X15.098 Y-1.688 Z5.634 B0. C90. E.047
G1 X15.2 Y-.019 Z5.638 B0. C90. E.056
G1 X15.129 Y1.344 Z5.64 B0. C90. E.045
G1 X14.97 Y2.577 Z5.643 B0. C90. E.041
