( Klipper 5X Mill - Generated by Mastercam )
M109 S220
M190 S60
G90
M83
M106 S2
G0 X0. Y0. C0. B0.
X-3.644 Y14.798 Z2.
G1 Z.2 B0. F1000.
G1 X3.644 B0. F5000. E.242
G1 X4.995 B0. E.045
G1 X5.095 Y14.771 B0. E.003
G1 X5.168 Y14.698 B0. E.003
G1 X5.195 Y14.598 B0. E.003
G1 X5.168 Y14.498 B0. E.003
G1 X5.095 Y14.425 B0. E.003
G1 X4.995 Y14.398 B0. E.003
G1 X-4.995 B0. E.332
G1 X-6.026 B0. E.034
G1 X-6.126 Y14.371 B0. E.003
G1 X-6.199 Y14.298 B0. E.003
G1 X-6.226 Y14.198 B0. E.003
G1 X-6.199 Y14.098 B0. E.003
G1 X-6.126 Y14.025 B0. E.003
G1 X-6.026 Y13.998 B0. E.003
G1 X6.026 B0. E.401
G1 X6.881 B0. E.028
G1 X6.981 Y13.971 B0. E.003
G1 X7.054 Y13.898 B0. E.003
G1 X7.081 Y13.798 B0. E.003
G1 X7.054 Y13.698 B0. E.003
G1 X6.981 Y13.625 B0. E.003
G1 X6.881 Y13.598 B0. E.003
G1 X-6.881 B0. E.458
G1 X-7.62 B0. E.025
G1 X-7.72 Y13.571 B0. E.003
G1 X-7.793 Y13.498 B0. E.003
G1 X-7.82 Y13.398 B0. E.003
G1 X-7.793 Y13.298 B0. E.003
G1 X-7.72 Y13.225 B0. E.003
G1 X-7.62 Y13.198 B0. E.003
G1 X7.62 B0. E.507
G1 X8.274 B0. E.022
G1 X8.374 Y13.171 B0. E.003
G1 X8.447 Y13.098 B0. E.003
G1 X8.474 Y12.998 B0. E.003
G1 X8.447 Y12.898 B0. E.003
G1 X8.374 Y12.825 B0. E.003
G1 X8.274 Y12.798 B0. E.003
G1 X-8.274 B0. E.55
G1 X-8.862 B0. E.02
G1 X-8.962 Y12.771 B0. E.003
G1 X-9.035 Y12.698 B0. E.003
G1 X-9.062 Y12.598 B0. E.003
G1 X-9.035 Y12.498 B0. E.003
G1 X-8.962 Y12.425 B0. E.003
G1 X-8.862 Y12.398 B0. E.003
G1 X8.862 B0. E.59
G1 X9.397 B0. E.018
G1 X9.497 Y12.371 B0. E.003
G1 X9.57 Y12.298 B0. E.003
G1 X9.597 Y12.198 B0. E.003
G1 X9.57 Y12.098 B0. E.003
G1 X9.497 Y12.025 B0. E.003
G1 X9.397 Y11.998 B0. E.003
G1 X-9.397 B0. E.625
G1 X-9.886 B0. E.016
G1 X-9.986 Y11.971 B0. E.003
G1 X-10.059 Y11.898 B0. E.003
G1 X-10.086 Y11.798 B0. E.003
G1 X-10.059 Y11.698 B0. E.003
G1 X-9.986 Y11.625 B0. E.003
G1 X-9.886 Y11.598 B0. E.003
G1 X9.886 B0. E.658
G1 X10.337 B0. E.015
G1 X10.437 Y11.571 B0. E.003
G1 X10.51 Y11.498 B0. E.003
G1 X10.537 Y11.398 B0. E.003
G1 X10.51 Y11.298 B0. E.003
G1 X10.437 Y11.225 B0. E.003
G1 X10.337 Y11.198 B0. E.003
G1 X-10.337 B0. E.688
G1 X-10.754 B0. E.014
G1 X-10.854 Y11.171 B0. E.003
G1 X-10.926 Y11.098 B0. E.003
G1 X-10.953 Y10.999 B0. E.003
G1 X-10.926 Y10.899 B0. E.003
G1 X-10.854 Y10.827 B0. E.003
G1 X-10.754 Y10.799 B0. E.003
G1 X10.754 B0. E.715
G1 X11.141 B0. E.013
G1 X11.241 Y10.772 B0. E.003
G1 X11.314 Y10.699 B0. E.003
G1 X11.341 Y10.599 B0. E.003
G1 X11.314 Y10.499 B0. E.003
G1 X11.241 Y10.426 B0. E.003
G1 X11.141 Y10.399 B0. E.003
G1 X-11.141 B0. E.741
G1 X-11.502 B0. E.012
G1 X-11.602 Y10.372 B0. E.003
G1 X-11.675 Y10.299 B0. E.003
G1 X-11.702 Y10.199 B0. E.003
G1 X-11.675 Y10.099 B0. E.003
G1 X-11.602 Y10.026 B0. E.003
G1 X-11.502 Y9.999 B0. E.003
G1 X11.502 B0. E.765
G1 X11.837 B0. E.011
G1 X11.937 Y9.972 B0. E.003
G1 X12.01 Y9.899 B0. E.003
G1 X12.037 Y9.799 B0. E.003
G1 X12.01 Y9.699 B0. E.003
G1 X11.937 Y9.626 B0. E.003
G1 X11.837 Y9.599 B0. E.003
G1 X-11.837 B0. E.787
G1 X-12.151 B0. E.01
G1 X-12.251 Y9.572 B0. E.003
G1 X-12.324 Y9.499 B0. E.003
G1 X-12.351 Y9.399 B0. E.003
G1 X-12.324 Y9.299 B0. E.003
G1 X-12.251 Y9.226 B0. E.003
G1 X-12.151 Y9.199 B0. E.003
G1 X12.151 B0. E.808
G1 X12.443 B0. E.01
G1 X12.543 Y9.172 B0. E.003
G1 X12.616 Y9.099 B0. E.003
G1 X12.643 Y8.999 B0. E.003
G1 X12.616 Y8.899 B0. E.003
G1 X12.543 Y8.826 B0. E.003
G1 X12.443 Y8.799 B0. E.003
G1 X-12.443 B0. E.828
G1 X-12.717 B0. E.009
G1 X-12.817 Y8.772 B0. E.003
G1 X-12.89 Y8.699 B0. E.003
G1 X-12.917 Y8.599 B0. E.003
G1 X-12.89 Y8.499 B0. E.003
G1 X-12.817 Y8.426 B0. E.003
G1 X-12.717 Y8.399 B0. E.003
G1 X12.717 B0. E.846
G1 X12.972 B0. E.008
G1 X13.072 Y8.372 B0. E.003
G1 X13.145 Y8.299 B0. E.003
G1 X13.172 Y8.199 B0. E.003
G1 X13.145 Y8.099 B0. E.003
G1 X13.072 Y8.026 B0. E.003
G1 X12.972 Y7.999 B0. E.003
G1 X-12.972 B0. E.863
G1 X-13.21 B0. E.008
G1 X-13.31 Y7.972 B0. E.003
G1 X-13.383 Y7.899 B0. E.003
G1 X-13.41 Y7.799 B0. E.003
G1 X-13.383 Y7.699 B0. E.003
G1 X-13.31 Y7.626 B0. E.003
G1 X-13.21 Y7.599 B0. E.003
G1 X13.21 B0. E.879
G1 X13.432 B0. E.007
G1 X13.532 Y7.572 B0. E.003
G1 X13.605 Y7.499 B0. E.003
G1 X13.632 Y7.399 B0. E.003
G1 X13.605 Y7.299 B0. E.003
G1 X13.532 Y7.226 B0. E.003
G1 X13.432 Y7.199 B0. E.003
G1 X-13.432 B0. E.894
G1 X-13.639 B0. E.007
G1 X-13.739 Y7.172 B0. E.003
G1 X-13.812 Y7.099 B0. E.003
G1 X-13.839 Y6.999 B0. E.003
G1 X-13.812 Y6.899 B0. E.003
G1 X-13.739 Y6.826 B0. E.003
G1 X-13.639 Y6.799 B0. E.003
G1 X13.639 B0. E.907
G1 X13.831 B0. E.006
G1 X13.931 Y6.772 B0. E.003
G1 X14.004 Y6.699 B0. E.003
G1 X14.031 Y6.599 B0. E.003
G1 X14.004 Y6.499 B0. E.003
G1 X13.931 Y6.426 B0. E.003
G1 X13.831 Y6.399 B0. E.003
G1 X-13.831 B0. E.92
G1 X-14.01 B0. E.006
G1 X-14.11 Y6.372 B0. E.003
G1 X-14.183 Y6.299 B0. E.003
G1 X-14.21 Y6.199 B0. E.003
G1 X-14.183 Y6.099 B0. E.003
G1 X-14.11 Y6.026 B0. E.003
G1 X-14.01 Y5.999 B0. E.003
G1 X14.01 B0. E.932
G1 X14.174 B0. E.005
G1 X14.274 Y5.972 B0. E.003
G1 X14.347 Y5.899 B0. E.003
G1 X14.374 Y5.799 B0. E.003
G1 X14.347 Y5.699 B0. E.003
G1 X14.274 Y5.626 B0. E.003
G1 X14.174 Y5.599 B0. E.003
G1 X-14.174 B0. E.943
G1 X-14.326 B0. E.005
G1 X-14.426 Y5.572 B0. E.003
G1 X-14.499 Y5.499 B0. E.003
G1 X-14.526 Y5.399 B0. E.003
G1 X-14.499 Y5.299 B0. E.003
G1 X-14.426 Y5.226 B0. E.003
G1 X-14.326 Y5.199 B0. E.003
G1 X14.326 B0. E.953
G1 X14.465 B0. E.005
G1 X14.565 Y5.172 B0. E.003
G1 X14.638 Y5.099 B0. E.003
G1 X14.665 Y4.999 B0. E.003
G1 X14.638 Y4.899 B0. E.003
G1 X14.565 Y4.826 B0. E.003
G1 X14.465 Y4.799 B0. E.003
G1 X-14.465 B0. E.962
G1 X-14.591 B0. E.004
G1 X-14.691 Y4.772 B0. E.003
G1 X-14.764 Y4.699 B0. E.003
G1 X-14.791 Y4.599 B0. E.003
G1 X-14.764 Y4.499 B0. E.003
G1 X-14.691 Y4.426 B0. E.003
G1 X-14.591 Y4.399 B0. E.003
G1 X14.591 B0. E.971
G1 X14.706 B0. E.004
G1 X14.806 Y4.372 B0. E.003
G1 X14.879 Y4.299 B0. E.003
G1 X14.906 Y4.199 B0. E.003
G1 X14.879 Y4.099 B0. E.003
G1 X14.806 Y4.026 B0. E.003
G1 X14.706 Y3.999 B0. E.003
G1 X-14.706 B0. E.978
G1 X-14.809 B0. E.003
G1 X-14.909 Y3.972 B0. E.003
G1 X-14.982 Y3.899 B0. E.003
G1 X-15.009 Y3.799 B0. E.003
G1 X-14.982 Y3.699 B0. E.003
G1 X-14.909 Y3.626 B0. E.003
G1 X-14.809 Y3.6 B0. E.003
G1 X14.809 B0. E.985
G1 X14.9 B0. E.003
G1 X15. Y3.573 B0. E.003
G1 X15.073 Y3.5 B0. E.003
G1 X15.1 Y3.4 B0. E.003
G1 X15.073 Y3.3 B0. E.003
G1 X15. Y3.227 B0. E.003
G1 X14.9 Y3.2 B0. E.003
G1 X-14.9 B0. E.991
G1 X-14.981 B0. E.003
G1 X-15.081 Y3.173 B0. E.003
G1 X-15.154 Y3.1 B0. E.003
G1 X-15.181 Y3. B0. E.003
G1 X-15.154 Y2.9 B0. E.003
G1 X-15.081 Y2.827 B0. E.003
G1 X-14.981 Y2.8 B0. E.003
G1 X14.981 B0. E.997
G1 X15.05 B0. E.002
G1 X15.15 Y2.773 B0. E.003
G1 X15.223 Y2.7 B0. E.003
G1 X15.25 Y2.6 B0. E.003
G1 X15.223 Y2.5 B0. E.003
G1 X15.15 Y2.427 B0. E.003
G1 X15.05 Y2.4 B0. E.003
G1 X-15.05 B0. E1.001
G1 X-15.108 B0. E.002
G1 X-15.208 Y2.373 B0. E.003
G1 X-15.281 Y2.3 B0. E.003
G1 X-15.308 Y2.2 B0. E.003
G1 X-15.281 Y2.1 B0. E.003
G1 X-15.208 Y2.027 B0. E.003
G1 X-15.108 Y2. B0. E.003
G1 X15.108 B0. E1.005
G1 X15.156 B0. E.002
G1 X15.256 Y1.973 B0. E.003
G1 X15.329 Y1.9 B0. E.003
G1 X15.356 Y1.8 B0. E.003
G1 X15.329 Y1.7 B0. E.003
G1 X15.256 Y1.627 B0. E.003
G1 X15.156 Y1.6 B0. E.003
G1 X-15.156 B0. E1.008
G1 X-15.193 B0. E.001
G1 X-15.293 Y1.573 B0. E.003
G1 X-15.366 Y1.5 B0. E.003
G1 X-15.393 Y1.4 B0. E.003
G1 X-15.366 Y1.3 B0. E.003
G1 X-15.293 Y1.227 B0. E.003
G1 X-15.193 Y1.2 B0. E.003
G1 X15.193 B0. E1.011
G1 X15.219 B0. E.001
G1 X15.319 Y1.173 B0. E.003
G1 X15.392 Y1.1 B0. E.003
G1 X15.419 Y1. B0. E.003
G1 X15.392 Y.9 B0. E.003
G1 X15.319 Y.827 B0. E.003
G1 X15.219 Y.8 B0. E.003
G1 X-15.219 B0. E1.012
G1 X-15.235 B0. E.001
G1 X-15.335 Y.773 B0. E.003
G1 X-15.408 Y.7 B0. E.003
G1 X-15.435 Y.6 B0. E.003
G1 X-15.408 Y.5 B0. E.003
G1 X-15.335 Y.427 B0. E.003
G1 X-15.235 Y.4 B0. E.003
G1 X15.235 B0. E1.013
G1 X15.24 B0. E0.
G1 X15.34 Y.373 B0. E.003
G1 X15.413 Y.3 B0. E.003
G1 X15.44 Y.2 B0. E.003
G1 X15.413 Y.1 B0. E.003
G1 X15.34 Y.027 B0. E.003
G1 X15.24 Y0. B0. E.003
G1 X-15.24 B0. E1.014
G1 X-15.34 Y-.027 B0. E.003
G1 X-15.413 Y-.1 B0. E.003
G1 X-15.44 Y-.2 B0. E.003
G1 X-15.413 Y-.3 B0. E.003
G1 X-15.34 Y-.373 B0. E.003
G1 X-15.24 Y-.4 B0. E.003
G1 X15.235 B0. E1.014
G1 X15.335 Y-.427 B0. E.003
G1 X15.408 Y-.5 B0. E.003
G1 X15.435 Y-.6 B0. E.003
G1 X15.408 Y-.7 B0. E.003
G1 X15.335 Y-.773 B0. E.003
G1 X15.235 Y-.8 B0. E.003
G1 X-15.219 B0. E1.013
G1 X-15.319 Y-.827 B0. E.003
G1 X-15.392 Y-.9 B0. E.003
G1 X-15.419 Y-1. B0. E.003
G1 X-15.392 Y-1.1 B0. E.003
G1 X-15.319 Y-1.173 B0. E.003
G1 X-15.219 Y-1.2 B0. E.003
G1 X15.193 B0. E1.011
G1 X15.293 Y-1.227 B0. E.003
G1 X15.366 Y-1.3 B0. E.003
G1 X15.393 Y-1.4 B0. E.003
G1 X15.366 Y-1.5 B0. E.003
G1 X15.293 Y-1.573 B0. E.003
G1 X15.193 Y-1.6 B0. E.003
G1 X-15.156 B0. E1.009
G1 X-15.256 Y-1.627 B0. E.003
G1 X-15.329 Y-1.7 B0. E.003
G1 X-15.356 Y-1.8 B0. E.003
G1 X-15.329 Y-1.9 B0. E.003
G1 X-15.256 Y-1.973 B0. E.003
G1 X-15.156 Y-2. B0. E.003
G1 X15.108 B0. E1.007
G1 X15.208 Y-2.027 B0. E.003
G1 X15.281 Y-2.1 B0. E.003
G1 X15.308 Y-2.2 B0. E.003
G1 X15.281 Y-2.3 B0. E.003
G1 X15.208 Y-2.373 B0. E.003
G1 X15.108 Y-2.4 B0. E.003
G1 X-15.05 B0. E1.003
G1 X-15.15 Y-2.427 B0. E.003
G1 X-15.223 Y-2.5 B0. E.003
G1 X-15.25 Y-2.6 B0. E.003
G1 X-15.223 Y-2.7 B0. E.003
G1 X-15.15 Y-2.773 B0. E.003
G1 X-15.05 Y-2.8 B0. E.003
G1 X14.981 B0. E.999
G1 X15.081 Y-2.827 B0. E.003
G1 X15.154 Y-2.9 B0. E.003
G1 X15.181 Y-3. B0. E.003
G1 X15.154 Y-3.1 B0. E.003
G1 X15.081 Y-3.173 B0. E.003
G1 X14.981 Y-3.2 B0. E.003
G1 X-14.9 B0. E.994
G1 X-15. Y-3.227 B0. E.003
G1 X-15.073 Y-3.3 B0. E.003
G1 X-15.1 Y-3.4 B0. E.003
G1 X-15.073 Y-3.5 B0. E.003
G1 X-15. Y-3.573 B0. E.003
G1 X-14.9 Y-3.6 B0. E.003
G1 X14.809 B0. E.988
G1 X14.909 Y-3.627 B0. E.003
G1 X14.981 Y-3.7 B0. E.003
G1 X15.008 Y-3.799 B0. E.003
G1 X14.981 Y-3.898 B0. E.003
G1 X14.909 Y-3.971 B0. E.003
G1 X14.809 Y-3.999 B0. E.003
G1 X-14.706 B0. E.982
G1 X-14.806 Y-4.026 B0. E.003
G1 X-14.879 Y-4.099 B0. E.003
G1 X-14.906 Y-4.199 B0. E.003
G1 X-14.879 Y-4.299 B0. E.003
G1 X-14.806 Y-4.372 B0. E.003
G1 X-14.706 Y-4.399 B0. E.003
G1 X14.591 B0. E.974
G1 X14.691 Y-4.426 B0. E.003
G1 X14.764 Y-4.499 B0. E.003
G1 X14.791 Y-4.599 B0. E.003
G1 X14.764 Y-4.699 B0. E.003
G1 X14.691 Y-4.772 B0. E.003
G1 X14.591 Y-4.799 B0. E.003
G1 X-14.465 B0. E.966
G1 X-14.565 Y-4.826 B0. E.003
G1 X-14.638 Y-4.899 B0. E.003
G1 X-14.665 Y-4.999 B0. E.003
G1 X-14.638 Y-5.099 B0. E.003
G1 X-14.565 Y-5.172 B0. E.003
G1 X-14.465 Y-5.199 B0. E.003
G1 X14.326 B0. E.958
G1 X14.426 Y-5.226 B0. E.003
G1 X14.499 Y-5.299 B0. E.003
G1 X14.526 Y-5.399 B0. E.003
G1 X14.499 Y-5.499 B0. E.003
G1 X14.426 Y-5.572 B0. E.003
G1 X14.326 Y-5.599 B0. E.003
G1 X-14.174 B0. E.948
G1 X-14.274 Y-5.626 B0. E.003
G1 X-14.347 Y-5.699 B0. E.003
G1 X-14.374 Y-5.799 B0. E.003
G1 X-14.347 Y-5.899 B0. E.003
G1 X-14.274 Y-5.972 B0. E.003
G1 X-14.174 Y-5.999 B0. E.003
G1 X14.01 B0. E.937
G1 X14.11 Y-6.026 B0. E.003
G1 X14.183 Y-6.099 B0. E.003
G1 X14.21 Y-6.199 B0. E.003
G1 X14.183 Y-6.299 B0. E.003
G1 X14.11 Y-6.372 B0. E.003
G1 X14.01 Y-6.399 B0. E.003
G1 X-13.831 B0. E.926
G1 X-13.931 Y-6.426 B0. E.003
G1 X-14.004 Y-6.499 B0. E.003
G1 X-14.031 Y-6.599 B0. E.003
G1 X-14.004 Y-6.699 B0. E.003
G1 X-13.931 Y-6.772 B0. E.003
G1 X-13.831 Y-6.799 B0. E.003
G1 X13.639 B0. E.914
G1 X13.739 Y-6.826 B0. E.003
G1 X13.812 Y-6.899 B0. E.003
G1 X13.839 Y-6.999 B0. E.003
G1 X13.812 Y-7.099 B0. E.003
G1 X13.739 Y-7.172 B0. E.003
G1 X13.639 Y-7.199 B0. E.003
G1 X-13.432 B0. E.9
G1 X-13.532 Y-7.226 B0. E.003
G1 X-13.605 Y-7.299 B0. E.003
G1 X-13.632 Y-7.399 B0. E.003
G1 X-13.605 Y-7.499 B0. E.003
G1 X-13.532 Y-7.572 B0. E.003
G1 X-13.432 Y-7.599 B0. E.003
G1 X13.21 B0. E.886
G1 X13.31 Y-7.626 B0. E.003
G1 X13.383 Y-7.699 B0. E.003
G1 X13.41 Y-7.799 B0. E.003
G1 X13.383 Y-7.899 B0. E.003
G1 X13.31 Y-7.972 B0. E.003
G1 X13.21 Y-7.999 B0. E.003
G1 X-12.972 B0. E.871
G1 X-13.072 Y-8.026 B0. E.003
G1 X-13.145 Y-8.099 B0. E.003
G1 X-13.172 Y-8.199 B0. E.003
G1 X-13.145 Y-8.299 B0. E.003
G1 X-13.072 Y-8.372 B0. E.003
G1 X-12.972 Y-8.399 B0. E.003
G1 X12.717 B0. E.854
G1 X12.817 Y-8.426 B0. E.003
G1 X12.89 Y-8.499 B0. E.003
G1 X12.917 Y-8.599 B0. E.003
G1 X12.89 Y-8.699 B0. E.003
G1 X12.817 Y-8.772 B0. E.003
G1 X12.717 Y-8.799 B0. E.003
G1 X-12.443 B0. E.837
G1 X-12.543 Y-8.826 B0. E.003
G1 X-12.616 Y-8.899 B0. E.003
G1 X-12.643 Y-8.999 B0. E.003
G1 X-12.616 Y-9.099 B0. E.003
G1 X-12.543 Y-9.172 B0. E.003
G1 X-12.443 Y-9.199 B0. E.003
G1 X12.151 B0. E.818
G1 X12.251 Y-9.226 B0. E.003
G1 X12.324 Y-9.299 B0. E.003
G1 X12.351 Y-9.399 B0. E.003
G1 X12.324 Y-9.499 B0. E.003
G1 X12.251 Y-9.572 B0. E.003
G1 X12.151 Y-9.599 B0. E.003
G1 X-11.837 B0. E.798
G1 X-11.937 Y-9.626 B0. E.003
G1 X-12.01 Y-9.699 B0. E.003
G1 X-12.037 Y-9.799 B0. E.003
G1 X-12.01 Y-9.899 B0. E.003
G1 X-11.937 Y-9.972 B0. E.003
G1 X-11.837 Y-9.999 B0. E.003
G1 X11.502 B0. E.776
G1 X11.602 Y-10.026 B0. E.003
G1 X11.675 Y-10.099 B0. E.003
G1 X11.702 Y-10.199 B0. E.003
G1 X11.675 Y-10.299 B0. E.003
G1 X11.602 Y-10.372 B0. E.003
G1 X11.502 Y-10.399 B0. E.003
G1 X-11.141 B0. E.753
G1 X-11.241 Y-10.426 B0. E.003
G1 X-11.314 Y-10.499 B0. E.003
G1 X-11.341 Y-10.599 B0. E.003
G1 X-11.314 Y-10.699 B0. E.003
G1 X-11.241 Y-10.772 B0. E.003
G1 X-11.141 Y-10.799 B0. E.003
G1 X10.754 B0. E.728
G1 X10.854 Y-10.826 B0. E.003
G1 X10.927 Y-10.899 B0. E.003
G1 X10.954 Y-10.999 B0. E.003
G1 X10.927 Y-11.099 B0. E.003
G1 X10.854 Y-11.172 B0. E.003
G1 X10.754 Y-11.198 B0. E.003
G1 X-10.337 B0. E.701
G1 X-10.437 Y-11.225 B0. E.003
G1 X-10.51 Y-11.298 B0. E.003
G1 X-10.537 Y-11.398 B0. E.003
G1 X-10.51 Y-11.498 B0. E.003
G1 X-10.437 Y-11.571 B0. E.003
G1 X-10.337 Y-11.598 B0. E.003
G1 X9.886 B0. E.673
G1 X9.986 Y-11.625 B0. E.003
G1 X10.059 Y-11.698 B0. E.003
G1 X10.086 Y-11.798 B0. E.003
G1 X10.059 Y-11.898 B0. E.003
G1 X9.986 Y-11.971 B0. E.003
G1 X9.886 Y-11.998 B0. E.003
G1 X-9.397 B0. E.641
G1 X-9.497 Y-12.025 B0. E.003
G1 X-9.57 Y-12.098 B0. E.003
G1 X-9.597 Y-12.198 B0. E.003
G1 X-9.57 Y-12.298 B0. E.003
G1 X-9.497 Y-12.371 B0. E.003
G1 X-9.397 Y-12.398 B0. E.003
G1 X8.862 B0. E.607
G1 X8.962 Y-12.425 B0. E.003
G1 X9.035 Y-12.498 B0. E.003
G1 X9.062 Y-12.598 B0. E.003
G1 X9.035 Y-12.698 B0. E.003
G1 X8.962 Y-12.771 B0. E.003
G1 X8.862 Y-12.798 B0. E.003
G1 X-8.274 B0. E.57
G1 X-8.374 Y-12.825 B0. E.003
G1 X-8.447 Y-12.898 B0. E.003
G1 X-8.474 Y-12.998 B0. E.003
G1 X-8.447 Y-13.098 B0. E.003
G1 X-8.374 Y-13.171 B0. E.003
G1 X-8.274 Y-13.198 B0. E.003
G1 X7.62 B0. E.529
G1 X7.72 Y-13.225 B0. E.003
G1 X7.793 Y-13.298 B0. E.003
G1 X7.82 Y-13.398 B0. E.003
G1 X7.793 Y-13.498 B0. E.003
G1 X7.72 Y-13.571 B0. E.003
G1 X7.62 Y-13.598 B0. E.003
G1 X-6.881 B0. E.482
G1 X-6.981 Y-13.625 B0. E.003
G1 X-7.054 Y-13.698 B0. E.003
G1 X-7.081 Y-13.798 B0. E.003
G1 X-7.054 Y-13.898 B0. E.003
G1 X-6.981 Y-13.971 B0. E.003
G1 X-6.881 Y-13.998 B0. E.003
G1 X6.026 B0. E.429
G1 X6.126 Y-14.025 B0. E.003
G1 X6.199 Y-14.098 B0. E.003
G1 X6.226 Y-14.198 B0. E.003
G1 X6.199 Y-14.298 B0. E.003
G1 X6.126 Y-14.371 B0. E.003
G1 X6.026 Y-14.398 B0. E.003
G1 X-4.995 B0. E.367
G1 X-5.095 Y-14.425 B0. E.003
G1 X-5.168 Y-14.498 B0. E.003
G1 X-5.195 Y-14.598 B0. E.003
G1 X-5.168 Y-14.698 B0. E.003
G1 X-5.095 Y-14.771 B0. E.003
G1 X-4.995 Y-14.798 B0. E.003
G1 X3.644 B0.
G1 E-1.
G0 Z2. B0.
G0 X15.094 Y-.323 Z21.522 B-1.198 C5.
G0 Z1.522 B-5. C-88.802
G1 E1.
G1 Y-.305 Z1.521 B-4.996 C-83.836
G1 Y-.287 Z1.52 B-4.992 C-78.904 E.044
G1 Y-.269 Z1.519 B-4.988 C-73.973 E.044
G1 Y-.251 Z1.518 B-4.984 C-69.041 E.044
G1 Y-.233 Z1.517 B-4.98 C-64.11 E.044
G1 X15.106 Y-.221 B-4.977 C-60.822 E.029
G1 X15.096 Y.025 Z1.515 B-4.972 C-55.163 E.058
G1 Y.112 Z1.514 B-4.968 C-50.566 E.043
G1 X15.095 Y.195 Z1.513 B-4.964 C-45.95 E.043
G1 X15.094 Y.25 Z1.511 B-4.96 C-41.229 E.043
G1 Y.285 Z1.51 B-4.956 C-36.432 E.043
G1 X15.093 Y.304 Z1.509 B-4.952 C-31.572 E.043
G1 X15.094 Y.279 Z1.508 B-4.949 C-26.653 E.043
G1 X15.095 Y.252 Z1.507 B-4.945 C-21.594 E.044
G1 X15.096 Y.208 Z1.506 B-4.941 C-16.472 E.044
G1 Y.149 Z1.505 B-4.937 C-11.291 E.044
G1 Y.137 Z1.504 B-4.933 C-6.279 E.044
G1 X15.109 Y.001 B-4.928 C-.006 E.051
G1 X15.097 Y-.115 Z1.502 B-4.924 C6.278 E.051
G1 Y-.149 Z1.501 B-4.92 C11.292 E.043
G1 X15.096 Y-.208 Z1.5 B-4.916 C16.471 E.044
G1 Y-.252 Z1.499 B-4.912 C21.594 E.044
G1 Y-.28 Z1.498 B-4.908 C26.654 E.044
G1 X15.105 Y-.228 Z1.497 B-4.903 C32.542 E.054
G1 Y-.232 Z1.496 B-4.899 C37.559 E.044
G1 X15.106 Y-.251 Z1.495 B-4.895 C42.63 E.044
G1 Y-.292 Z1.494 B-4.891 C47.787 E.044
G1 X15.105 Y-.365 Z1.493 B-4.887 C53.065 E.044
G1 X15.104 Y-.428 Z1.492 B-4.883 C58.306 E.044
G1 X15.105 Y-.423 Z1.491 B-4.879 C63.288 E.044
G1 Y-.405 Z1.49 B-4.875 C68.219 E.044
G1 X15.104 Y-.387 Z1.489 B-4.871 C73.151 E.044
G1 Y-.369 Z1.488 B-4.867 C78.082 E.044
G1 Y-.352 Z1.486 B-4.863 C83.014 E.044
G1 Y-.334 Z1.485 B-4.859 C87.945 E.044
G1 X15.098 Y-.313 Z1.484 B-4.855 C93.699 E.051
G1 Y-.295 Z1.483 B-4.851 C98.63 E.044
G1 Y-.277 Z1.481 B-4.847 C103.562 E.044
G1 Y-.259 B-4.843 C108.493 E.044
G1 Y-.241 Z1.479 B-4.839 C113.425 E.044
G1 X15.11 Y-.229 Z1.48 B-4.836 C116.712 E.029
G1 X15.1 Y.007 Z1.477 B-4.831 C122.44 E.058
G1 Y.062 Z1.476 B-4.827 C127.161 E.043
G1 X15.099 Y.161 Z1.475 B-4.823 C131.712 E.043
G1 Y.229 Z1.474 B-4.819 C136.386 E.043
G1 X15.098 Y.27 Z1.473 B-4.815 C141.157 E.043
G1 Y.298 Z1.472 B-4.811 C145.984 E.043
G1 Y.306 Z1.471 B-4.807 C150.884 E.043
G1 X15.099 Y.268 Z1.47 B-4.803 C155.871 E.043
G1 Y.229 Z1.469 B-4.799 C160.972 E.044
G1 X15.1 Y.175 Z1.468 B-4.795 C166.135 E.044
G1 X15.101 Y.115 Z1.467 B-4.791 C171.319 E.044
G1 Y.048 Z1.466 B-4.787 C176.527 E.044
G1 Y-.024 Z1.465 B-4.784 C181.736 E.043
G1 Y-.085 Z1.464 B-4.78 C186.946 E.044
G1 Y-.142 Z1.463 B-4.776 C192.142 E.044
G1 X15.1 Y-.191 Z1.462 B-4.772 C197.307 E.044
G1 X15.099 Y-.233 Z1.461 B-4.768 C202.442 E.044
G1 Y-.227 Z1.46 B-4.764 C207.533 E.045
G1 Y-.23 Z1.458 B-4.76 C212.544 E.044
G1 Y-.233 Z1.457 B-4.756 C217.556 E.044
G1 X15.11 Y-.237 Z1.458 B-4.754 C220.074 E.022
G1 Y-.266 Z1.457 B-4.75 C225.185 E.044
G1 Y-.32 Z1.456 B-4.746 C230.388 E.044
G1 X15.108 Y-.409 Z1.455 B-4.742 C235.732 E.044
G1 X15.109 Y-.429 Z1.453 B-4.738 C240.808 E.044
G1 Y-.415 Z1.452 B-4.734 C245.753 E.044
G1 Y-.397 Z1.451 B-4.73 C250.685 E.044
G1 X15.108 Y-.379 Z1.45 B-4.726 C255.616 E.044
G1 Y-.361 Z1.449 B-4.722 C260.548 E.044
G1 Y-.343 Z1.448 B-4.718 C265.479 E.044
G1 X15.102 Y-.323 Z1.446 B-4.713 C271.198 E.051
G1 Y-.296 Z1.448 B-4.709 C276.131 E.044
G1 Y-.27 Z1.45 B-4.705 C281.031 E.044
G1 Y-.244 Z1.452 B-4.701 C285.932 E.044
G1 Y-.218 Z1.453 B-4.697 C290.834 E.044
G1 Y-.193 Z1.455 B-4.693 C295.737 E.044
G1 Y-.169 Z1.457 B-4.689 C300.643 E.044
G1 X15.115 Y.029 Z1.459 B-4.687 C303.175 E.029
G1 X15.114 Y.111 Z1.461 B-4.683 C307.792 E.043
G1 X15.113 Y.198 Z1.462 B-4.679 C312.392 E.043
G1 X15.112 Y.255 Z1.464 B-4.675 C317.107 E.043
G1 Y.294 Z1.465 B-4.671 C321.891 E.043
G1 X15.111 Y.315 Z1.467 B-4.667 C326.742 E.043
G1 Y.328 Z1.469 B-4.663 C331.624 E.043
G1 Y.309 Z1.47 B-4.659 C336.625 E.043
G1 X15.112 Y.28 Z1.472 B-4.655 C341.67 E.043
G1 Y.235 Z1.474 B-4.651 C346.774 E.043
G1 X15.113 Y.173 Z1.476 B-4.647 C351.941 E.043
G1 X15.112 Y.22 Z1.477 B-4.643 C356.694 E.043
G1 X15.11 Y-.099 Z1.479 B-4.64 C361.995 E.036
G1 Y.039 Z1.48 B-4.636 C366.917 E.048
G1 X15.112 Y-.04 Z1.482 B-4.632 C372.657 E.048
G1 X15.111 Y-.067 Z1.484 B-4.628 C377.76 E.044
G1 X15.11 Y-.08 Z1.486 B-4.624 C382.811 E.044
G1 X15.109 Y-.085 Z1.487 B-4.62 C387.832 E.044
G1 X15.108 Y-.072 Z1.489 B-4.616 C392.782 E.044
G1 Y-.067 Z1.491 B-4.612 C397.763 E.044
G1 X15.107 Y-.071 Z1.492 B-4.608 C402.778 E.044
G1 X15.106 Y-.089 Z1.494 B-4.604 C407.846 E.044
G1 X15.105 Y-.127 Z1.496 B-4.6 C412.993 E.044
G1 X15.104 Y-.151 Z1.497 B-4.596 C418.085 E.044
G1 Y-.128 Z1.499 B-4.592 C422.996 E.044
G1 Y-.107 Z1.501 B-4.588 C427.914 E.044
G1 X15.103 Y-.082 Z1.502 B-4.584 C432.818 E.044
G1 Y-.058 Z1.504 B-4.58 C437.726 E.044
G1 X15.102 Y-.037 Z1.506 B-4.576 C442.648 E.044
G1 Y.046 Z1.507 B-4.572 C447.327 E.044
G1 X15.101 Z1.509 B-4.568 C452.323 E.044
G1 Y.024 Z1.511 B-4.564 C457.408 E.044
G1 X15.1 Y.042 Z1.512 B-4.56 C462.337 E.044
G1 Y.065 Z1.514 B-4.556 C467.249 E.044
G1 X15.099 Y.088 Z1.516 B-4.552 C472.16 E.044
G1 Y.107 Z1.518 B-4.548 C477.083 E.044
G1 X15.11 Y.206 Z1.52 B-4.545 C480.027 E.029
G1 X15.109 Y.223 Z1.521 B-4.541 C484.893 E.043
G1 X15.108 Y.277 Z1.523 B-4.537 C489.618 E.043
G1 Y.31 Z1.524 B-4.533 C494.425 E.043
G1 X15.107 Y.336 Z1.526 B-4.53 C499.259 E.043
G1 X15.106 Y.359 Z1.528 B-4.526 C504.104 E.043
G1 Y.37 Z1.529 B-4.522 C508.992 E.043
G1 Y.373 Z1.531 B-4.518 C513.914 E.043
G1 Y.364 Z1.533 B-4.514 C518.877 E.043
G1 Y.358 Z1.535 B-4.51 C523.833 E.043
G1 Y.344 Z1.536 B-4.506 C528.818 E.043
G1 Y.335 Z1.538 B-4.502 C533.785 E.043
G1 X15.107 Y.316 Z1.54 B-4.498 C538.79 E.043
G1 X15.106 Y.319 Z1.541 B-4.494 C543.779 E.044
G1 X15.105 Y.313 Z1.543 B-4.49 C548.804 E.044
G1 Y.262 Z1.545 B-4.486 C554. E.044
G1 X15.107 Y.125 Z1.547 B-4.482 C559.387 E.043
G1 X15.105 Y.138 Z1.548 B-4.478 C564.475 E.045
G1 Y.151 Z1.55 B-4.474 C569.427 E.044
G1 X15.104 Y.16 Z1.552 B-4.47 C574.392 E.044
G1 X15.103 Y.172 Z1.553 B-4.466 C579.349 E.044
G1 X15.102 Y.181 Z1.555 B-4.462 C584.312 E.044
G1 X15.101 Y.187 Z1.556 B-4.458 C589.289 E.044
G1 Y.198 Z1.558 B-4.454 C594.247 E.044
G1 X15.1 Y.216 Z1.56 B-4.45 C599.178 E.044
G1 X15.099 Y.228 Z1.561 B-4.446 C604.131 E.044
G1 X15.098 Y.241 Z1.563 B-4.442 C609.081 E.044
G1 X15.097 Y.258 Z1.565 B-4.438 C614.015 E.044
G1 Y.275 Z1.566 B-4.434 C618.951 E.044
G1 X15.096 Y.287 Z1.568 B-4.43 C623.901 E.044
G1 X15.095 Y.308 Z1.57 B-4.426 C628.785 E.044
G1 X15.092 Y.319 Z1.571 B-4.422 C634.384 E.05
G1 Y.324 Z1.573 B-4.418 C639.274 E.043
G1 Z1.575 B-4.414 C644.19 E.043
G1 X15.091 Y.331 Z1.576 B-4.41 C649.123 E.044
G1 Y.335 Z1.578 B-4.406 C654.038 E.043
G1 Y.336 Z1.58 B-4.402 C658.995 E.044
G1 X15.09 Y.347 Z1.582 B-4.398 C663.953 E.044
G1 Y.356 Z1.583 B-4.394 C668.83 E.043
G1 Y.361 Z1.585 B-4.39 C673.719 E.043
G1 Y.36 Z1.587 B-4.387 C678.636 E.043
G1 X15.089 Y.367 Z1.588 B-4.383 C683.574 E.044
G1 X15.09 Y.369 Z1.59 B-4.379 C688.492 E.043
G1 X15.101 Z1.592 B-4.376 C691.27 E.024
G1 Y.376 Z1.593 B-4.372 C696.227 E.044
G1 Y.408 Z1.595 B-4.368 C701.197 E.045
G1 Y.4 Z1.597 B-4.364 C706.181 E.044
G1 X15.102 Y.237 Z1.599 B-4.36 C712.003 E.046
G1 X15.103 Y.114 Z1.601 B-4.356 C718.484 E.053
G1 X15.093 Y.186 Z1.602 B-4.351 C723.459 E.046
G1 X15.102 Y.348 Z1.604 B-4.349 C725.965 E.027
G1 X15.104 Y.216 Z1.606 B-4.345 C731.594 E.045
G1 Y.217 Z1.607 B-4.341 C736.507 E.043
G1 Y.222 Z1.609 B-4.337 C741.418 E.043
G1 Y.23 Z1.611 B-4.333 C746.349 E.044
G1 Y.234 Z1.612 B-4.329 C751.261 E.043
G1 X15.103 Y.242 Z1.614 B-4.325 C756.194 E.044
G1 Y.246 Z1.616 B-4.321 C761.107 E.043
G1 X15.102 Y.253 Z1.617 B-4.317 C766.037 E.044
G1 Y.252 Z1.619 B-4.313 C770.954 E.043
G1 Y.254 Z1.621 B-4.309 C775.898 E.044
G1 Y.261 Z1.622 B-4.305 C780.826 E.044
G1 X15.101 Y.262 Z1.624 B-4.301 C785.776 E.044
G1 X15.1 Y.274 Z1.626 B-4.297 C790.72 E.044
G1 Y.284 Z1.628 B-4.294 C795.641 E.044
G1 X15.099 Y.297 Z1.629 B-4.29 C800.571 E.044
G1 X15.097 Y.428 Z1.631 B-4.286 C804.855 E.042
G1 X15.095 Y.539 Z1.632 B-4.282 C809.22 E.042
G1 X15.099 Y.283 Z1.634 B-4.278 C815.395 E.046
G1 Y.282 Z1.636 B-4.274 C820.352 E.044
G1 X15.098 Y.293 Z1.638 B-4.27 C825.3 E.044
G1 X15.089 Y.299 Z1.639 B-4.265 C831.754 E.057
G1 Y.295 Z1.641 B-4.261 C836.679 E.043
G1 Y.289 Z1.643 B-4.257 C841.615 E.043
G1 Y.295 Z1.644 B-4.253 C846.558 E.044
G1 X15.088 Y.294 Z1.646 B-4.249 C851.49 E.043
G1 X15.089 Y.297 Z1.648 B-4.245 C856.44 E.044
G1 X15.088 Y.311 Z1.649 B-4.241 C861.383 E.044
G1 X15.099 Y.314 Z1.651 B-4.239 C864.103 E.024
G1 Y.305 Z1.653 B-4.235 C869.054 E.043
G1 X15.1 Y.299 Z1.654 B-4.231 C874.014 E.044
G1 Y.296 Z1.656 B-4.227 C878.977 E.044
G1 Y.301 Z1.658 B-4.223 C883.924 E.044
G1 Y.297 Z1.66 B-4.219 C888.888 E.044
G1 Y.301 Z1.661 B-4.215 C893.841 E.044
G1 X15.101 Y.295 Z1.663 B-4.211 C898.814 E.044
G1 Y.3 Z1.665 B-4.207 C903.74 E.044
G1 Y.291 Z1.666 B-4.203 C908.688 E.043
G1 X15.1 Y.277 Z1.668 B-4.2 C913.639 E.043
G1 Y.244 Z1.67 B-4.195 C918.892 E.045
G1 X15.101 Y.245 Z1.672 B-4.192 C923.818 E.043
G1 X15.099 Y.25 Z1.673 B-4.188 C928.759 E.044
G1 X15.1 Y.245 Z1.675 B-4.184 C933.697 E.043
G1 Y.244 Z1.677 B-4.18 C938.626 E.043
G1 Y.25 Z1.678 B-4.176 C943.564 E.044
G1 Y.249 Z1.68 B-4.172 C948.502 E.043
G1 X15.099 Y.263 Z1.682 B-4.168 C953.439 E.044
G1 X15.098 Y.271 Z1.683 B-4.164 C958.366 E.044
G1 X15.099 Y.257 Z1.685 B-4.16 C963.331 E.043
G1 Y.25 Z1.687 B-4.156 C968.289 E.043
G1 Y.248 Z1.688 B-4.152 C973.249 E.044
G1 X15.098 Y.252 Z1.69 B-4.148 C978.188 E.044
G1 Y.25 Z1.692 B-4.144 C983.148 E.044
G1 X15.09 Y.267 Z1.693 B-4.14 C988.94 E.052
G1 X15.092 Y.265 Z1.695 B-4.136 C993.654 E.041
G1 Y.25 Z1.697 B-4.132 C998.593 E.043
G1 Y.241 Z1.698 B-4.128 C1003.519 E.043
G1 X15.093 Y.24 Z1.7 B-4.124 C1008.436 E.043
G1 X15.092 Y.238 Z1.702 B-4.12 C1013.407 E.044
G1 X15.091 Y.236 Z1.703 B-4.116 C1018.519 E.045
G1 X15.092 Y.241 Z1.705 B-4.112 C1023.31 E.042
G1 Y.242 Z1.707 B-4.108 C1028.266 E.044
G1 Y.231 Z1.709 B-4.104 C1033.189 E.043
G1 Y.225 Z1.71 B-4.101 C1038.103 E.043
G1 Y.226 Z1.712 B-4.097 C1043.015 E.043
G1 Y.221 Z1.714 B-4.093 C1047.997 E.044
G1 X15.091 Y.217 Z1.715 B-4.089 C1053.114 E.045
G1 X15.092 Y.215 Z1.717 B-4.085 C1057.933 E.042
G1 X15.088 Y.282 Z1.719 B-4.081 C1063.015 E.047
G1 X15.089 Y.143 Z1.721 B-4.076 C1068.67 E.045
G1 X15.098 Y-.07 Z1.722 B-4.074 C1072.496 E.027
G1 Y.065 Z1.724 B-4.069 C1078.564 E.058
G1 X15.089 Y.123 Z1.726 B-4.065 C1083.575 E.046
G1 X15.096 Y.204 Z1.727 B-4.062 C1086.21 E.026
G1 X15.097 Y.199 Z1.729 B-4.058 C1091.222 E.044
G1 X15.096 Y.198 Z1.73 B-4.054 C1096.112 E.043
G1 X15.098 Y.206 Z1.733 B-4.05 C1101.614 E.049
G1 X15.096 Y.192 Z1.734 B-4.047 C1106.014 E.038
G1 Y.198 Z1.736 B-4.043 C1110.879 E.043
G1 Y.185 Z1.737 B-4.039 C1115.918 E.044
G1 Y.186 Z1.739 B-4.035 C1120.801 E.043
G1 X15.097 Y.179 Z1.741 B-4.031 C1125.822 E.044
G1 X15.096 Y.181 Z1.742 B-4.027 C1130.701 E.043
G1 X15.098 Y.192 Z1.744 B-4.023 C1136.19 E.049
G1 X15.096 Y.174 Z1.746 B-4.019 C1140.607 E.038
G1 X15.098 Y.18 Z1.748 B-4.015 C1145.753 E.046
G1 X15.097 Y.14 Z1.749 B-4.011 C1150.616 E.042
G1 Y.154 Z1.751 B-4.007 C1155.574 E.044
G1 X15.096 Y.171 Z1.752 B-4.003 C1160.375 E.043
G1 X15.098 Y.24 Z1.754 B-3.999 C1165.281 E.046
G1 X15.088 Y.291 Z1.756 B-3.994 C1171.309 E.055
G1 X15.091 Y.157 Z1.758 B-3.991 C1176.454 E.041
G1 Y.15 Z1.759 B-3.987 C1181.585 E.045
G1 Y.119 Z1.761 B-3.983 C1186.516 E.042
G1 Y.131 Z1.763 B-3.979 C1191.429 E.044
G1 Y.14 Z1.764 B-3.975 C1196.274 E.043
G1 Y.151 Z1.766 B-3.971 C1201.126 E.043
G1 X15.092 Y.158 Z1.768 B-3.967 C1206.012 E.043
G1 X15.09 Y.139 Z1.769 B-3.963 C1211.048 E.044
G1 Y.13 Z1.771 B-3.959 C1216.186 E.045
G1 X15.091 Y.092 Z1.773 B-3.955 C1221.141 E.042
G1 Y.106 Z1.775 B-3.951 C1226.045 E.044
G1 Y.12 Z1.776 B-3.947 C1230.875 E.043
G1 Y.133 Z1.778 B-3.943 C1235.716 E.043
G1 Y.142 Z1.78 B-3.94 C1240.6 E.043
G1 Y.12 Z1.781 B-3.936 C1245.644 E.044
G1 Y.124 Z1.783 B-3.932 C1250.546 E.043
G1 Y.107 Z1.785 B-3.928 C1255.571 E.044
G1 Y.104 Z1.787 B-3.924 C1260.499 E.043
G1 Y.099 Z1.788 B-3.92 C1265.478 E.044
G1 Y.115 Z1.79 B-3.916 C1270.308 E.043
G1 Y.124 Z1.792 B-3.912 C1275.191 E.043
G1 Y.1 Z1.793 B-3.908 C1280.242 E.044
G1 Y.104 Z1.795 B-3.904 C1285.146 E.043
G1 Y.091 Z1.797 B-3.9 C1290.155 E.044
G1 Y.113 Z1.798 B-3.896 C1294.964 E.043
G1 X15.09 Y.127 Z1.8 B-3.892 C1299.824 E.043
G1 X15.091 Y.097 Z1.802 B-3.888 C1304.902 E.044
G1 X15.09 Y.087 Z1.803 B-3.884 C1310.042 E.045
G1 Y.024 Z1.805 B-3.881 C1315.095 E.042
G1 Y.045 Z1.807 B-3.877 C1319.976 E.044
G1 X15.091 Y.071 Z1.809 B-3.873 C1324.755 E.043
G1 X15.09 Y.095 Z1.81 B-3.869 C1329.554 E.043
G1 X15.091 Y.11 Z1.812 B-3.865 C1334.412 E.043
G1 X15.09 Y.078 Z1.814 B-3.861 C1339.498 E.044
G1 X15.089 Y.066 Z1.815 B-3.857 C1344.646 E.045
G1 X15.088 Y-.002 Z1.817 B-3.853 C1349.972 E.045
G1 X15.085 Y.04 Z1.819 B-3.848 C1356.411 E.058
G1 Y.069 Z1.821 B-3.844 C1361.17 E.043
G1 X15.084 Y.106 Z1.822 B-3.84 C1365.905 E.043
G1 X15.085 Y.09 Z1.824 B-3.836 C1370.938 E.044
G1 Y.092 Z1.826 B-3.832 C1375.843 E.043
G1 X15.087 Y.069 Z1.827 B-3.829 C1379.479 E.031
G1 X15.088 Y.015 Z1.829 B-3.825 C1384.505 E.042
G1 Y.039 Z1.831 B-3.821 C1389.366 E.044
G1 Y.072 Z1.832 B-3.817 C1394.114 E.043
G1 Y.102 Z1.834 B-3.814 C1398.878 E.043
G1 X15.087 Y.116 Z1.836 B-3.81 C1403.755 E.043
G1 X15.088 Y.093 Z1.837 B-3.806 C1408.796 E.044
G1 X15.086 Y.083 Z1.839 B-3.802 C1413.948 E.045
G1 X15.088 Y.031 Z1.841 B-3.798 C1418.964 E.042
G1 X15.087 Y.051 Z1.842 B-3.794 C1423.844 E.044
G1 X15.088 Y.083 Z1.844 B-3.79 C1428.596 E.043
G1 X15.092 Y.068 Z1.846 B-3.787 C1432.896 E.037
G1 X15.094 Y.028 Z1.848 B-3.782 C1438.618 E.049
G1 X15.096 Y.049 Z1.849 B-3.779 C1442.461 E.035
G1 X15.087 Y.114 Z1.851 B-3.774 C1448.166 E.052
G1 Y.097 Z1.853 B-3.77 C1453.184 E.044
G1 X15.094 Y.113 Z1.854 B-3.768 C1456.441 E.029
G1 X15.093 Y.161 Z1.856 B-3.763 C1461.946 E.05
G1 X15.087 Y.124 Z1.858 B-3.759 C1467.843 E.051
G1 Y.138 Z1.859 B-3.755 C1472.718 E.043
G1 Y.116 Z1.861 B-3.751 C1477.756 E.044
G1 Y.126 Z1.863 B-3.747 C1482.644 E.043
G1 Y.108 Z1.864 B-3.743 C1487.667 E.044
G1 X15.093 Y.123 Z1.866 B-3.74 C1490.926 E.029
G1 Y.172 Z1.868 B-3.736 C1496.428 E.05
G1 X15.087 Y.135 Z1.869 B-3.731 C1502.325 E.051
G1 X15.086 Y.139 Z1.871 B-3.727 C1507.425 E.045
G1 Y.083 Z1.873 B-3.723 C1512.46 E.042
G1 X15.087 Y.088 Z1.875 B-3.719 C1517.397 E.044
G1 Y.118 Z1.876 B-3.715 C1522.15 E.043
G1 X15.097 Y.042 Z1.878 B-3.712 C1526.151 E.033
G1 Y-.015 Z1.88 B-3.708 C1531.382 E.044
G1 X15.086 Y.146 Z1.881 B-3.704 C1536.805 E.053
G1 Y.154 Z1.883 B-3.699 C1541.893 E.045
G1 Y.1 Z1.885 B-3.696 C1546.919 E.042
G1 Y.101 Z1.886 B-3.692 C1551.868 E.044
G1 Y.132 Z1.888 B-3.688 C1556.621 E.043
G1 X15.093 Y.144 Z1.89 B-3.685 C1559.895 E.029
G1 X15.086 Y.184 Z1.891 B-3.68 C1566.235 E.057
G1 X15.093 Y.14 Z1.893 B-3.677 C1569.788 E.03
G1 X15.094 Y.19 Z1.895 B-3.673 C1574.767 E.046
G1 X15.086 Y.116 Z1.897 B-3.668 C1581.379 E.056
G1 Y.113 Z1.898 B-3.664 C1586.345 E.044
G1 Y.143 Z1.9 B-3.66 C1591.102 E.043
G1 X15.092 Y.154 Z1.901 B-3.658 C1594.379 E.029
G1 X15.086 Y.195 Z1.903 B-3.652 C1600.714 E.057
G1 X15.093 Y.151 Z1.905 B-3.65 C1604.271 E.03
G1 X15.086 Y.187 Z1.907 B-3.645 C1610.627 E.057
G1 Y.165 Z1.908 B-3.641 C1615.662 E.044
G1 Y.18 Z1.91 B-3.637 C1620.534 E.043
G1 Y.155 Z1.912 B-3.633 C1625.582 E.044
G1 X15.092 Y.164 Z1.913 B-3.63 C1628.862 E.029
G1 X15.085 Y.207 Z1.915 B-3.625 C1635.193 E.057
G1 X15.092 Y.161 Z1.917 B-3.622 C1638.752 E.03
G1 X15.085 Y.199 Z1.918 B-3.617 C1645.102 E.057
G1 X15.086 Y.165 Z1.92 B-3.613 C1650.187 E.044
G1 X15.092 Y.178 Z1.922 B-3.611 C1653.455 E.029
G1 X15.084 Y.227 Z1.924 B-3.605 C1659.759 E.057
G1 X15.092 Y.175 Z1.925 B-3.603 C1663.344 E.03
G1 X15.093 Y.241 Z1.927 B-3.599 C1668.26 E.046
G1 X15.085 Y.168 Z1.929 B-3.593 C1674.873 E.056
G1 Y.148 Z1.93 B-3.59 C1679.907 E.044
G1 Y.176 Z1.932 B-3.586 C1684.669 E.043
G1 X15.091 Y.188 Z1.934 B-3.583 C1687.939 E.029
G1 Y.252 Z1.936 B-3.578 C1693.383 E.05
G1 X15.092 Y.186 Z1.937 B-3.575 C1697.827 E.037
G1 X15.093 Y.255 Z1.939 B-3.571 C1702.732 E.046
G1 X15.085 Y.186 Z1.941 B-3.566 C1709.255 E.055
G1 X15.087 Y.159 Z1.942 B-3.562 C1714.011 E.041
G1 Y.191 Z1.944 B-3.558 C1718.74 E.043
G1 Y.216 Z1.946 B-3.555 C1723.512 E.043
G1 Y.251 Z1.947 B-3.551 C1728.303 E.043
G1 Y.211 Z1.949 B-3.547 C1733.418 E.044
G1 Y.247 Z1.951 B-3.543 C1738.204 E.043
G1 X15.086 Y.199 Z1.952 B-3.539 C1743.423 E.044
G1 X15.087 Y.174 Z1.954 B-3.535 C1748.479 E.044
G1 Y.199 Z1.956 B-3.531 C1753.233 E.043
G1 Y.22 Z1.957 B-3.527 C1758.021 E.043
G1 X15.086 Y.251 Z1.959 B-3.523 C1762.827 E.043
G1 X15.087 Y.216 Z1.961 B-3.519 C1767.921 E.044
G1 X15.086 Y.248 Z1.962 B-3.515 C1772.724 E.043
G1 X15.087 Y.209 Z1.964 B-3.511 C1777.907 E.044
G1 Y.188 Z1.966 B-3.507 C1782.945 E.044
G1 Y.208 Z1.968 B-3.503 C1787.723 E.043
G1 X15.091 Y.153 Z1.969 B-3.5 C1792.438 E.04
G1 X15.095 Y.074 Z1.971 B-3.496 C1797.166 E.039
G1 Y.059 Z1.973 B-3.492 C1802.137 E.043
G1 X15.087 Y.247 Z1.974 B-3.488 C1807.256 E.051
G1 Y.213 Z1.976 B-3.484 C1812.345 E.044
G1 Y.231 Z1.978 B-3.48 C1817.142 E.043
G1 Y.258 Z1.98 B-3.476 C1821.963 E.043
G1 Y.23 Z1.981 B-3.472 C1827.033 E.044
G1 Y.253 Z1.983 B-3.468 C1831.868 E.043
G1 Y.229 Z1.985 B-3.464 C1836.922 E.044
G1 X15.086 Y.25 Z1.986 B-3.46 C1841.767 E.043
G1 X15.087 Y.222 Z1.988 B-3.456 C1846.833 E.044
G1 X15.086 Y.235 Z1.99 B-3.452 C1851.65 E.043
G1 X15.087 Y.259 Z1.991 B-3.449 C1856.486 E.043
G1 X15.086 Y.235 Z1.993 B-3.445 C1861.536 E.044
G1 Y.26 Z1.995 B-3.441 C1866.369 E.043
G1 X15.085 Y.243 Z1.996 B-3.437 C1871.47 E.044
G1 X15.086 Y.229 Z1.998 B-3.433 C1876.483 E.044
G1 Y.232 Z2. B-3.429 C1881.319 E.043
G1 X15.094 Y.189 Z2.002 B-3.426 C1885.585 E.036
G1 X15.083 Y.239 Z2.003 B-3.421 C1891.579 E.054
G1 X15.08 Y.249 Z2.005 B-3.416 C1897.348 E.051
G1 X15.092 Y.263 Z2.007 B-3.414 C1900.183 E.025
G1 Y.254 Z2.008 B-3.41 C1905.242 E.044
G1 X15.091 Y.245 Z2.01 B-3.406 C1910.273 E.044
G1 X15.092 Y.246 Z2.012 B-3.402 C1915.119 E.043
G1 Y.242 Z2.013 B-3.398 C1920.004 E.043
G1 X15.093 Y.264 Z2.015 B-3.394 C1924.82 E.043
G1 X15.089 Y.244 Z2.016 B-3.391 C1929.214 E.038
G1 X15.092 Y.265 Z2.019 B-3.386 C1934.702 E.049
G1 X15.091 Y.264 Z2.02 B-3.382 C1939.728 E.044
G1 Y.261 Z2.022 B-3.378 C1944.733 E.044
G1 X15.092 Y.257 Z2.024 B-3.374 C1949.604 E.043
G1 Y.249 Z2.025 B-3.37 C1954.501 E.043
G1 Y.265 Z2.027 B-3.367 C1959.342 E.043
G1 Y.254 Z2.029 B-3.363 C1964.367 E.044
G1 Y.266 Z2.03 B-3.359 C1969.22 E.043
G1 Y.261 Z2.032 B-3.355 C1974.228 E.044
G1 Y.269 Z2.034 B-3.351 C1979.094 E.043
G1 Y.268 Z2.035 B-3.347 C1984.087 E.044
G1 Y.257 Z2.037 B-3.343 C1988.997 E.043
G1 Y.266 Z2.039 B-3.339 C1993.861 E.043
G1 X15.088 Y.264 Z2.04 B-3.336 C1998.187 E.038
G1 X15.092 Y.27 Z2.042 B-3.331 C2003.732 E.049
G1 X15.088 Y.272 Z2.043 B-3.328 C2008.04 E.038
G1 X15.092 Y.258 Z2.046 B-3.323 C2013.632 E.049
G1 Y.263 Z2.047 B-3.319 C2018.511 E.043
G1 Y.265 Z2.049 B-3.315 C2023.491 E.044
G1 Y.268 Z2.051 B-3.312 C2028.377 E.043
G1 X15.091 Y.291 Z2.052 B-3.308 C2033.317 E.044
G1 X15.09 Y.305 Z2.054 B-3.304 C2038.265 E.044
G1 X15.091 Y.281 Z2.056 B-3.3 C2043.2 E.043
G1 X15.092 Y.265 Z2.057 B-3.296 C2048.13 E.043
G1 Y.264 Z2.059 B-3.292 C2053.033 E.043
G1 Y.274 Z2.061 B-3.288 C2057.983 E.044
G1 Y.271 Z2.063 B-3.284 C2062.893 E.043
G1 X15.082 Y.309 Z2.064 B-3.279 C2068.781 E.053
G1 X15.084 Y.316 Z2.066 B-3.276 C2073.341 E.04
G1 X15.086 Y.29 Z2.067 B-3.272 C2078.265 E.043
G1 Y.272 Z2.069 B-3.268 C2083.18 E.043
G1 X15.087 Z2.071 B-3.264 C2088.084 E.043
G1 X15.086 Y.28 Z2.073 B-3.26 C2093.04 E.044
G1 X15.087 Y.279 Z2.074 B-3.256 C2097.949 E.043
G1 X15.084 Y.309 Z2.076 B-3.252 C2102.899 E.045
G1 Y.319 Z2.078 B-3.248 C2107.851 E.044
G1 X15.086 Y.297 Z2.079 B-3.244 C2112.762 E.043
G1 Y.281 Z2.081 B-3.24 C2117.671 E.043
G1 Z2.083 B-3.236 C2122.578 E.043
G1 Y.289 Z2.084 B-3.233 C2127.533 E.044
G1 Y.286 Z2.086 B-3.229 C2132.45 E.043
G1 X15.087 Y.3 Z2.088 B-3.225 C2137.27 E.043
G1 X15.091 Y.29 Z2.09 B-3.221 C2141.843 E.04
G1 X15.092 Y.26 Z2.091 B-3.217 C2146.779 E.043
G1 X15.086 Y.063 Z2.093 B-3.213 C2153.458 E.052
G1 X15.092 Y.029 Z2.095 B-3.209 C2158.618 E.044
G1 X15.083 Y.16 Z2.096 B-3.204 C2163.425 E.047
G1 X15.092 Y.292 Z2.098 B-3.202 C2166.222 E.029
G1 Y.31 Z2.1 B-3.198 C2171.171 E.044
G1 Y.295 Z2.101 B-3.194 C2176.074 E.043
G1 Y.287 Z2.103 B-3.19 C2180.979 E.043
G1 Y.302 Z2.105 B-3.186 C2185.942 E.044
G1 Y.293 Z2.107 B-3.182 C2190.85 E.043
G1 Y.308 Z2.108 B-3.178 C2195.81 E.044
G1 Y.298 Z2.11 B-3.174 C2200.722 E.043
G1 Y.318 Z2.112 B-3.17 C2205.667 E.044
G1 Y.304 Z2.113 B-3.166 C2210.566 E.043
G1 Y.295 Z2.115 B-3.162 C2215.474 E.043
G1 X15.091 Y.31 Z2.117 B-3.158 C2220.436 E.044
G1 X15.092 Y.298 Z2.118 B-3.155 C2225.359 E.043
G1 Y.31 Z2.12 B-3.151 C2230.37 E.045
G1 X15.091 Y.331 Z2.122 B-3.146 C2235.334 E.044
G1 Y.327 Z2.123 B-3.143 C2240.163 E.042
G1 Y.278 Z2.125 B-3.139 C2245.04 E.041
G1 X15.082 Y.325 Z2.127 B-3.134 C2251.262 E.056
G1 X15.079 Y.31 Z2.129 B-3.129 C2257.06 E.051
G1 X15.092 Y.304 Z2.13 B-3.127 C2259.861 E.024
G1 Y.313 Z2.132 B-3.123 C2264.884 E.045
G1 X15.091 Y.333 Z2.134 B-3.119 C2269.849 E.044
G1 Y.328 Z2.135 B-3.115 C2274.683 E.042
G1 X15.092 Y.322 Z2.137 B-3.111 C2279.551 E.043
G1 Y.311 Z2.139 B-3.107 C2284.467 E.043
G1 X15.091 Y.327 Z2.14 B-3.103 C2289.427 E.044
G1 X15.092 Y.311 Z2.142 B-3.1 C2294.364 E.043
G1 Y.317 Z2.144 B-3.096 C2299.398 E.045
G1 X15.091 Y.336 Z2.146 B-3.091 C2304.359 E.044
G1 Y.335 Z2.147 B-3.088 C2309.185 E.043
G1 Y.331 Z2.149 B-3.084 C2314.045 E.043
G1 X15.092 Y.319 Z2.151 B-3.08 C2318.966 E.043
G1 X15.091 Y.335 Z2.152 B-3.076 C2323.923 E.044
G1 X15.092 Y.321 Z2.154 B-3.072 C2328.849 E.043
G1 X15.091 Y.343 Z2.156 B-3.068 C2333.788 E.044
G1 X15.092 Y.321 Z2.157 B-3.064 C2338.743 E.043
G1 X15.091 Y.341 Z2.159 B-3.06 C2343.687 E.044
G1 Y.339 Z2.161 B-3.056 C2348.539 E.043
G1 X15.092 Y.326 Z2.162 B-3.052 C2353.465 E.043
G1 X15.086 Y.346 Z2.164 B-3.049 C2357.71 E.038
G1 X15.092 Y.328 Z2.166 B-3.045 C2363.352 E.049
G1 X15.086 Y.355 Z2.167 B-3.041 C2367.572 E.038
G1 X15.091 Y.344 Z2.169 B-3.037 C2373.153 E.049
G1 Y.332 Z2.171 B-3.033 C2378.074 E.043
G1 Y.347 Z2.173 B-3.029 C2383.035 E.044
G1 X15.092 Y.327 Z2.174 B-3.025 C2387.986 E.043
G1 Y.32 Z2.176 B-3.021 C2393.071 E.045
G1 X15.091 Y.341 Z2.178 B-3.017 C2398.037 E.044
G1 Y.361 Z2.179 B-3.013 C2402.769 E.042
G1 Y.353 Z2.181 B-3.009 C2407.646 E.043
G1 Y.339 Z2.183 B-3.005 C2412.572 E.043
G1 Y.355 Z2.184 B-3.001 C2417.531 E.044
G1 X15.092 Y.333 Z2.186 B-2.997 C2422.489 E.043
G1 X15.082 Y.328 Z2.188 B-2.992 C2428.712 E.055
G1 Y.34 Z2.19 B-2.988 C2433.727 E.045
G1 Y.349 Z2.191 B-2.985 C2438.511 E.042
G1 X15.083 Y.344 Z2.193 B-2.981 C2443.361 E.043
G1 X15.092 Y.332 Z2.195 B-2.978 C2447.137 E.033
G1 X15.083 Y.334 Z2.196 B-2.973 C2453.298 E.054
G1 X15.093 Y.315 Z2.198 B-2.97 C2457.104 E.033
G1 Y.291 Z2.2 B-2.966 C2462.045 E.043
G1 X15.091 Y.296 Z2.201 B-2.962 C2466.94 E.043
G1 Y.312 Z2.203 B-2.958 C2471.688 E.042
G1 X15.09 Y.322 Z2.205 B-2.954 C2476.478 E.043
G1 X15.093 Y.311 Z2.207 B-2.95 C2481.746 E.046
G1 X15.084 Y.307 Z2.208 B-2.945 C2487.927 E.054
G1 X15.093 Y.29 Z2.21 B-2.942 C2491.728 E.033
G1 X15.092 Y.239 Z2.212 B-2.938 C2496.775 E.043
G1 X15.094 Y.117 Z2.213 B-2.935 C2502.145 E.043
G1 Y.11 Z2.215 B-2.931 C2506.991 E.042
G1 X15.093 Y.069 Z2.217 B-2.927 C2511.977 E.043
G1 Y.012 Z2.219 B-2.922 C2518.586 E.056
G1 X15.096 Y.084 Z2.22 B-2.919 C2522.152 E.034
G1 X15.084 Y.279 Z2.222 B-2.914 C2527.582 E.054
G1 X15.092 Y.266 Z2.223 B-2.911 C2531.022 E.03
G1 X15.09 Y.281 Z2.225 B-2.907 C2535.792 E.043
G1 X15.093 Y.287 Z2.227 B-2.903 C2540.994 E.046
G1 X15.091 Y.264 Z2.228 B-2.899 C2545.757 E.041
G1 X15.085 Y.273 Z2.23 B-2.894 C2552.233 E.057
G1 X15.092 Y.245 Z2.232 B-2.892 C2555.729 E.03
G1 X15.085 Y.252 Z2.234 B-2.886 C2562.212 E.057
G1 X15.093 Y.229 Z2.235 B-2.884 C2565.688 E.03
G1 X15.091 Y.253 Z2.237 B-2.88 C2570.424 E.043
G1 X15.094 Y.266 Z2.239 B-2.876 C2575.603 E.046
G1 X15.091 Y.233 Z2.24 B-2.872 C2580.402 E.041
G1 X15.095 Y.235 Z2.242 B-2.868 C2585.622 E.046
G1 X15.085 Y.161 Z2.244 B-2.863 C2592.27 E.056
G1 X15.094 Y.145 Z2.246 B-2.86 C2595.738 E.03
G1 X15.093 Y.192 Z2.247 B-2.856 C2600.359 E.042
G1 X15.094 Y.161 Z2.249 B-2.852 C2605.85 E.047
G1 X15.085 Y.111 Z2.251 B-2.847 C2612.321 E.055
G1 X15.092 Y.201 Z2.252 B-2.844 C2615.049 E.027
G1 X15.095 Y.208 Z2.254 B-2.84 C2620.251 E.046
G1 X15.086 Y.122 Z2.256 B-2.835 C2626.942 E.056
G1 X15.095 Y.101 Z2.258 B-2.832 C2630.426 E.03
G1 X15.094 Y.148 Z2.259 B-2.829 C2635.052 E.042
G1 X15.093 Y.195 Z2.261 B-2.825 C2639.701 E.043
G1 X15.095 Y.218 Z2.263 B-2.821 C2644.838 E.046
G1 X15.094 Y.168 Z2.264 B-2.817 C2649.702 E.041
G1 X15.096 Y.179 Z2.266 B-2.813 C2654.888 E.046
G1 X15.086 Y.082 Z2.268 B-2.808 C2661.619 E.056
G1 X15.095 Y.056 Z2.269 B-2.805 C2665.119 E.03
G1 Y.11 Z2.271 B-2.801 C2669.727 E.042
G1 X15.093 Y.164 Z2.273 B-2.797 C2674.347 E.043
G1 X15.087 Y.205 Z2.274 B-2.792 C2680.702 E.057
G1 X15.094 Y.135 Z2.276 B-2.789 C2684.358 E.03
G1 X15.087 Y.169 Z2.278 B-2.784 C2690.739 E.057
G1 X15.095 Y.105 Z2.279 B-2.781 C2694.372 E.03
G1 X15.087 Y.129 Z2.281 B-2.776 C2700.792 E.057
G1 X15.095 Y.07 Z2.283 B-2.774 C2704.404 E.03
G1 X15.094 Y.132 Z2.284 B-2.77 C2708.996 E.043
G1 X15.087 Y.18 Z2.286 B-2.765 C2715.327 E.057
G1 X15.095 Y.1 Z2.288 B-2.762 C2719.019 E.03
G1 X15.087 Y.139 Z2.29 B-2.757 C2725.381 E.057
G1 X15.095 Y.067 Z2.291 B-2.754 C2729.044 E.03
G1 X15.094 Y.133 Z2.293 B-2.75 C2733.62 E.043
G1 X15.096 Y.183 Z2.295 B-2.746 C2738.653 E.046
G1 X15.095 Y.099 Z2.296 B-2.742 C2743.649 E.041
G1 X15.097 Y.134 Z2.298 B-2.738 C2748.74 E.046
G1 X15.087 Y-.003 Z2.3 B-2.733 C2755.634 E.056
G1 X15.096 Y-.044 Z2.302 B-2.73 C2759.2 E.03
G1 Y.027 Z2.303 B-2.726 C2763.724 E.042
G1 X15.094 Y.102 Z2.305 B-2.723 C2768.266 E.043
G1 X15.097 Y.157 Z2.307 B-2.718 C2773.281 E.046
G1 X15.095 Y.065 Z2.308 B-2.715 C2778.306 E.041
G1 X15.098 Y.104 Z2.31 B-2.711 C2783.384 E.046
G1 X15.088 Y-.042 Z2.312 B-2.706 C2790.127 E.055
G1 X15.09 Y-.063 Z2.314 B-2.702 C2794.951 E.042
G1 X15.089 Y.026 Z2.315 B-2.698 C2799.626 E.044
G1 X15.092 Y.084 Z2.316 B-2.695 C2802.506 E.027
G1 X15.097 Y.15 Z2.319 B-2.691 C2807.836 E.049
G1 X15.096 Y.07 Z2.32 B-2.687 C2812.813 E.041
G1 X15.098 Y.108 Z2.322 B-2.683 C2817.894 E.046
G1 Y-.008 Z2.324 B-2.679 C2823.189 E.043
G1 X15.097 Y-.056 Z2.325 B-2.675 C2828.286 E.043
G1 Y.022 Z2.327 B-2.671 C2832.799 E.042
G1 X15.095 Y.112 Z2.329 B-2.668 C2837.281 E.043
G1 X15.098 Y.162 Z2.33 B-2.663 C2842.319 E.046
G1 X15.096 Y.096 Z2.332 B-2.66 C2847.241 E.041
G1 X15.098 Y.123 Z2.334 B-2.656 C2852.369 E.046
G1 X15.097 Y.013 Z2.335 B-2.652 C2857.638 E.043
G1 Y-.027 Z2.337 B-2.648 C2862.697 E.043
G1 Y.035 Z2.339 B-2.644 C2867.276 E.042
G1 X15.096 Y.08 Z2.34 B-2.64 C2871.931 E.043
G1 X15.098 Y.037 Z2.342 B-2.636 C2877.47 E.047
G1 Z2.344 B-2.632 C2882.206 E.042
G1 X15.096 Y.187 Z2.346 B-2.628 C2886.424 E.042
G1 X15.097 Y.078 Z2.347 B-2.624 C2891.738 E.043
G1 X15.095 Y.17 Z2.349 B-2.62 C2896.214 E.043
G1 X15.097 Y.215 Z2.351 B-2.616 C2901.268 E.046
G1 X15.096 Y.16 Z2.352 B-2.613 C2906.15 E.041
G1 X15.095 Y.233 Z2.354 B-2.609 C2910.874 E.044
G1 X15.096 Y.153 Z2.356 B-2.605 C2916.078 E.043
G1 Y.2 Z2.357 B-2.601 C2920.903 E.044
G1 X15.097 Y.099 Z2.359 B-2.597 C2926.184 E.043
G1 X15.095 Y.192 Z2.361 B-2.593 C2930.656 E.043
G1 X15.098 Y.227 Z2.363 B-2.589 C2935.748 E.046
G1 X15.095 Y.187 Z2.364 B-2.585 C2940.576 E.041
G1 X15.098 Y.192 Z2.366 B-2.581 C2945.781 E.046
G1 X15.099 Y.091 Z2.368 B-2.577 C2951.02 E.043
G1 X15.098 Y.074 Z2.369 B-2.573 C2956.006 E.043
G1 X15.097 Y.121 Z2.371 B-2.569 C2960.627 E.042
G1 X15.096 Y.272 Z2.373 B-2.565 C2965.425 E.047
G1 X15.087 Y.302 Z2.374 B-2.56 C2971.496 E.054
G1 X15.09 Y.226 Z2.376 B-2.557 C2976.321 E.04
G1 X15.091 Y.18 Z2.378 B-2.553 C2981.47 E.044
G1 Y.114 Z2.38 B-2.549 C2986.668 E.044
G1 X15.092 Y.108 Z2.381 B-2.545 C2991.557 E.043
G1 X15.091 Y.176 Z2.383 B-2.541 C2996.319 E.044
G1 X15.09 Y.251 Z2.385 B-2.537 C3000.852 E.042
G1 X15.089 Y.255 Z2.386 B-2.533 C3006.019 E.046
G1 Y.251 Z2.388 B-2.529 C3010.754 E.042
G1 X15.091 Y.198 Z2.39 B-2.525 C3015.928 E.044
G1 X15.09 Y.14 Z2.391 B-2.521 C3021.094 E.044
G1 X15.092 Y.137 Z2.393 B-2.517 C3025.969 E.043
G1 X15.091 Y.202 Z2.395 B-2.513 C3030.747 E.044
G1 X15.09 Y.273 Z2.396 B-2.509 C3035.297 E.042
G1 Y.29 Z2.398 B-2.505 C3040.265 E.044
G1 Y.277 Z2.4 B-2.501 C3045.181 E.043
G1 X15.092 Y.237 Z2.402 B-2.498 C3050.157 E.043
G1 X15.093 Y.159 Z2.403 B-2.494 C3055.325 E.043
G1 X15.092 Y.175 Z2.405 B-2.49 C3060.295 E.044
G1 X15.091 Y.229 Z2.407 B-2.486 C3065.169 E.045
G1 X15.09 Y.296 Z2.408 B-2.482 C3069.735 E.042
G1 Y.309 Z2.41 B-2.478 C3074.718 E.044
G1 Y.305 Z2.412 B-2.474 C3079.601 E.043
G1 X15.092 Y.254 Z2.413 B-2.47 C3084.619 E.043
G1 X15.091 Y.246 Z2.415 B-2.466 C3089.731 E.045
G1 X15.09 Y.31 Z2.417 B-2.462 C3094.307 E.042
G1 X15.088 Y.316 Z2.419 B-2.458 C3099.467 E.046
G1 X15.09 Y.321 Z2.42 B-2.454 C3104.166 E.042
G1 X15.091 Y.253 Z2.422 B-2.45 C3109.398 E.044
G1 Y.216 Z2.424 B-2.446 C3114.489 E.044
G1 X15.092 Y.221 Z2.425 B-2.443 C3119.342 E.043
G1 X15.091 Y.272 Z2.427 B-2.439 C3124.159 E.044
G1 X15.09 Y.332 Z2.429 B-2.435 C3128.752 E.042
G1 X15.089 Y.338 Z2.43 B-2.431 C3133.91 E.046
G1 X15.09 Y.348 Z2.432 B-2.427 C3138.593 E.042
G1 X15.091 Y.273 Z2.434 B-2.423 C3143.849 E.044
G1 X15.09 Y.245 Z2.436 B-2.419 C3149.028 E.045
G1 X15.089 Y.24 Z2.437 B-2.415 C3154.497 E.048
G1 X15.099 Y.27 Z2.439 B-2.412 C3157.809 E.03
G1 X15.096 Y.355 Z2.44 B-2.408 C3161.927 E.039
G1 Y.336 Z2.442 B-2.404 C3166.849 E.043
G1 X15.097 Y.366 Z2.444 B-2.4 C3171.794 E.045
G1 X15.098 Y.298 Z2.446 B-2.396 C3177.522 E.048
G1 X15.1 Y.233 Z2.447 B-2.392 C3182.462 E.041
G1 X15.099 Y.255 Z2.449 B-2.388 C3187.388 E.044
G1 Y.272 Z2.451 B-2.384 C3192.331 E.044
G1 X15.097 Y.357 Z2.452 B-2.381 C3196.447 E.039
G1 X15.096 Y.338 Z2.454 B-2.377 C3201.37 E.043
G1 X15.097 Y.368 Z2.456 B-2.373 C3206.314 E.045
G1 X15.096 Y.3 Z2.457 B-2.368 C3212.044 E.048
G1 X15.101 Y.234 Z2.459 B-2.365 C3216.986 E.041
G1 X15.1 Y.255 Z2.461 B-2.361 C3221.912 E.044
G1 X15.101 Y.217 Z2.463 B-2.357 C3226.841 E.042
G1 X15.095 Y.036 Z2.464 B-2.352 C3233.416 E.052
G1 X15.1 Y.059 Z2.467 B-2.348 C3238.61 E.047
G1 X15.09 Y.344 Z2.469 B-2.342 C3244.934 E.065
G1 X15.1 Y.293 Z2.471 B-2.337 C3251.04 E.052
G1 X15.097 Y.35 Z2.473 B-2.334 C3255.621 E.042
G1 X15.096 Y.338 Z2.475 B-2.329 C3261.37 E.05
G1 X15.098 Y.362 Z2.476 B-2.326 C3265.487 E.037
G1 X15.097 Y.342 Z2.478 B-2.322 C3270.41 E.043
G1 X15.098 Y.373 Z2.479 B-2.318 C3275.353 E.045
G1 X15.099 Y.304 Z2.481 B-2.313 C3281.089 E.048
G1 X15.101 Y.265 Z2.483 B-2.31 C3286.035 E.042
G1 X15.098 Y.352 Z2.484 B-2.306 C3290.141 E.039
G1 X15.097 Y.34 Z2.486 B-2.302 C3295.89 E.05
G1 Y.364 Z2.488 B-2.298 C3300.007 E.037
G1 X15.1 Y.294 Z2.49 B-2.294 C3305.745 E.048
G1 X15.102 Y.228 Z2.492 B-2.29 C3310.694 E.041
G1 X15.101 Y.251 Z2.493 B-2.286 C3315.618 E.044
G1 Y.267 Z2.495 B-2.282 C3320.557 E.044
G1 X15.099 Y.402 Z2.496 B-2.278 C3324.713 E.041
G1 X15.085 Y.531 Z2.498 B-2.273 C3330.632 E.056
G1 X15.098 Y.367 Z2.5 B-2.271 C3334.527 E.029
G1 X15.1 Y.296 Z2.502 B-2.266 C3340.267 E.048
G1 X15.103 Y.229 Z2.503 B-2.263 C3345.218 E.041
G1 X15.102 Y.251 Z2.505 B-2.259 C3350.141 E.044
G1 Y.269 Z2.507 B-2.255 C3355.079 E.044
G1 X15.099 Y.357 Z2.508 B-2.251 C3359.181 E.039
G1 X15.098 Y.337 Z2.51 B-2.247 C3364.11 E.043
G1 X15.1 Y.369 Z2.512 B-2.243 C3369.046 E.045
G1 Y.298 Z2.514 B-2.239 C3374.789 E.048
G1 X15.103 Y.229 Z2.515 B-2.235 C3379.741 E.041
G1 X15.102 Y.251 Z2.517 B-2.231 C3384.665 E.044
G1 Y.27 Z2.519 B-2.227 C3389.601 E.044
G1 X15.1 Y.36 Z2.52 B-2.224 C3393.701 E.039
G1 X15.099 Y.339 Z2.522 B-2.22 C3398.631 E.043
G1 X15.1 Y.372 Z2.523 B-2.216 C3403.565 E.045
G1 X15.093 Y.344 Z2.525 B-2.213 C3407.671 E.035
G1 X15.095 Y.345 Z2.526 B-2.208 C3412.781 E.045
G1 X15.101 Y.285 Z2.529 B-2.203 C3419.28 E.055
G1 X15.103 Y.272 Z2.53 B-2.2 C3424.122 E.042
G1 X15.1 Y.362 Z2.532 B-2.196 C3428.222 E.039
G1 Y.341 Z2.534 B-2.192 C3433.15 E.043
G1 X15.101 Y.374 Z2.535 B-2.188 C3438.085 E.045
G1 X15.094 Y.346 Z2.536 B-2.185 C3442.192 E.035
G1 X15.102 Y.366 Z2.539 B-2.18 C3448.028 E.052
G1 X15.101 Y.352 Z2.54 B-2.176 C3452.878 E.042
G1 X15.1 Y.331 Z2.542 B-2.173 C3457.81 E.043
G1 X15.101 Y.365 Z2.544 B-2.169 C3462.741 E.045
G1 X15.094 Y.336 Z2.545 B-2.165 C3466.849 E.035
G1 X15.101 Y.35 Z2.547 B-2.161 C3472.656 E.052
G1 X15.104 Y.248 Z2.549 B-2.156 C3478.37 E.047
G1 Y.264 Z2.551 B-2.153 C3483.304 E.044
G1 X15.1 Y.355 Z2.552 B-2.149 C3487.398 E.039
G1 Y.333 Z2.554 B-2.145 C3492.329 E.043
G1 X15.102 Y.367 Z2.556 B-2.141 C3497.261 E.045
G1 X15.103 Y.293 Z2.558 B-2.137 C3503.014 E.048
G1 X15.096 Y.237 Z2.559 B-2.132 C3509.058 E.051
G1 X15.098 Y.235 Z2.561 B-2.128 C3513.827 E.042
G1 X15.097 Y.283 Z2.563 B-2.124 C3518.645 E.044
G1 X15.096 Y.341 Z2.564 B-2.12 C3523.209 E.042
G1 X15.097 Y.34 Z2.566 B-2.117 C3528.177 E.044
G1 X15.096 Y.344 Z2.568 B-2.113 C3533.11 E.044
G1 X15.098 Y.256 Z2.57 B-2.109 C3538.424 E.044
G1 Y.209 Z2.571 B-2.105 C3543.503 E.043
G1 X15.099 Y.204 Z2.573 B-2.101 C3548.471 E.044
G1 X15.098 Y.26 Z2.575 B-2.097 C3553.263 E.044
G1 X15.097 Y.324 Z2.576 B-2.093 C3557.806 E.042
G1 Y.327 Z2.578 B-2.089 C3562.758 E.044
G1 Y.321 Z2.58 B-2.085 C3567.729 E.044
G1 Y.236 Z2.581 B-2.081 C3573.032 E.044
G1 X15.099 Y.181 Z2.583 B-2.077 C3578.137 E.043
G1 X15.1 Y.171 Z2.585 B-2.073 C3583.122 E.044
G1 X15.096 Y.162 Z2.587 B-2.069 C3589.082 E.052
G1 X15.099 Y.009 Z2.588 B-2.065 C3593.955 E.038
G1 X15.106 Y-.027 Z2.59 B-2.061 C3598.938 E.043
G1 X15.097 Y.15 Z2.592 B-2.057 C3603.748 E.048
G1 X15.103 Y.305 Z2.593 B-2.055 C3605.828 E.024
G1 X15.105 Y.286 Z2.595 B-2.051 C3610.927 E.044
G1 X15.103 Y.291 Z2.596 B-2.047 C3615.689 E.042
G1 X15.105 Y.311 Z2.598 B-2.042 C3621.234 E.05
G1 X15.104 Y.28 Z2.6 B-2.039 C3625.646 E.038
G1 X15.105 Y.298 Z2.602 B-2.035 C3631.196 E.05
G1 Y.267 Z2.603 B-2.031 C3635.613 E.038
G1 Y.268 Z2.605 B-2.027 C3640.5 E.043
G1 X15.108 Y.162 Z2.607 B-2.023 C3645.928 E.044
G1 X15.105 Y.269 Z2.608 B-2.019 C3650.301 E.042
G1 X15.106 Y.301 Z2.61 B-2.015 C3655.803 E.05
G1 X15.104 Y.253 Z2.612 B-2.012 C3660.278 E.038
G1 X15.109 Y.218 Z2.614 B-2.007 C3665.669 E.046
G1 Y.12 Z2.615 B-2.004 C3670.813 E.042
G1 Y.082 Z2.617 B-2. C3676.019 E.045
G1 Y.138 Z2.619 B-1.996 C3680.552 E.042
G1 X15.107 Y.282 Z2.62 B-1.991 C3685.349 E.047
G1 X15.098 Y.281 Z2.622 B-1.987 C3691.609 E.055
G1 X15.101 Y.235 Z2.624 B-1.983 C3696.262 E.039
G1 X15.103 Y.163 Z2.626 B-1.979 C3701.515 E.044
G1 Y.084 Z2.627 B-1.975 C3706.717 E.043
G1 X15.104 Y.053 Z2.629 B-1.971 C3711.784 E.044
G1 X15.103 Y.144 Z2.631 B-1.967 C3716.439 E.044
G1 X15.104 Y.217 Z2.632 B-1.965 C3719.241 E.027
G1 X15.108 Y.273 Z2.634 B-1.96 C3724.97 E.052
G1 Y.194 Z2.635 B-1.957 C3729.569 E.038
G1 X15.111 Y.168 Z2.637 B-1.952 C3734.922 E.046
G1 X15.108 Y.065 Z2.639 B-1.949 C3740.087 E.042
G1 X15.111 Y.002 Z2.641 B-1.945 C3745.368 E.044
G1 Y.081 Z2.642 B-1.941 C3749.833 E.042
G1 X15.108 Y.194 Z2.644 B-1.937 C3754.185 E.042
G1 X15.109 Y.256 Z2.646 B-1.932 C3759.567 E.05
G1 Y.161 Z2.647 B-1.929 C3764.224 E.038
G1 X15.104 Y.201 Z2.649 B-1.924 C3770.418 E.056
G1 X15.11 Y.126 Z2.651 B-1.921 C3774.276 E.031
G1 X15.109 Y.179 Z2.652 B-1.917 C3778.963 E.043
G1 X15.111 Y.051 Z2.654 B-1.913 C3784.48 E.044
G1 X15.109 Y.165 Z2.656 B-1.909 C3788.825 E.042
G1 X15.11 Y.236 Z2.658 B-1.905 C3794.172 E.05
G1 X15.111 Y.127 Z2.659 B-1.902 C3798.886 E.038
G1 X15.105 Y.172 Z2.661 B-1.896 C3805.059 E.056
G1 X15.112 Y.086 Z2.663 B-1.894 C3808.958 E.032
G1 X15.109 Y.174 Z2.664 B-1.89 C3813.403 E.042
G1 Y.264 Z2.666 B-1.885 C3818.682 E.05
G1 X15.111 Y.134 Z2.668 B-1.882 C3823.473 E.038
G1 X15.113 Y.138 Z2.67 B-1.878 C3828.712 E.046
G1 X15.112 Y.039 Z2.671 B-1.874 C3833.861 E.042
G1 X15.113 Y-.079 Z2.673 B-1.87 C3839.375 E.045
G1 Y.034 Z2.675 B-1.866 C3843.687 E.042
G1 X15.111 Y.163 Z2.676 B-1.862 C3848.667 E.048
G1 Y.246 Z2.678 B-1.858 C3853.279 E.043
G1 X15.112 Y.101 Z2.68 B-1.854 C3858.129 E.038
G1 X15.114 Y.104 Z2.681 B-1.85 C3863.372 E.046
G1 X15.105 Y-.04 Z2.683 B-1.845 C3870.118 E.055
G1 Y-.076 Z2.685 B-1.841 C3875.316 E.045
G1 X15.113 Y.013 Z2.686 B-1.839 C3878.299 E.029
G1 X15.111 Y.133 Z2.688 B-1.835 C3882.622 E.042
G1 X15.112 Y.236 Z2.69 B-1.83 C3887.878 E.05
G1 X15.113 Y.099 Z2.691 B-1.827 C3892.665 E.038
G1 X15.115 Y.108 Z2.693 B-1.823 C3897.886 E.046
G1 X15.105 Y-.018 Z2.695 B-1.818 C3904.679 E.056
G1 X15.114 Y-.083 Z2.697 B-1.815 C3908.43 E.031
G1 Y.035 Z2.698 B-1.811 C3912.743 E.042
G1 X15.112 Y.144 Z2.7 B-1.807 C3917.109 E.042
G1 Y.236 Z2.702 B-1.803 C3922.408 E.05
G1 X15.113 Y.115 Z2.703 B-1.799 C3927.136 E.038
G1 X15.116 Y.122 Z2.705 B-1.795 C3932.366 E.046
G1 X15.114 Y.033 Z2.707 B-1.791 C3937.476 E.042
G1 X15.115 Y-.067 Z2.709 B-1.787 C3942.891 E.044
G1 X15.107 Y.053 Z2.711 B-1.782 C3948.801 E.056
G1 X15.104 Y-.005 Z2.713 B-1.777 C3955.388 E.056
G1 X15.114 Y-.057 Z2.715 B-1.773 C3960.678 E.045
G1 X15.112 Y.217 Z2.717 B-1.768 C3966.167 E.057
G1 X15.115 Y.108 Z2.719 B-1.764 C3971.608 E.044
G1 X15.113 Y.194 Z2.72 B-1.76 C3976.062 E.042
G1 X15.114 Y.276 Z2.722 B-1.756 C3981.397 E.05
G1 Y.171 Z2.724 B-1.752 C3986.065 E.038
G1 Y.242 Z2.726 B-1.748 C3991.447 E.05
G1 X15.115 Y.151 Z2.727 B-1.744 C3996.059 E.038
G1 X15.108 Y.196 Z2.729 B-1.739 C4002.302 E.056
G1 X15.116 Y.131 Z2.731 B-1.736 C4006.05 E.031
G1 X15.114 Y.206 Z2.732 B-1.733 C4010.548 E.042
G1 Y.277 Z2.734 B-1.728 C4015.927 E.05
G1 X15.113 Y.187 Z2.735 B-1.725 C4020.535 E.038
G1 X15.117 Y.199 Z2.737 B-1.721 C4025.743 E.046
G1 X15.107 Y.117 Z2.739 B-1.716 C4032.373 E.056
G1 X15.117 Y.072 Z2.741 B-1.713 C4036.06 E.031
G1 X15.116 Y.156 Z2.742 B-1.709 C4040.488 E.042
G1 X15.118 Y.105 Z2.744 B-1.705 C4046.031 E.047
G1 X15.109 Y.062 Z2.746 B-1.7 C4052.522 E.056
G1 X15.115 Y.205 Z2.747 B-1.697 C4054.997 E.027
G1 X15.118 Y.215 Z2.749 B-1.693 C4060.213 E.046
G1 X15.109 Y.145 Z2.751 B-1.688 C4066.794 E.056
G1 X15.118 Y.106 Z2.753 B-1.685 C4070.448 E.031
G1 X15.117 Y.179 Z2.754 B-1.681 C4074.928 E.042
G1 X15.115 Y.233 Z2.756 B-1.678 C4079.502 E.042
G1 X15.116 Y.283 Z2.758 B-1.673 C4084.963 E.05
G1 Y.223 Z2.759 B-1.67 C4089.456 E.038
G1 X15.118 Y.232 Z2.761 B-1.666 C4094.677 E.046
G1 X15.108 Y.174 Z2.763 B-1.661 C4101.209 E.056
G1 X15.119 Y.142 Z2.765 B-1.658 C4104.832 E.031
G1 X15.118 Y.207 Z2.766 B-1.654 C4109.353 E.042
G1 X15.116 Y.249 Z2.768 B-1.65 C4113.972 E.042
G1 X15.117 Y.289 Z2.77 B-1.646 C4119.471 E.05
G1 Y.244 Z2.771 B-1.642 C4123.908 E.038
G1 X15.111 Y.27 Z2.773 B-1.637 C4130.221 E.057
G1 X15.118 Y.242 Z2.775 B-1.634 C4133.832 E.031
G1 X15.111 Y.253 Z2.777 B-1.629 C4140.204 E.057
G1 X15.118 Y.221 Z2.778 B-1.626 C4143.827 E.031
G1 X15.117 Y.267 Z2.78 B-1.623 C4148.434 E.042
G1 Y.296 Z2.782 B-1.618 C4153.971 E.05
G1 Y.266 Z2.783 B-1.615 C4158.354 E.038
G1 X15.111 Y.284 Z2.785 B-1.61 C4164.698 E.057
G1 X15.118 Y.264 Z2.786 B-1.607 C4168.278 E.031
G1 X15.116 Y.285 Z2.788 B-1.603 C4172.978 E.042
G1 X15.117 Y.311 Z2.79 B-1.599 C4178.528 E.05
G1 Y.286 Z2.791 B-1.595 C4182.891 E.038
G1 X15.12 Y.297 Z2.793 B-1.591 C4188.101 E.046
G1 X15.109 Y.272 Z2.795 B-1.586 C4194.516 E.056
G1 X15.119 Y.254 Z2.797 B-1.583 C4198.1 E.031
G1 Y.291 Z2.798 B-1.579 C4202.703 E.042
G1 X15.118 Y.304 Z2.8 B-1.575 C4208.151 E.048
G1 X15.119 Y.317 Z2.802 B-1.571 C4213.035 E.044
G1 X15.118 Y.306 Z2.803 B-1.568 C4217.343 E.038
G1 X15.12 Y.317 Z2.805 B-1.563 C4222.557 E.046
G1 X15.11 Y.303 Z2.807 B-1.558 C4228.806 E.055
G1 X15.109 Y.3 Z2.809 B-1.554 C4234.73 E.052
G1 Y.309 Z2.811 B-1.55 C4239.436 E.042
G1 X15.108 Y.312 Z2.812 B-1.546 C4244.18 E.042
G1 X15.109 Z2.814 B-1.542 C4249.22 E.044
G1 Y.31 Z2.816 B-1.538 C4254.114 E.043
G1 X15.11 Y.311 Z2.817 B-1.534 C4259.148 E.044
G1 X15.121 Y.308 Z2.819 B-1.532 C4262.085 E.026
G1 Y.292 Z2.821 B-1.528 C4267.256 E.045
G1 Y.307 Z2.822 B-1.524 C4271.931 E.042
G1 Y.3 Z2.824 B-1.52 C4276.72 E.042
G1 X15.12 Y.304 Z2.825 B-1.516 C4281.54 E.043
G1 X15.121 Y.302 Z2.827 B-1.512 C4286.637 E.045
G1 Y.303 Z2.829 B-1.509 C4291.468 E.043
G1 Y.296 Z2.831 B-1.505 C4296.58 E.045
G1 X15.113 Y.207 Z2.833 B-1.499 C4303.63 E.059
G1 X15.115 Y.134 Z2.835 B-1.494 C4310.535 E.058
G1 X15.114 Y.114 Z2.837 B-1.49 C4315.548 E.044
G1 X15.124 Y.002 Z2.838 B-1.487 C4320.258 E.038
G1 X15.122 Y.294 Z2.841 B-1.481 C4326.033 E.061
G1 X15.123 Y.296 Z2.842 B-1.477 C4331.112 E.045
G1 X15.122 Y.286 Z2.844 B-1.473 C4335.946 E.042
G1 X15.121 Y.292 Z2.846 B-1.469 C4341.473 E.049
G1 X15.123 Y.285 Z2.847 B-1.465 C4345.84 E.038
G1 X15.116 Y.282 Z2.849 B-1.462 C4349.94 E.036
G1 X15.123 Y.29 Z2.851 B-1.457 C4355.745 E.051
G1 Y.286 Z2.853 B-1.454 C4360.595 E.043
G1 X15.124 Y.292 Z2.854 B-1.449 C4365.656 E.045
G1 Y.279 Z2.856 B-1.446 C4370.504 E.042
G1 X15.116 Y.285 Z2.857 B-1.442 C4374.534 E.036
G1 X15.124 Y.278 Z2.859 B-1.438 C4380.397 E.051
G1 X15.117 Y.271 Z2.861 B-1.435 C4384.51 E.036
G1 X15.124 Y.298 Z2.863 B-1.43 C4390.324 E.052
G1 Y.306 Z2.865 B-1.426 C4395.416 E.045
G1 X15.125 Y.296 Z2.866 B-1.422 C4400.205 E.042
G1 X15.124 Y.251 Z2.868 B-1.418 C4404.896 E.04
G1 X15.117 Y.266 Z2.87 B-1.413 C4411.537 E.059
G1 X15.115 Y.263 Z2.872 B-1.409 C4417.029 E.048
G1 Y.279 Z2.873 B-1.405 C4422.008 E.044
G1 X15.126 Y.297 Z2.875 B-1.402 C4424.861 E.026
G1 X15.125 Y.309 Z2.876 B-1.398 C4429.927 E.045
G1 X15.126 Y.286 Z2.878 B-1.394 C4434.744 E.042
G1 X15.121 Y.262 Z2.879 B-1.391 C4438.922 E.036
G1 X15.119 Y.246 Z2.881 B-1.387 C4443.747 E.042
G1 X15.126 Y.266 Z2.883 B-1.383 C4449.506 E.051
G1 X15.12 Y.252 Z2.884 B-1.38 C4453.645 E.036
G1 X15.125 Y.295 Z2.886 B-1.375 C4459.396 E.052
G1 X15.126 Y.313 Z2.888 B-1.371 C4464.435 E.045
G1 X15.127 Y.284 Z2.89 B-1.367 C4469.283 E.042
G1 Y.251 Z2.892 B-1.363 C4474.172 E.042
G1 X15.12 Y.236 Z2.893 B-1.36 C4478.318 E.036
G1 X15.128 Y.261 Z2.895 B-1.355 C4484.057 E.051
G1 X15.127 Y.25 Z2.897 B-1.351 C4488.933 E.043
G1 X15.123 Y.277 Z2.898 B-1.348 C4493.237 E.039
G1 X15.128 Y.259 Z2.9 B-1.344 C4498.823 E.049
G1 Y.278 Z2.902 B-1.339 C4503.838 E.045
G1 X15.123 Y.25 Z2.903 B-1.336 C4508.028 E.036
G1 X15.122 Y.226 Z2.905 B-1.332 C4512.887 E.042
G1 X15.124 Y.262 Z2.906 B-1.328 C4517.905 E.045
G1 X15.128 Y.243 Z2.909 B-1.324 C4523.492 E.049
G1 X15.124 Y.274 Z2.91 B-1.32 C4527.782 E.039
G1 X15.129 Y.239 Z2.912 B-1.316 C4533.391 E.048
G1 X15.121 Y.242 Z2.913 B-1.313 C4537.438 E.036
G1 X15.13 Y.239 Z2.915 B-1.308 C4543.281 E.051
G1 X15.123 Y.217 Z2.917 B-1.305 C4547.452 E.036
G1 X15.13 Y.285 Z2.919 B-1.3 C4553.113 E.052
G1 X15.129 Y.321 Z2.921 B-1.296 C4558.097 E.045
G1 X15.13 Y.266 Z2.922 B-1.292 C4563.025 E.042
G1 X15.129 Y.233 Z2.924 B-1.289 C4567.943 E.042
G1 X15.123 Y.235 Z2.925 B-1.285 C4571.994 E.036
G1 X15.131 Y.234 Z2.927 B-1.281 C4577.832 E.051
G1 X15.124 Y.209 Z2.928 B-1.277 C4582.016 E.036
G1 X15.13 Y.287 Z2.931 B-1.272 C4587.868 E.054
G1 X15.121 Y.303 B-1.272 C4588.807 E.009
G1 X15.124 Y.312 Z2.933 B-1.268 C4593.451 E.041
G1 X15.127 Y.257 Z2.934 B-1.264 C4598.374 E.042
G1 X15.128 Y.214 Z2.936 B-1.26 C4603.279 E.042
G1 X15.13 Y.218 Z2.938 B-1.257 C4608.149 E.043
G1 X15.128 Y.232 Z2.939 B-1.253 C4613.143 E.044
G1 X15.129 Y.235 Z2.941 B-1.249 C4618.015 E.043
G1 X15.123 Y.288 Z2.943 B-1.244 C4623.255 E.048
G1 X15.125 Y.298 Z2.944 B-1.24 C4628.031 E.042
G1 X15.128 Y.258 Z2.946 B-1.237 C4632.904 E.042
G1 X15.129 Y.226 Z2.948 B-1.233 C4637.768 E.042
G1 X15.13 Y.231 Z2.949 B-1.229 C4642.633 E.043
G1 X15.129 Y.241 Z2.951 B-1.225 C4647.643 E.044
G1 X15.128 Y.244 Z2.953 B-1.221 C4652.511 E.043
G1 X15.125 Y.278 Z2.955 B-1.217 C4657.824 E.048
G1 X15.127 Y.283 Z2.956 B-1.213 C4662.614 E.042
G1 X15.129 Y.258 Z2.958 B-1.209 C4667.439 E.042
G1 X15.134 Y.121 Z2.96 B-1.206 C4672.38 E.039
G1 X15.135 Y.099 Z2.961 B-1.202 C4677.586 E.045
G1 X15.126 Y.12 Z2.963 B-1.197 C4683.51 E.053
G1 X15.134 Y.248 Z2.965 B-1.194 C4686.299 E.029
G1 X15.135 Y.254 Z2.966 B-1.19 C4691.397 E.045
G1 Y.248 Z2.968 B-1.186 C4696.188 E.042
G1 X15.134 Y.264 Z2.97 B-1.182 C4700.91 E.042
G1 X15.135 Y.248 Z2.971 B-1.178 C4706.089 E.045
G1 Y.25 Z2.973 B-1.175 C4710.892 E.042
G1 Y.257 Z2.975 B-1.171 C4715.986 E.045
G1 Z2.976 B-1.167 C4720.798 E.042
G1 X15.132 Y.255 Z2.978 B-1.163 C4725.27 E.039
G1 X15.136 Y.257 Z2.98 B-1.159 C4730.687 E.048
G1 X15.135 Y.275 Z2.981 B-1.155 C4735.4 E.042
G1 X15.136 Y.256 Z2.983 B-1.151 C4740.593 E.045
G1 Y.261 Z2.985 B-1.147 C4745.385 E.042
G1 Y.231 Z2.986 B-1.143 C4750.318 E.043
G1 X15.134 Y.241 Z2.988 B-1.139 C4755.173 E.043
G1 X15.137 Y.261 Z2.99 B-1.135 C4760.467 E.047
G1 Y.232 Z2.992 B-1.131 C4765.206 E.041
G1 X15.129 Y.229 Z2.994 B-1.126 C4771.689 E.057
G1 X15.126 Y.263 Z2.996 B-1.122 C4777.074 E.049
G1 X15.137 Y.271 Z2.997 B-1.12 C4779.881 E.025
G1 X15.138 Y.22 Z2.998 B-1.116 C4784.894 E.043
G1 X15.135 Z3. B-1.112 C4789.775 E.043
G1 Y.242 Z3.002 B-1.108 C4794.386 E.041
G1 X15.138 Y.266 Z3.004 B-1.104 C4799.69 E.048
G1 X15.137 Y.281 Z3.005 B-1.1 C4804.444 E.042
G1 X15.138 Y.268 Z3.007 B-1.096 C4809.613 E.045
G1 Y.279 Z3.009 B-1.092 C4814.38 E.042
G1 X15.135 Y.208 Z3.01 B-1.088 C4819.474 E.043
G1 X15.137 Y.198 Z3.012 B-1.084 C4824.38 E.043
G1 X15.136 Y.236 Z3.013 B-1.081 C4828.943 E.042
G1 X15.139 Y.273 Z3.015 B-1.076 C4834.195 E.048
G1 X15.138 Y.292 Z3.017 B-1.072 C4838.934 E.042
G1 X15.139 Y.273 Z3.019 B-1.068 C4844.129 E.045
G1 Y.289 Z3.02 B-1.065 C4848.877 E.042
G1 X15.136 Y.27 Z3.022 B-1.061 C4853.416 E.039
G1 X15.138 Y.25 Z3.024 B-1.057 C4858.586 E.045
G1 Y.206 Z3.025 B-1.053 C4863.593 E.043
G1 X15.14 Y.28 Z3.027 B-1.049 C4868.704 E.048
G1 X15.139 Y.302 Z3.029 B-1.045 C4873.429 E.042
G1 X15.137 Y.274 Z3.03 B-1.041 C4878.002 E.039
G1 X15.14 Y.292 Z3.032 B-1.037 C4883.398 E.048
G1 X15.138 Y.243 Z3.034 B-1.033 C4888.051 E.039
G1 X15.141 Y.293 Z3.036 B-1.029 C4893.287 E.048
G1 X15.139 Y.324 Z3.037 B-1.025 C4897.948 E.042
G1 X15.141 Y.286 Z3.039 B-1.021 C4903.215 E.045
G1 Y.309 Z3.041 B-1.017 C4907.935 E.042
G1 X15.135 Y.246 Z3.043 B-1.013 C4914.121 E.052
G1 X15.14 Y.201 Z3.044 B-1.01 C4918.065 E.033
G1 X15.139 Y.238 Z3.046 B-1.006 C4922.603 E.041
G1 X15.141 Y.299 Z3.048 B-1.002 C4927.798 E.048
G1 Y.332 Z3.049 B-.998 C4932.451 E.042
G1 X15.142 Y.29 Z3.051 B-.994 C4937.731 E.045
G1 Y.317 Z3.053 B-.99 C4942.439 E.042
G1 X15.135 Y.159 Z3.055 B-.985 C4949.358 E.056
G1 X15.139 Y.15 Z3.056 B-.981 C4953.973 E.04
G1 X15.14 Y.229 Z3.058 B-.977 C4958.388 E.042
G1 Y.291 Z3.06 B-.974 C4962.862 E.041
G1 X15.139 Y.296 Z3.061 B-.97 C4968.068 E.046
G1 X15.141 Y.268 Z3.063 B-.966 C4972.886 E.042
G1 X15.139 Y.262 Z3.065 B-.962 C4978.136 E.046
G1 X15.14 Y.114 Z3.066 B-.958 C4983.566 E.043
G1 X15.141 Y.107 Z3.068 B-.954 C4988.66 E.045
G1 X15.142 Y.187 Z3.07 B-.95 C4993.074 E.042
G1 Y.251 Z3.071 B-.946 C4997.538 E.041
G1 X15.14 Y.245 Z3.073 B-.942 C5002.787 E.046
G1 X15.143 Y.227 Z3.075 B-.938 C5007.567 E.042
G1 X15.139 Y.21 Z3.077 B-.934 C5012.855 E.046
G1 X15.142 Y.08 Z3.078 B-.93 C5018.208 E.043
G1 Y.066 Z3.08 B-.926 C5023.337 E.045
G1 X15.144 Y.144 Z3.082 B-.922 C5027.761 E.042
G1 X15.145 Y.127 Z3.083 B-.919 C5032.536 E.042
G1 X15.146 Y.135 Z3.085 B-.915 C5037.732 E.046
G1 Y.038 Z3.087 B-.911 C5042.81 E.042
G1 X15.143 Y.152 Z3.089 B-.907 C5047.599 E.046
G1 X15.145 Y.139 Z3.09 B-.903 C5052.372 E.042
G1 Y.196 Z3.092 B-.899 C5056.862 E.041
G1 Y.175 Z3.094 B-.895 C5062.17 E.046
G1 X15.146 Y.17 Z3.095 B-.891 C5066.898 E.042
G1 Y.152 Z3.097 B-.887 C5072.011 E.044
G1 X15.147 Y.143 Z3.099 B-.883 C5076.936 E.043
G1 X15.146 Y.11 Z3.1 B-.879 C5082.105 E.044
G1 X15.147 Y.096 Z3.102 B-.875 C5087.061 E.043
G1 Y.156 Z3.104 B-.872 C5091.541 E.041
G1 Y.123 Z3.105 B-.867 C5096.893 E.046
G1 X15.148 Y.129 Z3.107 B-.864 C5101.582 E.042
G1 Y.098 Z3.109 B-.86 C5106.742 E.044
G1 X15.145 Y-.055 Z3.111 B-.856 C5112.394 E.045
G1 X15.147 Y-.026 Z3.112 B-.852 C5117.33 E.045
G1 X15.148 Y.054 Z3.114 B-.848 C5121.747 E.042
G1 X15.14 Y-.075 Z3.116 B-.843 C5128.554 E.056
G1 X15.143 Y-.04 Z3.118 B-.839 C5132.967 E.04
G1 X15.152 Y.086 Z3.119 B-.837 C5135.668 E.028
G1 X15.15 Y.047 Z3.121 B-.832 C5141.459 E.05
G1 X15.148 Y-.102 Z3.122 B-.828 C5147.085 E.045
G1 Y-.073 Z3.124 B-.824 C5152.035 E.045
G1 X15.15 Y.001 Z3.126 B-.82 C5156.471 E.042
G1 X15.151 Y.075 Z3.127 B-.817 C5160.897 E.041
G1 Y.029 Z3.129 B-.813 C5166.156 E.045
G1 X15.15 Y.045 Z3.131 B-.809 C5170.947 E.043
G1 X15.151 Y-.005 Z3.133 B-.805 C5176.181 E.044
G1 X15.148 Y-.149 Z3.134 B-.801 C5181.774 E.045
G1 X15.149 Y-.121 Z3.136 B-.797 C5186.74 E.045
G1 X15.151 Y-.042 Z3.138 B-.793 C5191.161 E.042
G1 X15.152 Y.034 Z3.139 B-.789 C5195.579 E.041
G1 X15.153 Y-.013 Z3.141 B-.785 C5200.8 E.044
G1 Y.002 Z3.143 B-.781 C5205.634 E.043
G1 X15.152 Y-.056 Z3.144 B-.777 C5210.901 E.044
G1 X15.153 Y-.037 Z3.146 B-.773 C5215.731 E.043
G1 X15.151 Y-.114 Z3.148 B-.769 C5221.057 E.044
G1 X15.152 Y-.092 Z3.149 B-.765 C5225.873 E.043
G1 X15.154 Y-.008 Z3.151 B-.762 C5230.263 E.041
G1 Y-.064 Z3.153 B-.758 C5235.522 E.045
G1 Y-.041 Z3.155 B-.754 C5240.323 E.043
G1 X15.153 Y-.112 Z3.156 B-.75 C5245.637 E.045
G1 Y-.087 Z3.158 B-.746 C5250.444 E.043
G1 X15.155 Y-.017 Z3.16 B-.742 C5254.887 E.041
G1 X15.154 Y-.083 Z3.161 B-.738 C5260.224 E.045
G1 X15.155 Y-.05 Z3.163 B-.734 C5264.949 E.043
G1 Y-.117 Z3.165 B-.73 C5270.249 E.045
G1 X15.15 Y-.27 Z3.166 B-.726 C5275.902 E.045
G1 X15.152 Y-.197 Z3.168 B-.722 C5280.668 E.044
G1 X15.155 Y-.13 Z3.17 B-.718 C5285.134 E.042
G1 X15.156 Y-.058 Z3.171 B-.715 C5289.569 E.041
G1 Y-.136 Z3.173 B-.71 C5294.948 E.045
G1 Y-.093 Z3.175 B-.707 C5299.636 E.043
G1 Y-.17 Z3.177 B-.703 C5304.975 E.045
G1 X15.145 Y-.353 Z3.178 B-.698 C5311.315 E.05
G1 X15.148 Y-.23 Z3.18 B-.694 C5316.283 E.048
G1 X15.15 Y-.159 Z3.182 B-.69 C5320.719 E.041
G1 Y-.106 Z3.184 B-.686 C5325.186 E.041
G1 Y-.169 Z3.185 B-.682 C5330.701 E.046
G1 X15.151 Y-.131 Z3.187 B-.678 C5335.224 E.041
G1 X15.149 Y-.232 Z3.189 B-.674 C5340.883 E.047
G1 X15.145 Y-.326 Z3.19 B-.67 C5346.198 E.044
G1 X15.149 Y-.235 Z3.192 B-.666 C5350.839 E.044
G1 X15.151 Y-.172 Z3.194 B-.662 C5355.303 E.041
G1 X15.152 Y-.131 Z3.195 B-.659 C5359.818 E.041
G1 X15.15 Y-.18 Z3.197 B-.655 C5365.278 E.046
G1 X15.152 Y-.152 Z3.199 B-.651 C5369.841 E.041
G1 X15.149 Y-.233 Z3.201 B-.647 C5375.423 E.046
G1 X15.147 Y-.309 Z3.202 B-.643 C5380.654 E.044
G1 X15.15 Y-.226 Z3.204 B-.639 C5385.337 E.044
G1 X15.152 Y-.183 Z3.206 B-.635 C5389.881 E.041
G1 X15.153 Y-.134 Z3.207 B-.631 C5394.362 E.041
G1 X15.16 Y-.112 Z3.209 B-.627 C5399.513 E.046
G1 X15.152 Y-.075 Z3.211 B-.623 C5404.67 E.047
G1 Y-.165 Z3.213 B-.619 C5410.048 E.044
G1 X15.151 Y-.181 Z3.214 B-.615 C5415.091 E.044
G1 X15.153 Y-.16 Z3.216 B-.612 C5419.056 E.036
G1 X15.154 Y-.181 Z3.217 B-.607 C5424.41 E.046
G1 Y-.174 Z3.219 B-.604 C5429.055 E.041
G1 Y-.197 Z3.221 B-.6 C5434.413 E.046
G1 Y-.19 Z3.223 B-.596 C5439.057 E.041
G1 X15.153 Y-.211 Z3.224 B-.592 C5444.41 E.046
G1 X15.155 Y-.188 Z3.226 B-.588 C5449.028 E.041
G1 Y-.185 Z3.228 B-.584 C5453.688 E.041
G1 Y-.192 Z3.229 B-.58 C5458.986 E.046
G1 Y-.196 Z3.231 B-.576 C5463.67 E.041
G1 Y-.225 Z3.233 B-.572 C5469.052 E.046
G1 X15.151 Y-.282 Z3.235 B-.568 C5474.25 E.044
G1 X15.155 Y-.212 Z3.236 B-.564 C5478.949 E.044
G1 X15.156 Y-.2 Z3.238 B-.56 C5483.609 E.041
G1 Y-.205 Z3.239 B-.557 C5488.298 E.041
G1 Y-.116 Z3.241 B-.552 C5493.518 E.049
G1 X15.154 Y-.21 Z3.243 B-.548 C5499.577 E.05
G1 X15.155 Y-.236 Z3.245 B-.543 C5504.94 E.046
G1 X15.153 Y-.253 Z3.247 B-.539 C5509.998 E.044
G1 X15.155 Y-.214 Z3.248 B-.536 C5514.744 E.043
G1 X15.16 Y-.217 Z3.251 B-.531 C5520.715 E.053
G1 X15.159 Y-.219 Z3.252 B-.527 C5525.577 E.043
G1 X15.162 Y-.216 Z3.254 B-.523 C5530.653 E.045
G1 X15.16 Z3.256 B-.519 C5535.451 E.042
G1 X15.162 Y-.24 Z3.257 B-.515 C5540.785 E.046
G1 Y-.231 Z3.259 B-.511 C5545.781 E.044
G1 X15.163 Y-.217 Z3.261 B-.507 C5550.541 E.042
G1 X15.162 Y-.233 Z3.262 B-.503 C5555.311 E.042
G1 X15.16 Y-.227 Z3.264 B-.5 C5560.086 E.042
G1 X15.163 Y-.229 Z3.266 B-.495 C5565.235 E.045
G1 X15.162 Y-.226 Z3.267 B-.492 C5570.023 E.042
G1 X15.164 Y-.222 Z3.269 B-.487 C5575.157 E.045
G1 X15.163 Y-.219 Z3.271 B-.484 C5579.949 E.042
G1 X15.165 Y-.216 Z3.273 B-.48 C5585.073 E.045
G1 X15.163 Y-.248 Z3.274 B-.476 C5589.902 E.042
G1 X15.162 Y-.24 Z3.276 B-.472 C5594.673 E.042
G1 X15.165 Y-.239 Z3.278 B-.468 C5599.81 E.045
G1 X15.163 Y-.234 Z3.279 B-.464 C5604.587 E.042
G1 X15.166 Y-.227 Z3.281 B-.46 C5609.709 E.045
G1 X15.163 Y-.27 Z3.283 B-.456 C5614.582 E.042
G1 X15.162 Y-.263 Z3.284 B-.452 C5619.409 E.043
G1 X15.165 Y-.26 Z3.286 B-.448 C5624.484 E.045
G1 X15.163 Y-.252 Z3.288 B-.444 C5629.252 E.042
G1 X15.167 Y-.223 Z3.29 B-.44 C5634.405 E.046
G1 X15.166 Y-.211 Z3.291 B-.436 C5639.384 E.044
G1 X15.167 Y-.23 Z3.293 B-.432 C5644.255 E.042
G1 X15.161 Y-.316 Z3.295 B-.427 C5651.457 E.061
G1 X15.163 Y-.237 Z3.297 B-.423 C5656.426 E.046
G1 X15.162 Y-.303 Z3.299 B-.419 C5661.35 E.041
G1 X15.163 Y-.22 Z3.3 B-.415 C5666.302 E.046
G1 Y-.21 Z3.302 B-.411 C5670.773 E.04
G1 X15.167 Y-.201 Z3.304 B-.407 C5675.488 E.042
G1 X15.168 Y-.251 Z3.305 B-.404 C5680.371 E.041
G1 X15.162 Y-.319 Z3.307 B-.399 C5686.214 E.049
G1 X15.164 Y-.24 Z3.309 B-.395 C5690.979 E.045
G1 X15.163 Y-.296 Z3.311 B-.391 C5696.076 E.043
G1 X15.165 Y-.223 Z3.312 B-.387 C5700.858 E.045
G1 X15.163 Y-.215 Z3.314 B-.383 C5705.785 E.044
G1 X15.165 Y-.206 Z3.316 B-.379 C5710.739 E.044
G1 Y-.262 Z3.317 B-.376 C5715.66 E.042
G1 X15.163 Y-.308 Z3.319 B-.372 C5720.717 E.043
G1 X15.165 Y-.244 Z3.321 B-.368 C5725.535 E.045
G1 Y-.285 Z3.323 B-.364 C5730.579 E.043
G1 Y-.228 Z3.324 B-.36 C5735.42 E.045
G1 Y-.221 Z3.326 B-.356 C5740.335 E.044
G1 X15.166 Y-.213 Z3.328 B-.352 C5745.308 E.044
G1 X15.167 Y-.265 Z3.329 B-.348 C5750.216 E.042
G1 X15.165 Y-.301 Z3.331 B-.344 C5755.234 E.043
G1 X15.177 Y-.281 Z3.333 B-.34 C5761.098 E.052
G1 X15.178 Y.159 Z3.336 B-.334 C5766.807 E.065
G1 X15.177 Y-.21 Z3.337 B-.33 C5772.974 E.042
G1 X15.173 Y-.364 Z3.339 B-.326 C5778.283 E.042
G1 X15.172 Y-.278 Z3.341 B-.321 C5784.111 E.054
G1 X15.167 Y-.286 Z3.343 B-.317 C5789.721 E.049
G1 X15.169 Y-.251 Z3.345 B-.313 C5794.652 E.045
G1 X15.168 Y-.262 Z3.346 B-.309 C5799.582 E.043
G1 X15.169 Y-.243 Z3.348 B-.305 C5804.564 E.045
G1 Y-.287 Z3.35 B-.301 C5809.44 E.042
G1 X15.168 Y-.298 Z3.351 B-.297 C5814.363 E.043
G1 X15.17 Y-.27 Z3.353 B-.293 C5819.324 E.045
G1 X15.169 Y-.274 Z3.355 B-.289 C5824.223 E.043
G1 X15.17 Y-.258 Z3.356 B-.285 C5829.222 E.045
G1 X15.168 Y-.234 Z3.358 B-.281 C5834.108 E.044
G1 X15.17 Y-.246 Z3.36 B-.277 C5839.12 E.044
G1 X15.171 Y-.289 Z3.361 B-.274 C5843.995 E.042
G1 X15.178 Y-.29 Z3.363 B-.271 C5847.112 E.027
G1 X15.182 Y-.058 Z3.364 B-.267 C5851.585 E.047
G1 X15.179 Y-.237 Z3.366 B-.263 C5857.472 E.046
G1 X15.175 Y-.272 Z3.368 B-.258 C5863.126 E.049
G1 X15.181 Y-.249 Z3.369 B-.255 C5866.795 E.033
G1 X15.179 Y-.247 Z3.371 B-.251 C5871.553 E.042
G1 Y-.282 Z3.373 B-.248 C5876.475 E.042
G1 X15.18 Y-.284 Z3.374 B-.244 C5881.634 E.045
G1 X15.178 Y-.285 Z3.376 B-.24 C5886.314 E.041
G1 X15.182 Y-.263 Z3.378 B-.236 C5891.498 E.046
G1 X15.18 Y-.268 Z3.379 B-.232 C5896.203 E.041
G1 X15.179 Y-.254 Z3.381 B-.228 C5901.349 E.046
G1 X15.18 Z3.383 B-.224 C5906.119 E.042
G1 X15.181 Y-.289 Z3.384 B-.22 C5911.044 E.042
G1 X15.182 Y-.278 Z3.386 B-.216 C5916.154 E.045
G1 X15.18 Y-.284 Z3.388 B-.212 C5920.856 E.041
G1 X15.183 Y-.256 Z3.39 B-.208 C5926.019 E.046
G1 X15.182 Y-.268 Z3.391 B-.204 C5930.747 E.041
G1 X15.184 Y-.232 Z3.393 B-.2 C5935.894 E.047
G1 X15.183 Y-.251 Z3.395 B-.196 C5940.638 E.041
G1 X15.182 Y-.296 Z3.396 B-.193 C5945.619 E.042
G1 X15.184 Y-.271 Z3.398 B-.188 C5950.675 E.045
G1 X15.182 Y-.283 Z3.4 B-.185 C5955.399 E.041
G1 X15.185 Y-.25 Z3.402 B-.181 C5960.54 E.046
G1 X15.184 Y-.268 Z3.403 B-.177 C5965.292 E.041
G1 X15.183 Y-.311 Z3.405 B-.173 C5970.272 E.042
G1 X15.185 Y-.284 Z3.407 B-.169 C5975.323 E.045
G1 Y-.305 Z3.408 B-.165 C5980.806 E.048
G1 X15.178 Y-.245 Z3.411 B-.16 C5986.676 E.054
G1 X15.177 Y-.297 Z3.412 B-.156 C5992.145 E.046
G1 X15.175 Y-.259 Z3.414 B-.152 C5996.985 E.044
G1 X15.177 Y-.29 Z3.416 B-.148 C6002.063 E.044
G1 X15.178 Y-.319 Z3.417 B-.144 C6006.882 E.042
G1 X.973 Y-15.157 Z3.382 B-.011 C6006.882 E.043
G1 X1.935 Y-15.074 Z3.385 B-.02 C6006.882 E.032
G1 X3.521 Y-14.775 Z3.389 B-.033 C6006.882 E.054
G1 X4.864 Y-14.388 Z3.394 B-.043 C6006.882 E.047
G1 X5.956 Y-13.971 Z3.398 B-.051 C6006.882 E.039
G1 X7.447 Y-13.234 Z3.404 B-.061 C6006.882 E.055
G1 X8.503 Y-12.582 Z3.409 B-.067 C6006.882 E.041
G1 X9.127 Y-12.149 Z3.411 B-.07 C6006.882 E.025
G1 X10.204 Y-11.256 Z3.417 B-.075 C6006.882 E.047
G1 X11.088 Y-10.388 Z3.421 B-.078 C6006.882 E.041
G1 X11.995 Y-9.323 Z3.426 B-.081 C6006.882 E.047
G1 X12.682 Y-8.37 Z3.43 B-.083 C6006.882 E.039
G1 X13.424 Y-7.109 Z3.434 B-.083 C6006.882 E.049
G1 X13.961 Y-5.992 Z3.437 B-.083 C6006.882 E.041
G1 X14.403 Y-4.835 Z3.44 B-.082 C6006.882 E.041
G1 X14.785 Y-3.489 Z3.443 B-.08 C6006.882 E.047
G1 X15.022 Y-2.273 Z3.445 B-.077 C6006.882 E.041
G1 X15.163 Y-.881 Z3.447 B-.074 C6006.882 E.047
G1 X15.192 Y.29 Z3.449 B-.07 C6006.882 E.039
G1 X15.089 Y1.753 Z3.451 B-.065 C6006.882 E.049
G1 X14.899 Y2.978 Z3.452 B-.061 C6006.882 E.041
G1 X14.608 Y4.181 Z3.453 B-.056 C6006.882 E.041
G1 X14.162 Y5.506 Z3.454 B-.05 C6006.882 E.046
G1 X13.829 Y6.291 Z3.455 B-.047 C6006.882 E.028
G1 X13.135 Y7.64 Z3.456 B-.041 C6006.882 E.05
G1 X12.314 Y8.904 Z3.457 B-.034 C6006.882 E.05
G1 X11.316 Y10.129 Z3.459 B-.028 C6006.882 E.053
G1 X10.516 Y10.965 Z3.46 B-.023 C6006.882 E.039
G1 X9.398 Y11.931 Z3.462 B-.018 C6006.882 E.049
G1 X8.465 Y12.616 Z3.463 B-.014 C6006.882 E.039
G1 X7.198 Y13.375 Z3.465 B-.01 C6006.882 E.049
G1 X6.16 Y13.888 Z3.467 B-.007 C6006.882 E.039
G1 X5.004 Y14.347 Z3.469 B-.005 C6006.882 E.041
G1 X3.586 Y14.759 Z3.472 B-.002 C6006.882 E.049
G1 X2.452 Y14.995 Z3.475 B-.001 C6006.882 E.039
G1 X.983 Y15.158 Z3.478 B0. C5826.882 E.049
G1 X-.174 Y15.193 Z3.48 B0. C5826.882 E.039
G1 X-1.258 Y15.147 Z3.482 B0. C5826.882 E.036
G1 X-2.795 Y14.934 Z3.485 B-.002 C5646.882 E.052
G1 X-4.007 Y14.657 Z3.488 B-.004 C5646.882 E.041
G1 X-5.41 Y14.193 Z3.491 B-.006 C5646.882 E.049
G1 X-6.376 Y13.796 Z3.492 B-.009 C5646.882 E.035
G1 X-7.94 Y12.947 Z3.495 B-.014 C5646.882 E.059
G1 X-8.755 Y12.419 Z3.497 B-.017 C5646.882 E.032
G1 X-9.619 Y11.769 Z3.498 B-.021 C5646.882 E.036
G1 X-10.768 Y10.72 Z3.5 B-.026 C5646.882 E.052
G1 X-11.61 Y9.805 Z3.501 B-.031 C5646.882 E.041
G1 X-12.503 Y8.628 Z3.502 B-.037 C5646.882 E.049
G1 X-13.129 Y7.653 Z3.503 B-.042 C5646.882 E.039
G1 X-13.806 Y6.339 Z3.504 B-.048 C5646.882 E.049
G1 X-14.253 Y5.271 Z3.505 B-.053 C5646.882 E.039
G1 X-14.595 Y4.249 Z3.506 B-.057 C5646.882 E.036
G1 X-14.949 Y2.731 Z3.507 B-.063 C5646.882 E.052
G1 X-15.125 Y1.5 Z3.509 B-.067 C5646.882 E.041
G1 X-15.194 Y.024 Z3.51 B-.072 C5646.882 E.049
G1 X-15.157 Y-1.133 Z3.512 B-.075 C5646.882 E.039
G1 X-14.971 Y-2.599 Z3.514 B-.079 C5646.882 E.049
G1 X-14.733 Y-3.733 Z3.517 B-.081 C5646.882 E.039
G1 X-14.295 Y-5.15 Z3.52 B-.083 C5646.882 E.049
G1 X-13.867 Y-6.22 Z3.523 B-.083 C5646.882 E.038
G1 X-13.121 Y-7.659 Z3.527 B-.083 C5646.882 E.054
G1 X-12.731 Y-8.311 Z3.53 B-.082 C5646.882 E.025
G1 X-11.911 Y-9.445 Z3.534 B-.08 C5646.882 E.047
G1 X-10.863 Y-10.623 Z3.54 B-.076 C5646.882 E.052
G1 X-10.024 Y-11.422 Z3.544 B-.072 C5646.882 E.039
G1 X-8.747 Y-12.42 Z3.55 B-.066 C5646.882 E.054
G1 X-8.122 Y-12.85 Z3.553 B-.063 C5646.882 E.025
G1 X-6.904 Y-13.541 Z3.558 B-.055 C5646.882 E.047
G1 X-5.779 Y-14.06 Z3.562 B-.048 C5646.882 E.041
G1 X-4.459 Y-14.53 Z3.567 B-.037 C5646.882 E.047
G1 X-3.313 Y-14.834 Z3.571 B-.026 C5646.882 E.039
G1 X-1.784 Y-15.089 Z3.575 B-.015 C5646.882 E.052
G1 X15.198 Y-.044 Z3.541 B-.143 C5826.424 E.054
G1 X15.209 Y.029 Z3.542 B-.146 C5829.008 E.025
G1 X15.208 Y-.096 Z3.544 B-.15 C5834.763 E.047
G1 X15.2 Y-.034 Z3.546 B-.155 C5840.477 E.052
G1 X15.197 Y-.239 Z3.548 B-.159 C5847.256 E.053
G1 X15.195 Y-.382 Z3.549 B-.162 C5851.43 E.032
G1 X15.209 Y-.197 Z3.55 B-.165 C5854.38 E.032
G1 X15.21 Y-.083 Z3.552 B-.169 C5859.292 E.047
G1 X15.205 Y.012 Z3.554 B-.174 C5864.258 E.047
G1 X15.209 Y-.103 Z3.556 B-.177 C5869.323 E.041
G1 X15.211 Y-.017 Z3.557 B-.181 C5873.67 E.041
G1 X15.208 Y-.158 Z3.559 B-.185 C5879.484 E.047
G1 X15.207 Y-.349 Z3.561 B-.189 C5884.688 E.04
G1 X15.203 Y-.179 Z3.563 B-.194 C5890.134 E.054
G1 Y-.07 Z3.565 B-.198 C5895.135 E.048
G1 Y-.038 Z3.566 B-.202 C5899.646 E.041
G1 X15.206 Y-.114 Z3.568 B-.205 C5904.506 E.04
G1 X15.203 Y-.079 Z3.57 B-.21 C5909.761 E.048
G1 X15.204 Y-.195 Z3.571 B-.213 C5914.771 E.04
G1 X15.209 Y-.34 Z3.572 B-.216 C5919.181 E.034
G1 X15.205 Y-.203 Z3.575 B-.221 C5924.766 E.054
G1 X15.204 Y-.088 Z3.576 B-.226 C5929.744 E.048
G1 X15.205 Y-.044 Z3.578 B-.229 C5934.211 E.041
G1 X15.213 Y-.071 Z3.58 B-.234 C5939.64 E.047
G1 X15.206 Y-.059 Z3.582 B-.239 C5946.242 E.059
G1 X15.215 Y-.095 Z3.584 B-.244 C5953.001 E.058
G1 X15.205 Y-.066 Z3.587 B-.249 C5958.877 E.053
G1 X15.21 Y-.114 Z3.588 B-.253 C5963.628 E.04
G1 X15.206 Y-.096 Z3.59 B-.257 C5968.953 E.048
G1 X15.209 Y-.154 Z3.591 B-.26 C5973.74 E.04
G1 X15.207 Y-.123 Z3.593 B-.265 C5979.014 E.048
G1 X15.209 Y-.191 Z3.595 B-.268 C5983.841 E.04
G1 X15.208 Y-.097 Z3.597 B-.273 C5988.901 E.048
G1 X15.207 Y-.098 Z3.598 B-.276 C5993.54 E.041
G1 X15.211 Y-.136 Z3.6 B-.28 C5998.251 E.04
G1 X15.208 Y-.122 Z3.602 B-.284 C6003.589 E.048
G1 X15.211 Y-.196 Z3.603 B-.288 C6008.437 E.04
G1 X15.215 Y-.344 Z3.605 B-.291 C6012.892 E.034
G1 X15.211 Y-.19 Z3.607 B-.296 C6018.377 E.053
G1 X15.209 Y-.115 Z3.609 B-.3 C6023.509 E.048
G1 Y-.133 Z3.61 B-.304 C6028.211 E.041
G1 Y-.1 Z3.612 B-.308 C6033.559 E.048
G1 X15.208 Y-.161 Z3.614 B-.313 C6039.582 E.051
G1 Y-.258 Z3.616 B-.317 C6044.765 E.042
G1 X15.217 Y-.335 B-.319 C6047.383 E.021
G1 X15.214 Y-.212 Z3.618 B-.323 C6052.695 E.051
G1 X15.211 Y-.131 Z3.62 B-.328 C6058.113 E.05
G1 Y-.157 Z3.622 B-.331 C6062.845 E.041
G1 X15.215 Y-.175 Z3.624 B-.335 C6067.483 E.04
G1 X15.211 Y-.166 Z3.625 B-.339 C6072.841 E.048
G1 X15.214 Y-.215 Z3.627 B-.343 C6077.593 E.04
G1 X15.217 Y-.328 Z3.628 B-.346 C6081.88 E.034
G1 X15.216 Y-.229 Z3.63 B-.351 C6087.296 E.051
G1 X15.213 Y-.144 Z3.632 B-.355 C6092.702 E.05
G1 X15.212 Y-.182 Z3.634 B-.359 C6097.482 E.041
G1 X15.216 Y-.192 Z3.635 B-.363 C6102.088 E.04
G1 X15.213 Y-.185 Z3.637 B-.367 C6107.451 E.048
G1 X15.216 Y-.211 Z3.639 B-.371 C6112.12 E.04
G1 X15.214 Y-.179 Z3.641 B-.375 C6117.415 E.048
G1 X15.215 Y-.228 Z3.642 B-.378 C6122.141 E.04
G1 Y-.155 Z3.644 B-.383 C6127.283 E.048
G1 Y-.205 Z3.646 B-.386 C6132.109 E.041
G1 X15.218 Y-.207 Z3.647 B-.39 C6136.685 E.04
G1 X15.215 Y-.201 Z3.649 B-.394 C6142.051 E.048
G1 X15.218 Y-.221 Z3.651 B-.398 C6146.697 E.04
G1 X15.216 Y-.174 Z3.652 B-.402 C6151.937 E.048
G1 X15.215 Y-.233 Z3.654 B-.406 C6156.798 E.041
G1 X15.219 Y-.209 Z3.656 B-.41 C6161.272 E.04
G1 X15.216 Y-.226 Z3.658 B-.414 C6166.727 E.048
G1 X15.22 Z3.659 B-.418 C6171.294 E.04
G1 X15.224 Y-.328 Z3.66 B-.421 C6175.579 E.034
G1 X15.221 Y-.236 Z3.662 B-.425 C6180.987 E.051
G1 X15.218 Y-.187 Z3.664 B-.43 C6186.526 E.05
G1 X15.217 Y-.258 Z3.666 B-.434 C6191.434 E.041
G1 X15.222 Y-.226 Z3.667 B-.437 C6195.876 E.04
G1 X15.218 Y-.244 Z3.669 B-.442 C6201.337 E.048
G1 X15.221 Y-.233 Z3.671 B-.445 C6205.861 E.04
G1 X15.217 Y-.294 Z3.673 B-.449 C6211.091 E.044
G1 X15.221 Y-.246 Z3.674 B-.453 C6215.872 E.044
G1 X15.219 Y-.22 Z3.677 B-.459 C6222.676 E.061
G1 X15.227 Y-.245 Z3.679 B-.464 C6228.967 E.055
G1 X15.229 Y-.242 Z3.681 B-.468 C6234.163 E.046
G1 X15.228 Y-.236 Z3.682 B-.471 C6238.892 E.042
G1 Y-.294 Z3.684 B-.475 C6243.961 E.043
G1 X15.229 Y-.238 Z3.686 B-.479 C6248.903 E.045
G1 X15.231 Y-.208 Z3.687 B-.484 C6253.98 E.046
G1 X15.221 Y-.271 Z3.69 B-.489 C6260.561 E.056
G1 X15.222 Y-.229 Z3.691 B-.493 C6265.573 E.046
G1 Y-.248 Z3.693 B-.497 C6270.429 E.042
G1 Y-.234 Z3.695 B-.501 C6275.557 E.046
G1 X15.221 Y-.23 Z3.697 B-.505 C6280.434 E.043
G1 X15.224 Y-.253 Z3.698 B-.508 C6285.161 E.041
G1 Y-.194 Z3.7 B-.512 C6290.169 E.046
G1 X15.223 Y-.272 Z3.701 B-.516 C6295.103 E.041
G1 X15.234 Y-.255 Z3.703 B-.521 C6300.973 E.052
G1 X15.236 Y.141 Z3.706 B-.527 C6306.817 E.065
G1 X15.235 Y-.147 Z3.708 B-.531 C6312.793 E.043
G1 X15.223 Y-.295 Z3.71 B-.536 C6319.767 E.057
G1 X15.226 Y-.23 Z3.712 B-.54 C6324.692 E.046
G1 X15.225 Y-.271 Z3.713 B-.544 C6329.634 E.042
G1 X15.226 Y-.22 Z3.715 B-.548 C6334.616 E.046
G1 Y-.247 Z3.717 B-.552 C6339.501 E.042
G1 X15.227 Y-.207 Z3.718 B-.556 C6344.532 E.046
G1 Y-.218 Z3.72 B-.56 C6349.375 E.042
G1 X15.225 Y-.294 Z3.722 B-.563 C6354.304 E.041
G1 X15.228 Y-.227 Z3.723 B-.567 C6359.218 E.046
G1 X15.227 Y-.27 Z3.725 B-.571 C6364.17 E.042
G1 X15.228 Y-.222 Z3.727 B-.575 C6369.164 E.046
G1 X15.226 Y-.217 Z3.729 B-.579 C6374.087 E.044
G1 X15.229 Y-.205 Z3.73 B-.583 C6379.06 E.044
G1 Y-.217 Z3.732 B-.587 C6383.912 E.042
G1 X15.228 Y-.29 Z3.734 B-.591 C6388.826 E.041
G1 X15.23 Y-.152 Z3.735 B-.595 C6393.627 E.047
G1 X15.228 Y-.251 Z3.737 B-.6 C6400.159 E.054
G1 X15.23 Y-.228 Z3.739 B-.604 C6405.082 E.044
G1 X15.228 Y-.208 Z3.741 B-.608 C6410.045 E.044
G1 X15.24 Y-.209 Z3.743 B-.613 C6416.714 E.059
G1 X15.23 Y-.294 Z3.745 B-.618 C6423.379 E.056
G1 X15.232 Y-.218 Z3.747 B-.622 C6428.259 E.046
G1 X15.23 Y-.27 Z3.749 B-.626 C6433.244 E.042
G1 X15.233 Y-.205 Z3.75 B-.63 C6438.175 E.046
G1 X15.23 Y-.206 Z3.752 B-.634 C6443.084 E.043
G1 X15.233 Y-.26 Z3.754 B-.638 C6447.921 E.041
G1 X15.234 Y-.217 Z3.756 B-.642 C6452.987 E.046
G1 X15.232 Y-.294 Z3.757 B-.646 C6457.915 E.041
G1 X15.235 Y-.212 Z3.759 B-.65 C6462.775 E.046
G1 X15.233 Y-.269 Z3.761 B-.654 C6467.78 E.042
G1 X15.235 Y-.191 Z3.762 B-.658 C6472.66 E.046
G1 Y-.239 Z3.764 B-.662 C6477.652 E.042
G1 X15.236 Y-.255 Z3.766 B-.665 C6482.439 E.042
G1 Y-.216 Z3.767 B-.67 C6487.522 E.046
G1 X15.235 Y-.293 Z3.769 B-.673 C6492.451 E.041
G1 X15.237 Y-.205 Z3.771 B-.677 C6497.288 E.046
G1 X15.236 Y-.268 Z3.772 B-.681 C6502.315 E.042
G1 X15.237 Y-.181 Z3.774 B-.685 C6507.163 E.046
G1 Y-.241 Z3.776 B-.689 C6512.194 E.042
G1 X15.235 Y-.317 Z3.778 B-.693 C6517.122 E.041
G1 X15.238 Y-.221 Z3.779 B-.697 C6521.926 E.046
G1 X15.236 Y-.293 Z3.781 B-.701 C6526.986 E.042
G1 X15.239 Y-.198 Z3.783 B-.705 C6531.804 E.046
G1 X15.236 Y-.192 Z3.784 B-.709 C6536.732 E.044
G1 X15.239 Y-.172 Z3.786 B-.713 C6541.666 E.044
G1 Y-.24 Z3.788 B-.717 C6546.731 E.042
G1 X15.237 Y-.317 Z3.789 B-.72 C6551.659 E.041
G1 X15.24 Y-.215 Z3.791 B-.724 C6556.441 E.046
G1 X15.239 Y-.292 Z3.793 B-.728 C6561.522 E.042
G1 X15.241 Y-.188 Z3.794 B-.732 C6566.304 E.046
G1 Y-.187 Z3.796 B-.736 C6570.684 E.039
G1 X15.245 Y-.166 Z3.797 B-.74 C6575.318 E.042
G1 X15.247 Y-.22 Z3.799 B-.743 C6580.153 E.041
G1 Y-.294 Z3.801 B-.747 C6585.059 E.041
G1 Y-.225 Z3.802 B-.751 C6590.139 E.047
G1 X15.248 Y-.265 Z3.804 B-.755 C6594.915 E.041
G1 X15.247 Y-.203 Z3.806 B-.759 C6600.019 E.047
G1 X15.241 Y-.193 Z3.808 B-.765 C6607.156 E.063
G1 X15.244 Y-.179 Z3.81 B-.769 C6612.013 E.043
G1 X15.243 Y-.237 Z3.812 B-.773 C6616.871 E.041
G1 X15.24 Y-.265 Z3.813 B-.776 C6621.746 E.042
G1 X15.244 Y-.216 Z3.815 B-.781 C6626.753 E.046
G1 X15.242 Y-.244 Z3.817 B-.784 C6631.63 E.042
G1 X15.245 Y-.205 Z3.819 B-.789 C6636.824 E.047
G1 X15.242 Y-.232 Z3.82 B-.792 C6641.82 E.043
G1 X15.244 Y-.245 Z3.822 B-.796 C6646.506 E.041
G1 X15.245 Y-.222 Z3.823 B-.8 C6651.34 E.043
G1 X15.243 Y-.267 Z3.825 B-.804 C6656.303 E.042
G1 X15.253 Y-.288 Z3.826 B-.806 C6659.24 E.025
G1 X15.247 Y.029 Z3.828 B-.811 C6664.269 E.055
G1 X15.253 Y-.033 Z3.83 B-.814 C6668.42 E.035
G1 X15.246 Y-.257 Z3.832 B-.819 C6675.448 E.054
G1 X15.247 Z3.833 B-.822 C6679.403 E.035
G1 X15.249 Y-.202 Z3.835 B-.827 C6684.541 E.047
G1 Y-.242 Z3.836 B-.83 C6689.307 E.041
G1 Y-.194 Z3.838 B-.835 C6694.473 E.047
G1 X15.25 Y-.231 Z3.84 B-.838 C6699.223 E.041
G1 Y-.19 Z3.842 B-.842 C6704.418 E.047
G1 X15.251 Y-.202 Z3.843 B-.846 C6709.107 E.041
G1 X15.25 Y-.232 Z3.845 B-.85 C6713.835 E.041
G1 X15.251 Y-.195 Z3.847 B-.854 C6719.042 E.047
G1 X15.252 Y-.223 Z3.848 B-.858 C6723.761 E.041
G1 X15.251 Y-.216 Z3.85 B-.862 C6729.08 E.047
G1 X15.259 Y-.276 Z3.851 B-.865 C6732.856 E.031
G1 X15.254 Y-.186 Z3.853 B-.87 C6738.496 E.053
G1 X15.253 Y-.192 Z3.855 B-.874 C6743.594 E.045
G1 Y-.183 Z3.857 B-.877 C6748.174 E.041
G1 X15.256 Y-.053 Z3.858 B-.881 C6752.654 E.044
G1 X15.254 Y-.207 Z3.86 B-.885 C6758.225 E.044
G1 X15.253 Y-.222 Z3.862 B-.89 C6763.63 E.047
G1 X15.251 Y-.282 Z3.864 B-.893 C6768.784 E.043
G1 X15.254 Y-.19 Z3.865 B-.897 C6773.471 E.044
G1 X15.256 Y-.183 Z3.867 B-.901 C6778.087 E.041
G1 Y-.19 Z3.869 B-.905 C6782.726 E.041
G1 Y-.189 Z3.87 B-.909 C6788.072 E.047
G1 Y-.192 Z3.872 B-.913 C6792.696 E.041
G1 Y-.23 Z3.874 B-.917 C6798.188 E.047
G1 X15.263 Y-.311 Z3.875 B-.92 C6802.015 E.031
G1 X15.258 Y-.245 Z3.877 B-.924 C6807.559 E.051
G1 Y-.176 Z3.879 B-.929 C6812.589 E.047
G1 Y-.171 Z3.88 B-.932 C6817.183 E.041
G1 Y-.189 Z3.882 B-.937 C6822.599 E.047
G1 X15.259 Y-.18 Z3.884 B-.94 C6827.174 E.041
G1 X15.258 Y-.206 Z3.886 B-.945 C6832.624 E.047
G1 X15.26 Y-.19 Z3.887 B-.948 C6837.207 E.041
G1 X15.267 Y-.266 Z3.888 B-.951 C6840.988 E.031
G1 X15.266 Y-.185 Z3.89 B-.955 C6846.269 E.049
G1 X15.264 Y-.145 Z3.892 B-.96 C6851.173 E.045
G1 X15.267 Y-.218 Z3.893 B-.963 C6856.099 E.041
G1 X15.264 Y-.158 Z3.895 B-.967 C6861.187 E.047
G1 X15.269 Y-.232 Z3.897 B-.971 C6865.417 E.035
G1 X15.265 Y-.157 Z3.899 B-.975 C6871.166 E.053
G1 X15.262 Y-.124 Z3.901 B-.979 C6876.092 E.045
G1 Y-.17 Z3.902 B-.984 C6881.615 E.047
G1 X15.263 Y-.141 Z3.904 B-.987 C6886.115 E.041
G1 X15.262 Y-.241 Z3.906 B-.992 C6891.845 E.047
G1 X15.269 Y-.366 Z3.907 B-.994 C6895.878 E.031
G1 X15.264 Y-.212 Z3.909 B-.999 C6901.264 E.053
G1 X15.265 Y-.146 Z3.911 B-1.003 C6906.088 E.045
G1 X15.261 Y-.135 Z3.913 B-1.008 C6912.065 E.053
G1 X15.272 Y-.18 B-1.01 C6914.34 E.019
G1 X15.269 Y-.118 Z3.916 B-1.015 C6920.12 E.053
G1 X15.264 Y-.25 Z3.918 B-1.019 C6926.406 E.051
G1 X15.261 Y-.375 Z3.919 B-1.023 C6931.402 E.04
G1 X15.268 Y-.269 Z3.92 B-1.025 C6934.147 E.028
G1 X15.272 Y-.158 Z3.922 B-1.03 C6939.914 E.055
G1 X15.265 Y-.116 Z3.924 B-1.035 C6945.655 E.052
G1 X15.27 Y-.189 Z3.926 B-1.038 C6950.132 E.037
G1 X15.266 Y-.147 Z3.928 B-1.043 C6955.743 E.051
G1 X15.264 Y-.291 Z3.93 B-1.047 C6962.104 E.051
G1 X15.272 Y-.374 B-1.049 C6964.832 E.021
G1 X15.269 Y-.23 Z3.933 B-1.054 C6970.237 E.052
G1 X15.267 Y-.146 Z3.935 B-1.059 C6975.988 E.053
G1 X15.277 Y-.102 Z3.936 B-1.061 C6978.729 E.026
G1 X15.274 Y-.203 Z3.937 B-1.066 C6984.461 E.047
G1 X15.268 Y-.156 Z3.94 B-1.07 C6990.314 E.053
G1 X15.266 Y-.292 Z3.942 B-1.075 C6996.64 E.051
G1 X15.275 Y-.367 B-1.077 C6999.33 E.021
G1 X15.271 Y-.241 Z3.944 B-1.082 C7004.818 E.053
G1 X15.275 Y-.179 Z3.946 B-1.085 C7009.196 E.041
G1 X15.27 Y-.112 Z3.948 B-1.09 C7014.71 E.051
G1 X15.279 Y-.047 Z3.95 B-1.094 C7019.307 E.043
G1 X15.272 Y-.049 Z3.951 B-1.098 C7024.146 E.043
G1 X15.277 Y-.115 Z3.953 B-1.101 C7028.628 E.037
G1 X15.279 Y-.167 Z3.954 B-1.105 C7033.458 E.041
G1 X15.269 Y-.137 Z3.957 B-1.11 C7039.816 E.057
G1 X15.277 Y-.19 Z3.958 B-1.113 C7043.777 E.033
G1 X15.272 Y-.155 Z3.96 B-1.117 C7049.414 E.051
G1 X15.277 Y-.218 Z3.961 B-1.121 C7053.856 E.037
G1 X15.273 Y-.167 Z3.963 B-1.125 C7059.433 E.051
G1 X15.276 Y-.244 Z3.965 B-1.129 C7063.929 E.037
G1 X15.28 Y-.177 Z3.966 B-1.132 C7068.29 E.041
G1 X15.273 Y-.155 Z3.968 B-1.137 C7073.974 E.051
G1 X15.279 Y-.201 Z3.969 B-1.14 C7078.352 E.037
G1 X15.274 Y-.164 Z3.972 B-1.145 C7083.982 E.051
G1 X15.273 Y-.284 Z3.974 B-1.15 C7090.259 E.051
G1 X15.282 Y-.359 B-1.151 C7092.967 E.021
G1 X15.279 Y-.218 Z3.976 B-1.156 C7098.365 E.052
G1 X15.282 Y-.188 Z3.978 B-1.16 C7102.867 E.041
G1 X15.276 Y-.123 Z3.98 B-1.164 C7108.39 E.051
G1 X15.287 Y-.06 Z3.981 B-1.167 C7111.246 E.027
G1 X15.284 Y-.158 Z3.983 B-1.172 C7117.326 E.05
G1 X15.281 Y-.24 Z3.985 B-1.176 C7123.013 E.047
G1 X15.284 Y-.352 Z3.986 B-1.179 C7127.467 E.036
G1 X15.281 Y-.227 Z3.988 B-1.184 C7132.938 E.052
G1 X15.284 Y-.198 Z3.99 B-1.187 C7137.445 E.041
G1 X15.278 Y-.178 Z3.992 B-1.192 C7143.138 E.051
G1 X15.284 Y-.219 Z3.993 B-1.195 C7147.498 E.037
G1 X15.278 Y-.175 Z3.995 B-1.2 C7153.099 E.051
G1 Y-.286 Z3.997 B-1.205 C7159.331 E.051
G1 X15.276 Y-.288 Z3.999 B-1.209 C7164.552 E.046
G1 X15.285 Y-.218 Z4.001 B-1.214 C7170.341 E.053
G1 X15.284 Y-.187 Z4.003 B-1.217 C7174.847 E.041
G1 X15.286 Y-.227 Z4.005 B-1.223 C7182.065 E.062
G1 X15.282 Y-.177 Z4.007 B-1.227 C7187.645 E.051
G1 X15.286 Y-.245 Z4.008 B-1.231 C7192.105 E.037
G1 X15.281 Y-.232 Z4.011 B-1.236 C7198.279 E.055
G1 X15.291 Y-.275 B-1.238 C7200.852 E.021
G1 X15.289 Y-.217 Z4.013 B-1.242 C7206.458 E.051
G1 X15.284 Y-.193 Z4.015 B-1.247 C7212.268 E.052
G1 X15.288 Y-.234 Z4.017 B-1.25 C7216.628 E.037
G1 X15.284 Y-.177 Z4.019 B-1.255 C7222.182 E.051
G1 X15.288 Y-.249 Z4.02 B-1.258 C7226.659 E.037
G1 X15.291 Y-.213 Z4.022 B-1.262 C7231.135 E.041
G1 X15.284 Y-.215 Z4.024 B-1.267 C7236.916 E.051
G1 X15.29 Y-.227 Z4.025 B-1.27 C7241.161 E.037
G1 X15.285 Y-.197 Z4.027 B-1.275 C7246.82 E.051
G1 X15.284 Y-.281 Z4.029 B-1.279 C7252.959 E.051
G1 X15.293 Y-.338 Z4.03 B-1.281 C7255.606 E.021
G1 X15.291 Y-.222 Z4.032 B-1.286 C7261.092 E.052
G1 X15.293 Y-.221 Z4.033 B-1.29 C7265.705 E.041
G1 X15.286 Y-.223 Z4.036 B-1.294 C7271.484 E.051
G1 X15.293 Y-.235 Z4.037 B-1.297 C7275.728 E.037
G1 X15.288 Y-.199 Z4.039 B-1.302 C7281.365 E.051
G1 X15.287 Y-.281 Z4.041 B-1.307 C7287.494 E.051
G1 Y-.313 Z4.042 B-1.31 C7291.167 E.031
G1 X15.293 Y-.227 Z4.044 B-1.313 C7295.648 E.042
G1 X15.289 Y-.23 Z4.046 B-1.319 C7302.457 E.06
G1 X15.297 Y-.237 Z4.048 B-1.324 C7308.874 E.056
G1 X15.299 Y-.218 Z4.05 B-1.328 C7313.91 E.045
G1 X15.298 Y-.233 Z4.052 B-1.332 C7318.833 E.043
G1 Y-.32 Z4.053 B-1.336 C7324.003 E.043
G1 X15.297 Y-.25 Z4.055 B-1.34 C7328.744 E.044
G1 X15.3 Y-.232 Z4.057 B-1.344 C7333.505 E.043
G1 Y-.239 Z4.058 B-1.348 C7338.549 E.044
G1 X15.299 Y-.242 Z4.06 B-1.351 C7343.43 E.043
G1 X15.301 Y-.225 Z4.062 B-1.355 C7348.474 E.045
G1 Y-.236 Z4.063 B-1.359 C7353.379 E.043
G1 X15.299 Y-.318 Z4.065 B-1.363 C7358.523 E.043
G1 X15.3 Y-.258 Z4.067 B-1.367 C7363.301 E.044
G1 X15.302 Y-.235 Z4.068 B-1.371 C7368.048 E.043
G1 Y-.247 Z4.07 B-1.375 C7373.116 E.044
G1 X15.306 Y-.1 Z4.072 B-1.379 C7377.871 E.047
G1 X15.307 Y-.086 Z4.074 B-1.383 C7383.055 E.046
G1 X15.304 Y.105 Z4.075 B-1.388 C7387.708 E.047
G1 X15.298 Y-.238 Z4.078 B-1.392 C7394.602 E.049
G1 Y-.256 Z4.079 B-1.396 C7399.231 E.04
G1 Y-.243 Z4.081 B-1.4 C7404.596 E.048
G1 X15.296 Y-.256 Z4.083 B-1.404 C7409.753 E.045
G1 X15.299 Y-.237 Z4.084 B-1.408 C7414.551 E.043
G1 X15.298 Y-.23 Z4.086 B-1.412 C7419.628 E.045
G1 X15.299 Y-.233 Z4.088 B-1.416 C7424.518 E.043
G1 X15.3 Y-.252 Z4.089 B-1.42 C7429.191 E.041
G1 X15.306 Y-.287 Z4.091 B-1.423 C7433.127 E.034
G1 X15.305 Y-.253 Z4.092 B-1.427 C7438.507 E.049
G1 X15.299 Y-.264 Z4.095 B-1.432 C7444.32 E.051
G1 X15.301 Y-.248 Z4.096 B-1.436 C7449.132 E.043
G1 X15.308 Y-.341 Z4.097 B-1.438 C7452.967 E.031
G1 X15.305 Y-.224 Z4.099 B-1.443 C7458.341 E.051
G1 X15.307 Y-.25 Z4.101 B-1.447 C7463.057 E.041
G1 X15.3 Y-.293 Z4.103 B-1.451 C7468.993 E.051
G1 X15.302 Y-.234 Z4.105 B-1.456 C7474.129 E.047
G1 X15.31 Y-.265 B-1.458 C7476.828 E.023
G1 Y-.257 Z4.107 B-1.462 C7482.64 E.052
G1 X15.303 Y-.33 Z4.11 B-1.467 C7488.707 E.051
G1 X15.304 Y-.21 Z4.111 B-1.471 C7493.503 E.046
G1 X15.305 Y-.259 Z4.113 B-1.475 C7498.291 E.041
G1 X15.302 Y-.307 Z4.115 B-1.479 C7503.583 E.045
G1 X15.306 Y-.244 Z4.116 B-1.483 C7508.213 E.043
G1 X15.303 Y-.281 Z4.118 B-1.487 C7513.456 E.045
G1 X15.306 Y-.236 Z4.12 B-1.491 C7518.16 E.043
G1 X15.311 Y-.34 Z4.121 B-1.493 C7522.007 E.03
G1 X15.31 Y-.22 Z4.123 B-1.498 C7527.4 E.052
G1 X15.312 Y-.253 Z4.124 B-1.502 C7532.141 E.041
G1 X15.304 Y-.315 Z4.127 B-1.506 C7538.15 E.051
G1 X15.309 Y-.242 Z4.128 B-1.51 C7542.742 E.043
G1 X15.306 Y-.289 Z4.13 B-1.514 C7548.023 E.045
G1 X15.309 Y-.223 Z4.131 B-1.518 C7552.649 E.043
G1 Y-.283 Z4.133 B-1.522 C7557.478 E.041
G1 Y-.202 Z4.135 B-1.526 C7562.544 E.047
G1 X15.31 Y-.261 Z4.136 B-1.53 C7567.371 E.041
G1 X15.308 Y-.323 Z4.138 B-1.534 C7572.719 E.045
G1 X15.311 Y-.239 Z4.14 B-1.538 C7577.267 E.043
G1 X15.309 Y-.297 Z4.142 B-1.542 C7582.591 E.045
G1 X15.312 Y-.216 Z4.143 B-1.546 C7587.158 E.043
G1 Y-.284 Z4.145 B-1.549 C7592.02 E.041
G1 X15.317 Y-.354 Z4.146 B-1.552 C7596.089 E.034
G1 X15.314 Y-.267 Z4.148 B-1.557 C7601.602 E.052
G1 X15.31 Y-.332 Z4.15 B-1.561 C7607.285 E.048
G1 X15.314 Y-.237 Z4.152 B-1.565 C7611.797 E.043
G1 X15.32 Y-.345 Z4.153 B-1.568 C7615.694 E.031
G1 X15.313 Y-.228 Z4.156 B-1.574 C7623.055 E.069
G1 X15.312 Y-.316 Z4.157 B-1.578 C7628.2 E.042
G1 X15.31 Y-.335 Z4.159 B-1.582 C7633.264 E.044
G1 X15.314 Y-.289 Z4.161 B-1.586 C7638.076 E.044
G1 X15.321 Y-.276 Z4.163 B-1.591 C7644.411 E.056
G1 Y-.322 Z4.164 B-1.595 C7649.435 E.043
G1 X15.312 Y-.375 Z4.165 B-1.596 C7651.402 E.016
G1 X15.316 Y-.224 Z4.167 B-1.602 C7657.649 E.06
G1 X15.314 Y-.314 Z4.169 B-1.606 C7662.725 E.042
G1 X15.313 Y-.328 Z4.171 B-1.61 C7667.915 E.045
G1 X15.324 Y-.311 Z4.173 B-1.615 C7674.213 E.056
G1 X15.326 Y-.264 Z4.174 B-1.619 C7679.096 E.045
G1 X15.325 Y-.348 Z4.176 B-1.623 C7684.962 E.049
G1 X15.319 Y-.22 Z4.179 B-1.629 C7692.162 E.068
G1 X15.318 Y-.301 Z4.181 B-1.633 C7697.206 E.042
G1 X15.316 Y-.313 Z4.183 B-1.637 C7702.391 E.045
G1 X15.327 Y-.296 Z4.184 B-1.642 C7708.686 E.056
G1 X15.329 Y-.255 Z4.186 B-1.646 C7713.593 E.045
G1 X15.328 Y-.342 Z4.188 B-1.651 C7719.458 E.049
G1 X15.321 Y-.219 Z4.191 B-1.657 C7726.681 E.068
G1 Y-.289 Z4.193 B-1.661 C7731.69 E.042
G1 X15.322 Y-.183 Z4.194 B-1.665 C7736.571 E.047
G1 X15.328 Y-.203 Z4.196 B-1.669 C7741.722 E.045
G1 X15.333 Y-.057 Z4.198 B-1.674 C7747.326 E.054
G1 X15.325 Y-.271 Z4.2 B-1.679 C7754.656 E.058
G1 X15.32 Y-.342 Z4.202 B-1.683 C7760.14 E.046
G1 X15.326 Y-.254 Z4.204 B-1.687 C7764.567 E.042
G1 X15.332 Y-.307 Z4.205 B-1.69 C7768.573 E.034
G1 X15.328 Y-.237 Z4.207 B-1.695 C7774.263 E.053
G1 X15.324 Y-.273 Z4.209 B-1.699 C7779.838 E.048
G1 X15.327 Y-.216 Z4.211 B-1.703 C7784.378 E.042
G1 X15.328 Y-.268 Z4.212 B-1.706 C7789.176 E.041
G1 X15.334 Y-.322 Z4.213 B-1.709 C7793.183 E.034
G1 X15.33 Y-.25 Z4.215 B-1.714 C7798.863 E.053
G1 X15.335 Y-.29 Z4.217 B-1.717 C7803.039 E.035
G1 X15.33 Y-.236 Z4.219 B-1.722 C7808.789 E.053
G1 X15.335 Y-.338 Z4.22 B-1.725 C7813.09 E.035
G1 X15.329 Y-.227 Z4.223 B-1.731 C7820.337 E.068
G1 X15.328 Y-.277 Z4.224 B-1.735 C7825.262 E.042
G1 X15.337 Y-.305 Z4.225 B-1.737 C7827.647 E.02
G1 X15.332 Y-.117 Z4.227 B-1.742 C7833.369 E.057
G1 X15.328 Y-.267 Z4.229 B-1.747 C7839.763 E.051
G1 X15.33 Y-.273 Z4.231 B-1.751 C7845.151 E.047
G1 X15.338 Y-.246 Z4.233 B-1.756 C7851.614 E.058
G1 X15.334 Y-.254 Z4.236 B-1.761 C7858.181 E.058
G1 X15.34 Y-.288 Z4.237 B-1.764 C7862.113 E.034
G1 X15.332 Y-.244 Z4.24 B-1.771 C7869.64 E.068
G1 X15.341 Y-.239 Z4.242 B-1.776 C7876.206 E.058
G1 Y-.327 Z4.244 B-1.78 C7882.083 E.049
G1 X15.337 Y-.221 Z4.246 B-1.785 C7887.562 E.052
G1 X15.339 Y-.245 Z4.247 B-1.789 C7892.239 E.04
G1 X15.343 Y-.272 Z4.249 B-1.792 C7896.579 E.037
G1 X15.339 Y-.236 Z4.251 B-1.797 C7902.187 E.051
G1 X15.335 Z4.253 B-1.801 C7907.844 E.05
G1 X15.337 Y-.224 Z4.254 B-1.805 C7912.55 E.042
G1 Y-.195 Z4.256 B-1.809 C7917.687 E.046
G1 Y-.224 Z4.258 B-1.813 C7922.53 E.042
G1 X15.339 Y-.242 Z4.259 B-1.816 C7927.195 E.041
G1 X15.346 Y-.255 Z4.26 B-1.819 C7931.048 E.034
G1 X15.342 Y-.233 Z4.262 B-1.824 C7936.706 E.051
G1 X15.338 Y-.218 Z4.264 B-1.829 C7942.306 E.05
G1 X15.34 Y-.229 Z4.266 B-1.832 C7947.1 E.042
G1 X15.341 Y-.24 Z4.268 B-1.836 C7951.743 E.041
G1 X15.348 Y-.266 Z4.269 B-1.839 C7955.643 E.034
G1 X15.34 Y-.232 Z4.272 B-1.845 C7963.212 E.068
G1 X15.349 Y-.237 B-1.847 C7965.509 E.02
G1 X15.345 Y-.231 Z4.274 B-1.852 C7971.23 E.051
G1 X15.349 Y-.326 Z4.275 B-1.855 C7975.727 E.037
G1 X15.345 Y-.227 Z4.278 B-1.86 C7981.195 E.052
G1 X15.347 Y-.231 Z4.279 B-1.863 C7985.798 E.04
G1 X15.351 Y-.249 Z4.28 B-1.867 C7990.109 E.037
G1 X15.348 Y-.227 Z4.282 B-1.871 C7995.764 E.051
G1 X15.352 Y-.221 Z4.284 B-1.874 C7999.978 E.037
G1 X15.348 Y-.23 Z4.286 B-1.879 C8005.759 E.051
G1 X15.342 Y-.305 Z4.288 B-1.883 C8011.135 E.045
G1 X15.347 Y-.232 Z4.289 B-1.887 C8015.75 E.043
G1 X15.35 Z4.291 B-1.891 C8020.336 E.04
G1 X15.344 Y-.236 Z4.293 B-1.895 C8026.01 E.05
G1 X15.35 Y-.225 Z4.294 B-1.899 C8030.295 E.038
G1 X15.346 Y-.205 Z4.296 B-1.903 C8035.878 E.05
G1 X15.35 Y-.232 Z4.298 B-1.907 C8040.311 E.038
G1 X15.354 Y-.32 Z4.299 B-1.91 C8044.679 E.036
G1 X15.351 Y-.23 Z4.301 B-1.914 C8050.163 E.051
G1 X15.353 Y-.227 Z4.303 B-1.918 C8054.865 E.042
G1 X15.347 Y-.221 Z4.305 B-1.923 C8060.498 E.05
G1 X15.352 Y-.224 Z4.306 B-1.926 C8064.839 E.038
G1 X15.349 Y-.196 Z4.308 B-1.931 C8070.389 E.05
G1 X15.351 Y-.235 Z4.309 B-1.934 C8074.868 E.038
G1 X15.357 Y-.321 Z4.311 B-1.937 C8079.217 E.036
G1 X15.353 Y-.239 Z4.313 B-1.942 C8084.743 E.051
G1 X15.356 Y-.223 Z4.314 B-1.946 C8089.397 E.042
G1 X15.35 Y-.197 Z4.316 B-1.95 C8094.955 E.05
G1 X15.363 Y-.049 Z4.318 B-1.955 C8100.198 E.051
G1 X15.354 Y.11 Z4.32 B-1.96 C8105.657 E.053
G1 X15.362 Y-.06 Z4.322 B-1.964 C8112.315 E.053
G1 X15.355 Y-.192 Z4.325 B-1.969 C8118.952 E.054
G1 X15.359 Y-.214 Z4.326 B-1.973 C8123.775 E.042
G1 X15.353 Y-.196 Z4.328 B-1.978 C8129.498 E.051
G1 X15.358 Y-.225 Z4.33 B-1.981 C8133.937 E.038
G1 X15.355 Y-.183 Z4.332 B-1.986 C8139.435 E.05
G1 X15.358 Y-.239 Z4.333 B-1.989 C8143.976 E.038
G1 X15.361 Y-.197 Z4.334 B-1.993 C8148.403 E.04
G1 X15.355 Z4.337 B-1.997 C8154.06 E.05
G1 X15.361 Y-.212 Z4.338 B-2.001 C8158.446 E.038
G1 X15.357 Y-.187 Z4.34 B-2.005 C8164.008 E.05
G1 X15.361 Y-.234 Z4.341 B-2.009 C8168.514 E.038
G1 X15.364 Y-.35 Z4.343 B-2.012 C8173.014 E.036
G1 X15.361 Y-.227 Z4.345 B-2.017 C8178.476 E.052
G1 X15.364 Y-.192 Z4.346 B-2.02 C8182.93 E.04
G1 X15.358 Y-.191 Z4.348 B-2.025 C8188.585 E.05
G1 X15.369 Y-.09 Z4.349 B-2.027 C8191.456 E.029
G1 X15.366 Y-.164 Z4.351 B-2.032 C8197.38 E.05
G1 X15.363 Y-.237 Z4.353 B-2.036 C8203.078 E.048
G1 X15.367 Y-.349 Z4.354 B-2.039 C8207.546 E.036
G1 X15.363 Y-.233 Z4.357 B-2.044 C8213.048 E.052
G1 X15.366 Y-.202 Z4.358 B-2.048 C8217.519 E.04
G1 X15.361 Y-.173 Z4.36 B-2.052 C8223.065 E.05
G1 X15.366 Y-.213 Z4.361 B-2.056 C8227.547 E.038
G1 X15.362 Y-.175 Z4.364 B-2.06 C8233.059 E.05
G1 X15.366 Y-.242 Z4.365 B-2.064 C8237.642 E.038
G1 X15.368 Y-.347 Z4.366 B-2.067 C8242.074 E.036
G1 X15.366 Y-.245 Z4.368 B-2.072 C8247.644 E.053
G1 X15.369 Y-.218 Z4.369 B-2.074 C8250.415 E.025
G1 X15.374 Y-.135 Z4.371 B-2.079 C8256.104 E.053
G1 X15.371 Y-.219 Z4.373 B-2.083 C8261.851 E.048
G1 X15.365 Y-.173 Z4.375 B-2.088 C8267.596 E.052
G1 X15.369 Y-.238 Z4.377 B-2.091 C8272.173 E.038
G1 X15.366 Y-.184 Z4.379 B-2.096 C8277.642 E.05
G1 X15.368 Y-.262 Z4.38 B-2.099 C8282.253 E.038
G1 X15.372 Y-.223 Z4.381 B-2.102 C8284.984 E.025
G1 X15.377 Y-.125 Z4.383 B-2.106 C8290.612 E.053
G1 X15.374 Y-.229 Z4.385 B-2.111 C8296.446 E.048
G1 X15.368 Y-.172 Z4.387 B-2.115 C8302.137 E.052
G1 X15.371 Y-.243 Z4.388 B-2.119 C8306.738 E.038
G1 X15.369 Y-.139 Z4.391 B-2.124 C8312.361 E.053
G1 X15.379 Y-.099 B-2.126 C8315.072 E.025
G1 X15.376 Y-.201 Z4.393 B-2.13 C8320.885 E.048
G1 X15.37 Y-.153 Z4.395 B-2.135 C8326.622 E.052
G1 X15.374 Y-.236 Z4.397 B-2.138 C8331.267 E.038
G1 X15.377 Y-.386 Z4.398 B-2.142 C8335.906 E.036
G1 X15.375 Y-.217 Z4.4 B-2.146 C8341.186 E.052
G1 X15.372 Y-.133 Z4.402 B-2.151 C8346.884 E.053
G1 X15.382 Y-.087 Z4.403 B-2.153 C8349.573 E.025
G1 X15.38 Y-.203 Z4.405 B-2.158 C8355.442 E.048
G1 X15.373 Y-.15 Z4.407 B-2.162 C8361.159 E.052
G1 X15.377 Y-.241 Z4.408 B-2.166 C8365.833 E.038
G1 X15.37 Y-.394 Z4.41 B-2.17 C8371.477 E.045
