( Klipper 5X Mill - Generated by Mastercam )
M109 S220
M190 S60
G90
M83
M106 S2
G0 X0. Y0. C0. B0.
X-3.644 Y14.798 Z2.
G1 Z.2 B0. F1000.
G1 X3.644 B0. F5000. E.242
G1 X4.995 B0. E.045
G1 X5.095 Y14.771 B0. E.003
G1 X5.168 Y14.698 B0. E.003
G1 X5.195 Y14.598 B0. E.003
G1 X5.168 Y14.498 B0. E.003
G1 X5.095 Y14.425 B0. E.003
G1 X4.995 Y14.398 B0. E.003
G1 X-4.995 B0. E.332
G1 X-6.026 B0. E.034
G1 X-6.126 Y14.371 B0. E.003
G1 X-6.199 Y14.298 B0. E.003
G1 X-6.226 Y14.198 B0. E.003
G1 X-6.199 Y14.098 B0. E.003
G1 X-6.126 Y14.025 B0. E.003
G1 X-6.026 Y13.998 B0. E.003
G1 X6.026 B0. E.401
G1 X6.881 B0. E.028
G1 X6.981 Y13.971 B0. E.003
G1 X7.054 Y13.898 B0. E.003
G1 X7.081 Y13.798 B0. E.003
G1 X7.054 Y13.698 B0. E.003
G1 X6.981 Y13.625 B0. E.003
G1 X6.881 Y13.598 B0. E.003
G1 X-6.881 B0. E.458
G1 X-7.62 B0. E.025
G1 X-7.72 Y13.571 B0. E.003
G1 X-7.793 Y13.498 B0. E.003
G1 X-7.82 Y13.398 B0. E.003
G1 X-7.793 Y13.298 B0. E.003
G1 X-7.72 Y13.225 B0. E.003
G1 X-7.62 Y13.198 B0. E.003
G1 X7.62 B0. E.507
G1 X8.274 B0. E.022
G1 X8.374 Y13.171 B0. E.003
G1 X8.447 Y13.098 B0. E.003
G1 X8.474 Y12.998 B0. E.003
G1 X8.447 Y12.898 B0. E.003
G1 X8.374 Y12.825 B0. E.003
G1 X8.274 Y12.798 B0. E.003
G1 X-8.274 B0. E.55
G1 X-8.862 B0. E.02
G1 X-8.962 Y12.771 B0. E.003
G1 X-9.035 Y12.698 B0. E.003
G1 X-9.062 Y12.598 B0. E.003
G1 X-9.035 Y12.498 B0. E.003
G1 X-8.962 Y12.425 B0. E.003
G1 X-8.862 Y12.398 B0. E.003
G1 X8.862 B0. E.59
G1 X9.397 B0. E.018
G1 X9.497 Y12.371 B0. E.003
G1 X9.57 Y12.298 B0. E.003
G1 X9.597 Y12.198 B0. E.003
G1 X9.57 Y12.098 B0. E.003
G1 X9.497 Y12.025 B0. E.003
G1 X9.397 Y11.998 B0. E.003
G1 X-9.397 B0. E.625
G1 X-9.886 B0. E.016
G1 X-9.986 Y11.971 B0. E.003
G1 X-10.059 Y11.898 B0. E.003
G1 X-10.086 Y11.798 B0. E.003
G1 X-10.059 Y11.698 B0. E.003
G1 X-9.986 Y11.625 B0. E.003
G1 X-9.886 Y11.598 B0. E.003
G1 X9.886 B0. E.658
G1 X10.337 B0. E.015
G1 X10.437 Y11.571 B0. E.003
G1 X10.51 Y11.498 B0. E.003
G1 X10.537 Y11.398 B0. E.003
G1 X10.51 Y11.298 B0. E.003
G1 X10.437 Y11.225 B0. E.003
G1 X10.337 Y11.198 B0. E.003
G1 X-10.337 B0. E.688
G1 X-10.754 B0. E.014
G1 X-10.854 Y11.171 B0. E.003
G1 X-10.926 Y11.098 B0. E.003
G1 X-10.953 Y10.999 B0. E.003
G1 X-10.926 Y10.899 B0. E.003
G1 X-10.854 Y10.827 B0. E.003
G1 X-10.754 Y10.799 B0. E.003
G1 X10.754 B0. E.715
G1 X11.141 B0. E.013
G1 X11.241 Y10.772 B0. E.003
G1 X11.314 Y10.699 B0. E.003
G1 X11.341 Y10.599 B0. E.003
G1 X11.314 Y10.499 B0. E.003
G1 X11.241 Y10.426 B0. E.003
G1 X11.141 Y10.399 B0. E.003
G1 X-11.141 B0. E.741
G1 X-11.502 B0. E.012
G1 X-11.602 Y10.372 B0. E.003
G1 X-11.675 Y10.299 B0. E.003
G1 X-11.702 Y10.199 B0. E.003
G1 X-11.675 Y10.099 B0. E.003
G1 X-11.602 Y10.026 B0. E.003
G1 X-11.502 Y9.999 B0. E.003
G1 X11.502 B0. E.765
G1 X11.837 B0. E.011
G1 X11.937 Y9.972 B0. E.003
G1 X12.01 Y9.899 B0. E.003
G1 X12.037 Y9.799 B0. E.003
G1 X12.01 Y9.699 B0. E.003
G1 X11.937 Y9.626 B0. E.003
G1 X11.837 Y9.599 B0. E.003
G1 X-11.837 B0. E.787
G1 X-12.151 B0. E.01
G1 X-12.251 Y9.572 B0. E.003
G1 X-12.324 Y9.499 B0. E.003
G1 X-12.351 Y9.399 B0. E.003
G1 X-12.324 Y9.299 B0. E.003
G1 X-12.251 Y9.226 B0. E.003
G1 X-12.151 Y9.199 B0. E.003
G1 X12.151 B0. E.808
G1 X12.443 B0. E.01
G1 X12.543 Y9.172 B0. E.003
G1 X12.616 Y9.099 B0. E.003
G1 X12.643 Y8.999 B0. E.003
G1 X12.616 Y8.899 B0. E.003
G1 X12.543 Y8.826 B0. E.003
G1 X12.443 Y8.799 B0. E.003
G1 X-12.443 B0. E.828
G1 X-12.717 B0. E.009
G1 X-12.817 Y8.772 B0. E.003
G1 X-12.89 Y8.699 B0. E.003
G1 X-12.917 Y8.599 B0. E.003
G1 X-12.89 Y8.499 B0. E.003
G1 X-12.817 Y8.426 B0. E.003
G1 X-12.717 Y8.399 B0. E.003
G1 X12.717 B0. E.846
G1 X12.972 B0. E.008
G1 X13.072 Y8.372 B0. E.003
G1 X13.145 Y8.299 B0. E.003
G1 X13.172 Y8.199 B0. E.003
G1 X13.145 Y8.099 B0. E.003
G1 X13.072 Y8.026 B0. E.003
G1 X12.972 Y7.999 B0. E.003
G1 X-12.972 B0. E.863
G1 X-13.21 B0. E.008
G1 X-13.31 Y7.972 B0. E.003
G1 X-13.383 Y7.899 B0. E.003
G1 X-13.41 Y7.799 B0. E.003
G1 X-13.383 Y7.699 B0. E.003
G1 X-13.31 Y7.626 B0. E.003
G1 X-13.21 Y7.599 B0. E.003
G1 X13.21 B0. E.879
G1 X13.432 B0. E.007
G1 X13.532 Y7.572 B0. E.003
G1 X13.605 Y7.499 B0. E.003
G1 X13.632 Y7.399 B0. E.003
G1 X13.605 Y7.299 B0. E.003
G1 X13.532 Y7.226 B0. E.003
G1 X13.432 Y7.199 B0. E.003
G1 X-13.432 B0. E.894
G1 X-13.639 B0. E.007
G1 X-13.739 Y7.172 B0. E.003
G1 X-13.812 Y7.099 B0. E.003
G1 X-13.839 Y6.999 B0. E.003
G1 X-13.812 Y6.899 B0. E.003
G1 X-13.739 Y6.826 B0. E.003
G1 X-13.639 Y6.799 B0. E.003
G1 X13.639 B0. E.907
G1 X13.831 B0. E.006
G1 X13.931 Y6.772 B0. E.003
G1 X14.004 Y6.699 B0. E.003
G1 X14.031 Y6.599 B0. E.003
G1 X14.004 Y6.499 B0. E.003
G1 X13.931 Y6.426 B0. E.003
G1 X13.831 Y6.399 B0. E.003
G1 X-13.831 B0. E.92
G1 X-14.01 B0. E.006
G1 X-14.11 Y6.372 B0. E.003
G1 X-14.183 Y6.299 B0. E.003
G1 X-14.21 Y6.199 B0. E.003
G1 X-14.183 Y6.099 B0. E.003
G1 X-14.11 Y6.026 B0. E.003
G1 X-14.01 Y5.999 B0. E.003
G1 X14.01 B0. E.932
G1 X14.174 B0. E.005
G1 X14.274 Y5.972 B0. E.003
G1 X14.347 Y5.899 B0. E.003
G1 X14.374 Y5.799 B0. E.003
G1 X14.347 Y5.699 B0. E.003
G1 X14.274 Y5.626 B0. E.003
G1 X14.174 Y5.599 B0. E.003
G1 X-14.174 B0. E.943
G1 X-14.326 B0. E.005
G1 X-14.426 Y5.572 B0. E.003
G1 X-14.499 Y5.499 B0. E.003
G1 X-14.526 Y5.399 B0. E.003
G1 X-14.499 Y5.299 B0. E.003
G1 X-14.426 Y5.226 B0. E.003
G1 X-14.326 Y5.199 B0. E.003
G1 X14.326 B0. E.953
G1 X14.465 B0. E.005
G1 X14.565 Y5.172 B0. E.003
G1 X14.638 Y5.099 B0. E.003
G1 X14.665 Y4.999 B0. E.003
G1 X14.638 Y4.899 B0. E.003
G1 X14.565 Y4.826 B0. E.003
G1 X14.465 Y4.799 B0. E.003
G1 X-14.465 B0. E.962
G1 X-14.591 B0. E.004
G1 X-14.691 Y4.772 B0. E.003
G1 X-14.764 Y4.699 B0. E.003
G1 X-14.791 Y4.599 B0. E.003
G1 X-14.764 Y4.499 B0. E.003
G1 X-14.691 Y4.426 B0. E.003
G1 X-14.591 Y4.399 B0. E.003
G1 X14.591 B0. E.971
G1 X14.706 B0. E.004
G1 X14.806 Y4.372 B0. E.003
G1 X14.879 Y4.299 B0. E.003
G1 X14.906 Y4.199 B0. E.003
G1 X14.879 Y4.099 B0. E.003
G1 X14.806 Y4.026 B0. E.003
G1 X14.706 Y3.999 B0. E.003
G1 X-14.706 B0. E.978
G1 X-14.809 B0. E.003
G1 X-14.909 Y3.972 B0. E.003
G1 X-14.982 Y3.899 B0. E.003
G1 X-15.009 Y3.799 B0. E.003
G1 X-14.982 Y3.699 B0. E.003
G1 X-14.909 Y3.626 B0. E.003
G1 X-14.809 Y3.6 B0. E.003
G1 X14.809 B0. E.985
G1 X14.9 B0. E.003
G1 X15. Y3.573 B0. E.003
G1 X15.073 Y3.5 B0. E.003
G1 X15.1 Y3.4 B0. E.003
G1 X15.073 Y3.3 B0. E.003
G1 X15. Y3.227 B0. E.003
G1 X14.9 Y3.2 B0. E.003
G1 X-14.9 B0. E.991
G1 X-14.981 B0. E.003
G1 X-15.081 Y3.173 B0. E.003
G1 X-15.154 Y3.1 B0. E.003
G1 X-15.181 Y3. B0. E.003
G1 X-15.154 Y2.9 B0. E.003
G1 X-15.081 Y2.827 B0. E.003
G1 X-14.981 Y2.8 B0. E.003
G1 X14.981 B0. E.997
G1 X15.05 B0. E.002
G1 X15.15 Y2.773 B0. E.003
G1 X15.223 Y2.7 B0. E.003
G1 X15.25 Y2.6 B0. E.003
G1 X15.223 Y2.5 B0. E.003
G1 X15.15 Y2.427 B0. E.003
G1 X15.05 Y2.4 B0. E.003
G1 X-15.05 B0. E1.001
G1 X-15.108 B0. E.002
G1 X-15.208 Y2.373 B0. E.003
G1 X-15.281 Y2.3 B0. E.003
G1 X-15.308 Y2.2 B0. E.003
G1 X-15.281 Y2.1 B0. E.003
G1 X-15.208 Y2.027 B0. E.003
G1 X-15.108 Y2. B0. E.003
G1 X15.108 B0. E1.005
G1 X15.156 B0. E.002
G1 X15.256 Y1.973 B0. E.003
G1 X15.329 Y1.9 B0. E.003
G1 X15.356 Y1.8 B0. E.003
G1 X15.329 Y1.7 B0. E.003
G1 X15.256 Y1.627 B0. E.003
G1 X15.156 Y1.6 B0. E.003
G1 X-15.156 B0. E1.008
G1 X-15.193 B0. E.001
G1 X-15.293 Y1.573 B0. E.003
G1 X-15.366 Y1.5 B0. E.003
G1 X-15.393 Y1.4 B0. E.003
G1 X-15.366 Y1.3 B0. E.003
G1 X-15.293 Y1.227 B0. E.003
G1 X-15.193 Y1.2 B0. E.003
G1 X15.193 B0. E1.011
G1 X15.219 B0. E.001
G1 X15.319 Y1.173 B0. E.003
G1 X15.392 Y1.1 B0. E.003
G1 X15.419 Y1. B0. E.003
G1 X15.392 Y.9 B0. E.003
G1 X15.319 Y.827 B0. E.003
G1 X15.219 Y.8 B0. E.003
G1 X-15.219 B0. E1.012
G1 X-15.235 B0. E.001
G1 X-15.335 Y.773 B0. E.003
G1 X-15.408 Y.7 B0. E.003
G1 X-15.435 Y.6 B0. E.003
G1 X-15.408 Y.5 B0. E.003
G1 X-15.335 Y.427 B0. E.003
G1 X-15.235 Y.4 B0. E.003
G1 X15.235 B0. E1.013
G1 X15.24 B0. E0.
G1 X15.34 Y.373 B0. E.003
G1 X15.413 Y.3 B0. E.003
G1 X15.44 Y.2 B0. E.003
G1 X15.413 Y.1 B0. E.003
G1 X15.34 Y.027 B0. E.003
G1 X15.24 Y0. B0. E.003
G1 X-15.24 B0. E1.014
G1 X-15.34 Y-.027 B0. E.003
G1 X-15.413 Y-.1 B0. E.003
G1 X-15.44 Y-.2 B0. E.003
G1 X-15.413 Y-.3 B0. E.003
G1 X-15.34 Y-.373 B0. E.003
G1 X-15.24 Y-.4 B0. E.003
G1 X15.235 B0. E1.014
G1 X15.335 Y-.427 B0. E.003
G1 X15.408 Y-.5 B0. E.003
G1 X15.435 Y-.6 B0. E.003
G1 X15.408 Y-.7 B0. E.003
G1 X15.335 Y-.773 B0. E.003
G1 X15.235 Y-.8 B0. E.003
G1 X-15.219 B0. E1.013
G1 X-15.319 Y-.827 B0. E.003
G1 X-15.392 Y-.9 B0. E.003
G1 X-15.419 Y-1. B0. E.003
G1 X-15.392 Y-1.1 B0. E.003
G1 X-15.319 Y-1.173 B0. E.003
G1 X-15.219 Y-1.2 B0. E.003
G1 X15.193 B0. E1.011
G1 X15.293 Y-1.227 B0. E.003
G1 X15.366 Y-1.3 B0. E.003
G1 X15.393 Y-1.4 B0. E.003
G1 X15.366 Y-1.5 B0. E.003
G1 X15.293 Y-1.573 B0. E.003
G1 X15.193 Y-1.6 B0. E.003
G1 X-15.156 B0. E1.009
G1 X-15.256 Y-1.627 B0. E.003
G1 X-15.329 Y-1.7 B0. E.003
G1 X-15.356 Y-1.8 B0. E.003
G1 X-15.329 Y-1.9 B0. E.003
G1 X-15.256 Y-1.973 B0. E.003
G1 X-15.156 Y-2. B0. E.003
G1 X15.108 B0. E1.007
G1 X15.208 Y-2.027 B0. E.003
G1 X15.281 Y-2.1 B0. E.003
G1 X15.308 Y-2.2 B0. E.003
G1 X15.281 Y-2.3 B0. E.003
G1 X15.208 Y-2.373 B0. E.003
G1 X15.108 Y-2.4 B0. E.003
G1 X-15.05 B0. E1.003
G1 X-15.15 Y-2.427 B0. E.003
G1 X-15.223 Y-2.5 B0. E.003
G1 X-15.25 Y-2.6 B0. E.003
G1 X-15.223 Y-2.7 B0. E.003
G1 X-15.15 Y-2.773 B0. E.003
G1 X-15.05 Y-2.8 B0. E.003
G1 X14.981 B0. E.999
G1 X15.081 Y-2.827 B0. E.003
G1 X15.154 Y-2.9 B0. E.003
G1 X15.181 Y-3. B0. E.003
G1 X15.154 Y-3.1 B0. E.003
G1 X15.081 Y-3.173 B0. E.003
G1 X14.981 Y-3.2 B0. E.003
G1 X-14.9 B0. E.994
G1 X-15. Y-3.227 B0. E.003
G1 X-15.073 Y-3.3 B0. E.003
G1 X-15.1 Y-3.4 B0. E.003
G1 X-15.073 Y-3.5 B0. E.003
G1 X-15. Y-3.573 B0. E.003
G1 X-14.9 Y-3.6 B0. E.003
G1 X14.809 B0. E.988
G1 X14.909 Y-3.627 B0. E.003
G1 X14.981 Y-3.7 B0. E.003
G1 X15.008 Y-3.799 B0. E.003
G1 X14.981 Y-3.898 B0. E.003
G1 X14.909 Y-3.971 B0. E.003
G1 X14.809 Y-3.999 B0. E.003
G1 X-14.706 B0. E.982
G1 X-14.806 Y-4.026 B0. E.003
G1 X-14.879 Y-4.099 B0. E.003
G1 X-14.906 Y-4.199 B0. E.003
G1 X-14.879 Y-4.299 B0. E.003
G1 X-14.806 Y-4.372 B0. E.003
G1 X-14.706 Y-4.399 B0. E.003
G1 X14.591 B0. E.974
G1 X14.691 Y-4.426 B0. E.003
G1 X14.764 Y-4.499 B0. E.003
G1 X14.791 Y-4.599 B0. E.003
G1 X14.764 Y-4.699 B0. E.003
G1 X14.691 Y-4.772 B0. E.003
G1 X14.591 Y-4.799 B0. E.003
G1 X-14.465 B0. E.966
G1 X-14.565 Y-4.826 B0. E.003
G1 X-14.638 Y-4.899 B0. E.003
G1 X-14.665 Y-4.999 B0. E.003
G1 X-14.638 Y-5.099 B0. E.003
G1 X-14.565 Y-5.172 B0. E.003
G1 X-14.465 Y-5.199 B0. E.003
G1 X14.326 B0. E.958
G1 X14.426 Y-5.226 B0. E.003
G1 X14.499 Y-5.299 B0. E.003
G1 X14.526 Y-5.399 B0. E.003
G1 X14.499 Y-5.499 B0. E.003
G1 X14.426 Y-5.572 B0. E.003
G1 X14.326 Y-5.599 B0. E.003
G1 X-14.174 B0. E.948
G1 X-14.274 Y-5.626 B0. E.003
G1 X-14.347 Y-5.699 B0. E.003
G1 X-14.374 Y-5.799 B0. E.003
G1 X-14.347 Y-5.899 B0. E.003
G1 X-14.274 Y-5.972 B0. E.003
G1 X-14.174 Y-5.999 B0. E.003
G1 X14.01 B0. E.937
G1 X14.11 Y-6.026 B0. E.003
G1 X14.183 Y-6.099 B0. E.003
G1 X14.21 Y-6.199 B0. E.003
G1 X14.183 Y-6.299 B0. E.003
G1 X14.11 Y-6.372 B0. E.003
G1 X14.01 Y-6.399 B0. E.003
G1 X-13.831 B0. E.926
G1 X-13.931 Y-6.426 B0. E.003
G1 X-14.004 Y-6.499 B0. E.003
G1 X-14.031 Y-6.599 B0. E.003
G1 X-14.004 Y-6.699 B0. E.003
G1 X-13.931 Y-6.772 B0. E.003
G1 X-13.831 Y-6.799 B0. E.003
G1 X13.639 B0. E.914
G1 X13.739 Y-6.826 B0. E.003
G1 X13.812 Y-6.899 B0. E.003
G1 X13.839 Y-6.999 B0. E.003
G1 X13.812 Y-7.099 B0. E.003
G1 X13.739 Y-7.172 B0. E.003
G1 X13.639 Y-7.199 B0. E.003
G1 X-13.432 B0. E.9
G1 X-13.532 Y-7.226 B0. E.003
G1 X-13.605 Y-7.299 B0. E.003
G1 X-13.632 Y-7.399 B0. E.003
G1 X-13.605 Y-7.499 B0. E.003
G1 X-13.532 Y-7.572 B0. E.003
G1 X-13.432 Y-7.599 B0. E.003
G1 X13.21 B0. E.886
G1 X13.31 Y-7.626 B0. E.003
G1 X13.383 Y-7.699 B0. E.003
G1 X13.41 Y-7.799 B0. E.003
G1 X13.383 Y-7.899 B0. E.003
G1 X13.31 Y-7.972 B0. E.003
G1 X13.21 Y-7.999 B0. E.003
G1 X-12.972 B0. E.871
G1 X-13.072 Y-8.026 B0. E.003
G1 X-13.145 Y-8.099 B0. E.003
G1 X-13.172 Y-8.199 B0. E.003
G1 X-13.145 Y-8.299 B0. E.003
G1 X-13.072 Y-8.372 B0. E.003
G1 X-12.972 Y-8.399 B0. E.003
G1 X12.717 B0. E.854
G1 X12.817 Y-8.426 B0. E.003
G1 X12.89 Y-8.499 B0. E.003
G1 X12.917 Y-8.599 B0. E.003
G1 X12.89 Y-8.699 B0. E.003
G1 X12.817 Y-8.772 B0. E.003
G1 X12.717 Y-8.799 B0. E.003
G1 X-12.443 B0. E.837
G1 X-12.543 Y-8.826 B0. E.003
G1 X-12.616 Y-8.899 B0. E.003
G1 X-12.643 Y-8.999 B0. E.003
G1 X-12.616 Y-9.099 B0. E.003
G1 X-12.543 Y-9.172 B0. E.003
G1 X-12.443 Y-9.199 B0. E.003
G1 X12.151 B0. E.818
G1 X12.251 Y-9.226 B0. E.003
G1 X12.324 Y-9.299 B0. E.003
G1 X12.351 Y-9.399 B0. E.003
G1 X12.324 Y-9.499 B0. E.003
G1 X12.251 Y-9.572 B0. E.003
G1 X12.151 Y-9.599 B0. E.003
G1 X-11.837 B0. E.798
G1 X-11.937 Y-9.626 B0. E.003
G1 X-12.01 Y-9.699 B0. E.003
G1 X-12.037 Y-9.799 B0. E.003
G1 X-12.01 Y-9.899 B0. E.003
G1 X-11.937 Y-9.972 B0. E.003
G1 X-11.837 Y-9.999 B0. E.003
G1 X11.502 B0. E.776
G1 X11.602 Y-10.026 B0. E.003
G1 X11.675 Y-10.099 B0. E.003
G1 X11.702 Y-10.199 B0. E.003
G1 X11.675 Y-10.299 B0. E.003
G1 X11.602 Y-10.372 B0. E.003
G1 X11.502 Y-10.399 B0. E.003
G1 X-11.141 B0. E.753
G1 X-11.241 Y-10.426 B0. E.003
G1 X-11.314 Y-10.499 B0. E.003
G1 X-11.341 Y-10.599 B0. E.003
G1 X-11.314 Y-10.699 B0. E.003
G1 X-11.241 Y-10.772 B0. E.003
G1 X-11.141 Y-10.799 B0. E.003
G1 X10.754 B0. E.728
G1 X10.854 Y-10.826 B0. E.003
G1 X10.927 Y-10.899 B0. E.003
G1 X10.954 Y-10.999 B0. E.003
G1 X10.927 Y-11.099 B0. E.003
G1 X10.854 Y-11.172 B0. E.003
G1 X10.754 Y-11.198 B0. E.003
G1 X-10.337 B0. E.701
G1 X-10.437 Y-11.225 B0. E.003
G1 X-10.51 Y-11.298 B0. E.003
G1 X-10.537 Y-11.398 B0. E.003
G1 X-10.51 Y-11.498 B0. E.003
G1 X-10.437 Y-11.571 B0. E.003
G1 X-10.337 Y-11.598 B0. E.003
G1 X9.886 B0. E.673
G1 X9.986 Y-11.625 B0. E.003
G1 X10.059 Y-11.698 B0. E.003
G1 X10.086 Y-11.798 B0. E.003
G1 X10.059 Y-11.898 B0. E.003
G1 X9.986 Y-11.971 B0. E.003
G1 X9.886 Y-11.998 B0. E.003
G1 X-9.397 B0. E.641
G1 X-9.497 Y-12.025 B0. E.003
G1 X-9.57 Y-12.098 B0. E.003
G1 X-9.597 Y-12.198 B0. E.003
G1 X-9.57 Y-12.298 B0. E.003
G1 X-9.497 Y-12.371 B0. E.003
G1 X-9.397 Y-12.398 B0. E.003
G1 X8.862 B0. E.607
G1 X8.962 Y-12.425 B0. E.003
G1 X9.035 Y-12.498 B0. E.003
G1 X9.062 Y-12.598 B0. E.003
G1 X9.035 Y-12.698 B0. E.003
G1 X8.962 Y-12.771 B0. E.003
G1 X8.862 Y-12.798 B0. E.003
G1 X-8.274 B0. E.57
G1 X-8.374 Y-12.825 B0. E.003
G1 X-8.447 Y-12.898 B0. E.003
G1 X-8.474 Y-12.998 B0. E.003
G1 X-8.447 Y-13.098 B0. E.003
G1 X-8.374 Y-13.171 B0. E.003
G1 X-8.274 Y-13.198 B0. E.003
G1 X7.62 B0. E.529
G1 X7.72 Y-13.225 B0. E.003
G1 X7.793 Y-13.298 B0. E.003
G1 X7.82 Y-13.398 B0. E.003
G1 X7.793 Y-13.498 B0. E.003
G1 X7.72 Y-13.571 B0. E.003
G1 X7.62 Y-13.598 B0. E.003
G1 X-6.881 B0. E.482
G1 X-6.981 Y-13.625 B0. E.003
G1 X-7.054 Y-13.698 B0. E.003
G1 X-7.081 Y-13.798 B0. E.003
G1 X-7.054 Y-13.898 B0. E.003
G1 X-6.981 Y-13.971 B0. E.003
G1 X-6.881 Y-13.998 B0. E.003
G1 X6.026 B0. E.429
G1 X6.126 Y-14.025 B0. E.003
G1 X6.199 Y-14.098 B0. E.003
G1 X6.226 Y-14.198 B0. E.003
G1 X6.199 Y-14.298 B0. E.003
G1 X6.126 Y-14.371 B0. E.003
G1 X6.026 Y-14.398 B0. E.003
G1 X-4.995 B0. E.367
G1 X-5.095 Y-14.425 B0. E.003
G1 X-5.168 Y-14.498 B0. E.003
G1 X-5.195 Y-14.598 B0. E.003
G1 X-5.168 Y-14.698 B0. E.003
G1 X-5.095 Y-14.771 B0. E.003
G1 X-4.995 Y-14.798 B0. E.003
G1 X3.644 B0.
G1 E-1.
G0 Z2. B0.
G0 X7.492 Y-.567 Z21.496 B-4.876 C10.031
G0 Z1.496 B-10.031 C-85.124
G1 E1.
G1 X7.509 Y-.108 B-10.009 C-80.173
G1 X7.508 Y-.136 Z1.493 B-9.988 C-70.967 E.04
G1 X7.509 Y-.117 Z1.495 B-9.999 C-63.121 E.035
G1 X7.515 Y-.077 Z1.496 B-10. C-56.424 E.031
G1 X7.516 Y-.065 B-10. C-50.513 E.027
G1 Y-.067 B-10. C-44.502 E.027
G1 Y-.072 B-10.001 C-38.466 E.027
G1 X7.515 Y-.096 B-10.001 C-32.293 E.027
G1 X7.509 Y-.108 Z1.495 B-10.001 C-25.204 E.031
G1 X7.508 Y-.093 Z1.496 B-10.011 C-19.034 E.028
G1 Y-.115 B-10.011 C-11.458 E.033
G1 X7.51 Y-.106 Z1.497 B-10.014 C-3.101 E.037
G1 Y-.086 Z1.496 B-10.01 C4.533 E.035
G1 X7.509 Y-.113 Z1.494 B-9.989 C12.868 E.036
G1 X7.508 Y-.136 Z1.493 B-9.988 C19.033 E.027
G1 X7.509 Y-.117 Z1.495 B-9.999 C26.879 E.035
G1 X7.515 Y-.077 Z1.496 B-10. C33.576 E.031
G1 X7.516 Y-.065 B-10. C39.487 E.027
G1 Y-.067 B-10. C45.498 E.027
G1 Y-.072 B-10.001 C51.534 E.027
G1 X7.515 Y-.096 B-10.001 C57.707 E.027
G1 X7.509 Y-.108 Z1.495 B-10.001 C64.796 E.031
G1 X7.508 Y-.093 Z1.496 B-10.011 C70.966 E.028
G1 Y-.115 B-10.011 C78.542 E.033
G1 X7.51 Y-.106 Z1.497 B-10.014 C86.899 E.037
G1 Y-.086 Z1.496 B-10.01 C94.533 E.035
G1 X7.509 Y-.113 Z1.494 B-9.989 C102.868 E.036
G1 X7.508 Y-.136 Z1.493 B-9.988 C109.033 E.027
G1 X7.509 Y-.117 Z1.495 B-9.999 C116.879 E.035
G1 X7.515 Y-.077 Z1.496 B-10. C123.576 E.031
G1 X7.516 Y-.065 B-10. C129.487 E.027
G1 Y-.067 B-10. C135.498 E.027
G1 Y-.072 B-10.001 C141.534 E.027
G1 X7.515 Y-.096 B-10.001 C147.707 E.027
G1 X7.509 Y-.108 Z1.495 B-10.001 C154.796 E.031
G1 X7.508 Y-.093 Z1.496 B-10.011 C160.966 E.028
G1 Y-.115 B-10.011 C168.542 E.033
G1 X7.51 Y-.106 Z1.497 B-10.014 C176.899 E.037
G1 Y-.086 Z1.496 B-10.01 C184.533 E.035
G1 X7.509 Y-.113 Z1.494 B-9.989 C192.868 E.036
G1 X7.508 Y-.136 Z1.493 B-9.988 C199.033 E.027
G1 X7.509 Y-.117 Z1.495 B-9.999 C206.879 E.035
G1 X7.515 Y-.077 Z1.496 B-10. C213.576 E.031
G1 X7.516 Y-.065 B-10. C219.487 E.027
G1 Y-.067 B-10. C225.498 E.027
G1 Y-.072 B-10.001 C231.534 E.027
G1 X7.515 Y-.096 B-10.001 C237.707 E.027
G1 X7.509 Y-.108 Z1.495 B-10.001 C244.796 E.031
G1 X7.508 Y-.093 Z1.496 B-10.011 C250.966 E.028
G1 Y-.115 B-10.011 C258.542 E.033
G1 X7.51 Y-.082 Z1.497 B-10.013 C266.719 E.037
G1 X7.513 Y-.019 B-10.006 C270.788 E.02
G1 X7.515 Y.073 Z1.5 B-10.006 C280.086 E.044
G1 X7.508 Y.054 Z1.503 B-9.991 C287.773 E.034
G1 X7.51 Y.062 Z1.507 B-10. C295.595 E.035
G1 X7.514 Y.123 Z1.511 B-10.002 C302.095 E.031
G1 Y.169 Z1.514 B-10.003 C307.729 E.027
G1 Y.171 Z1.517 B-10.002 C313.702 E.027
G1 Y.17 Z1.521 B-10.002 C319.694 E.027
G1 Y.177 Z1.524 B-10.002 C325.622 E.027
G1 X7.505 Y.206 Z1.529 B-10.001 C333.091 E.034
G1 X7.508 Y.143 Z1.536 B-10.012 C341.299 E.034
G1 X7.513 Y.097 Z1.54 B-10.002 C349.405 E.034
G1 X7.509 Y.101 Z1.545 B-10.013 C357.527 E.036
G1 X7.511 Y.067 Z1.548 B-10.001 C365.915 E.036
G1 X7.509 Y.085 Z1.551 B-10.004 C373.56 E.035
G1 X7.513 Y.101 Z1.555 B-10.001 C381.309 E.035
G1 X7.507 Y.1 Z1.559 B-9.989 C389.28 E.035
G1 X7.506 Y.126 Z1.563 B-9.989 C395.056 E.027
G1 Y.134 Z1.566 B-9.989 C400.991 E.027
G1 Y.133 Z1.569 B-9.988 C406.997 E.027
G1 Y.146 Z1.572 B-9.989 C412.9 E.027
G1 X7.51 Y.174 Z1.578 B-10. C420.602 E.035
G1 X7.506 Y.16 Z1.585 B-10.013 C429.508 E.039
G1 X7.508 Y.127 Z1.589 B-10.011 C436.941 E.032
G1 Y.121 Z1.594 B-10.011 C446.034 E.04
G1 X7.509 Y.105 Z1.598 B-10.014 C452.854 E.03
G1 Y.102 Z1.601 B-9.996 C461.508 E.038
G1 Y.119 Z1.604 B-10.002 C469.218 E.035
G1 X7.512 Y.129 Z1.608 B-10.001 C477.055 E.035
G1 X7.507 Y.104 Z1.612 B-9.988 C485.211 E.035
G1 X7.506 Y.098 Z1.616 B-9.988 C491.251 E.027
G1 Y.097 Z1.619 B-9.988 C497.254 E.027
G1 Y.119 Z1.622 B-9.988 C503.093 E.027
G1 X7.511 Y.158 Z1.628 B-9.999 C510.71 E.035
G1 X7.506 Y.16 Z1.634 B-10.012 C519.497 E.039
G1 X7.508 Y.147 Z1.638 B-10.012 C526.778 E.032
G1 Y.142 Z1.644 B-10.01 C535.876 E.04
G1 X7.509 Y.125 Z1.648 B-10.014 C542.689 E.03
G1 X7.508 Y.131 Z1.651 B-9.996 C551.28 E.038
G1 Y.148 Z1.654 B-10.003 C558.994 E.035
G1 X7.511 Y.153 Z1.658 B-10.002 C566.868 E.035
G1 X7.507 Y.082 Z1.662 B-9.988 C575.365 E.035
G1 Y.062 Z1.666 B-9.988 C581.512 E.027
G1 Z1.669 B-9.988 C587.511 E.027
G1 Y.092 Z1.672 B-9.988 C593.286 E.027
G1 X7.511 Y.142 Z1.679 B-9.999 C600.821 E.035
G1 X7.506 Y.161 Z1.684 B-10.012 C609.484 E.039
G1 X7.507 Y.169 Z1.688 B-10.013 C616.614 E.032
G1 X7.512 Y.168 Z1.693 B-10.002 C624.168 E.034
G1 Y.149 Z1.695 B-10.002 C629.553 E.023
G1 X7.508 Y.123 Z1.699 B-10.009 C637.934 E.037
G1 X7.512 Y.156 Z1.702 B-10.009 C644.256 E.029
G1 X7.506 Y.151 Z1.706 B-9.991 C652.952 E.039
G1 X7.513 Y.148 Z1.711 B-10.003 C661.75 E.039
G1 X7.51 Y.175 Z1.714 B-10.002 C668.486 E.031
G1 X7.506 Y.129 Z1.719 B-9.991 C676.996 E.036
G1 X7.508 Y.146 Z1.723 B-10. C684.174 E.033
G1 X7.509 Y.156 Z1.73 B-10.009 C692.572 E.038
G1 X7.506 Y.137 Z1.734 B-10.008 C700.291 E.034
G1 X7.51 Y.143 Z1.738 B-10.011 C707.393 E.032
G1 X7.508 Y.138 Z1.744 B-10.011 C715.525 E.036
G1 X7.511 Y.107 Z1.747 B-10.01 C723.402 E.034
G1 X7.507 Y.105 Z1.751 B-10.001 C732.541 E.041
G1 Y.134 Z1.754 B-10.004 C738.72 E.029
G1 X7.509 Y.144 Z1.759 B-10. C747.408 E.039
G1 X7.506 Y.131 Z1.762 B-9.99 C755.07 E.034
G1 X7.508 Y.132 Z1.767 B-10.003 C762.428 E.033
G1 X7.509 Y.147 Z1.772 B-10. C771.006 E.039
G1 Y.148 Z1.775 B-10. C777.015 E.027
G1 X7.506 Y.141 Z1.78 B-10.01 C784.063 E.031
G1 X7.513 Y.14 Z1.785 B-10.005 C792.572 E.038
G1 X7.512 Z1.79 B-10.005 C799.177 E.03
G1 X7.511 Y.117 Z1.794 B-10.008 C808.215 E.04
G1 X7.508 Y.1 Z1.798 B-10.002 C816.984 E.039
G1 X7.513 Y.128 Z1.802 B-10.007 C824.585 E.035
G1 X7.507 Y.115 Z1.806 B-9.991 C833.332 E.039
G1 X7.508 Y.113 Z1.811 B-10.005 C840.72 E.033
G1 X7.514 Y.142 Z1.814 B-10.002 C847.894 E.033
G1 X7.509 Y.126 Z1.819 B-9.998 C855.301 E.033
G1 X7.506 Y.121 Z1.823 B-10.001 C862.208 E.031
G1 X7.508 Y.14 Z1.827 B-9.999 C869.986 E.035
G1 X7.511 Y.117 Z1.832 B-10.001 C878.295 E.036
G1 X7.506 Y.14 Z1.837 B-10.009 C885.842 E.035
G1 X7.512 Y.119 Z1.84 B-10.002 C893.359 E.033
G1 X7.508 Y.135 Z1.846 B-10.01 C901.699 E.038
G1 X7.511 Y.116 Z1.849 B-10.003 C910.41 E.038
G1 X7.508 Y.121 Z1.855 B-10.008 C918.934 E.038
G1 X7.514 Y.124 Z1.858 B-10.004 C926.227 E.033
G1 X7.509 Y.1 Z1.862 B-9.999 C933.704 E.033
G1 X7.507 Y.104 Z1.867 B-10.003 C940.479 E.03
G1 X7.508 Y.128 Z1.87 B-10.001 C948.543 E.037
G1 X7.509 Y.111 Z1.875 B-9.999 C957.394 E.039
G1 X7.507 Y.135 Z1.881 B-10.01 C965.55 E.037
G1 X7.51 Y.168 Z1.884 B-10.002 C973.598 E.037
G1 X7.509 Y.124 Z1.892 B-10.011 C982.432 E.038
G1 X7.512 Y.145 Z1.895 B-10.003 C989.599 E.033
G1 X7.509 Y.134 Z1.898 B-9.993 C998.056 E.038
G1 X7.513 Y.139 Z1.903 B-10.006 C1004.615 E.03
G1 X7.507 Y.136 Z1.906 B-9.991 C1013.09 E.038
G1 Y.125 Z1.911 B-10.01 C1020.58 E.033
G1 X7.513 Y.164 Z1.914 B-10.003 C1028.097 E.035
G1 X7.505 Y.125 Z1.92 B-10.004 C1036.842 E.038
G1 X7.508 Y.152 Z1.925 B-10.01 C1044.395 E.035
G1 X7.509 Y.13 Z1.929 B-9.998 C1052.979 E.038
G1 X7.507 Y.129 Z1.932 B-9.994 C1059.899 E.031
G1 X7.508 Y.167 Z1.938 B-10.009 C1067.063 E.033
G1 Y.156 Z1.944 B-10.012 C1075.347 E.037
G1 X7.515 Y.116 Z1.947 B-10.004 C1084.409 E.039
G1 X7.507 Y.12 Z1.95 B-10. C1092.489 E.036
G1 X7.509 Y.143 Z1.955 B-10.007 C1099.479 E.032
G1 Y.127 Z1.96 B-10.002 C1107.697 E.036
G1 X7.508 Y.109 Z1.964 B-10.001 C1116.613 E.039
G1 X7.514 Y.147 Z1.968 B-10.008 C1123.743 E.033
G1 X7.515 Y.151 Z1.972 B-10.004 C1129.906 E.028
G1 X7.507 Y.119 Z1.976 B-10.003 C1137.887 E.035
G1 Y.12 Z1.98 B-10.006 C1145.365 E.034
G1 X7.512 Y.171 Z1.984 B-10.003 C1153.207 E.037
G1 X7.508 Y.15 Z1.99 B-10.012 C1160.121 E.03
G1 X7.511 Y.114 Z1.993 B-10.004 C1168.171 E.035
G1 X7.508 Y.134 Z1.997 B-9.998 C1176.125 E.036
G1 X7.514 Y.153 Z2.002 B-10.004 C1184.955 E.04
G1 X7.507 Y.108 Z2.007 B-10.003 C1193.31 E.036
G1 X7.514 Y.13 Z2.011 B-10.005 C1202.038 E.04
G1 X7.512 Y.161 Z2.015 B-10.003 C1208.391 E.03
G1 X7.509 Y.122 Z2.02 B-10.006 C1215.416 E.03
G1 X7.506 Y.111 Z2.023 B-10.005 C1223.802 E.037
G1 X7.514 Y.166 Z2.028 B-10.005 C1231.327 E.036
G1 X7.507 Y.151 Z2.032 B-9.996 C1239.126 E.035
G1 X7.508 Y.109 Z2.038 B-10.009 C1247.133 E.035
G1 X7.513 Y.14 Z2.041 B-10.002 C1254.323 E.033
G1 X7.508 Y.122 Z2.046 B-10.01 C1261.509 E.032
G1 X7.514 Y.125 Z2.049 B-10.001 C1269.219 E.035
G1 X7.509 Y.118 Z2.055 B-10.007 C1276.344 E.032
G1 X7.508 Y.12 Z2.057 B-10.001 C1284.753 E.038
G1 X7.511 Y.148 Z2.062 B-10.001 C1292.859 E.037
G1 X7.506 Y.085 Z2.068 B-10.013 C1301.208 E.035
G1 X7.507 Y.121 Z2.07 B-10.004 C1308.434 E.034
G1 X7.51 Y.172 Z2.075 B-10.003 C1316.323 E.037
G1 X7.507 Y.153 Z2.079 B-9.995 C1323.425 E.031
G1 Y.089 Z2.084 B-10.011 C1329.908 E.027
G1 X7.516 Y.117 Z2.087 B-10.002 C1338.68 E.04
G1 X7.508 Y.095 Z2.094 B-10.011 C1346.545 E.035
G1 X7.513 Y.08 Z2.095 B-10. C1350.067 E.015
G1 X7.509 Y.095 Z2.097 B-9.994 C1356.216 E.028
G1 Y.126 Z2.101 B-10.005 C1363.755 E.035
G1 X7.507 Y.175 Z2.106 B-9.997 C1372.199 E.04
G1 X7.506 Y.119 Z2.112 B-10.012 C1379.112 E.029
G1 X7.509 Y.098 Z2.113 B-10.004 C1386.951 E.035
G1 X7.514 Y.143 Z2.118 B-10.003 C1394.212 E.034
G1 X7.506 Y.134 Z2.123 B-9.996 C1402.754 E.038
G1 Y.087 Z2.128 B-10.009 C1408.95 E.026
G1 X7.509 Y.113 Z2.13 B-10.004 C1416.185 E.033
G1 X7.512 Y.161 Z2.134 B-10.003 C1423.303 E.034
G1 X7.508 Y.123 Z2.14 B-10.009 C1430.385 E.031
G1 Y.115 Z2.144 B-10.011 C1437.245 E.031
G1 X7.513 Y.108 Z2.146 B-10.001 C1444.839 E.034
G1 X7.507 Y.119 Z2.151 B-10.004 C1452.546 E.035
G1 X7.512 Y.142 Z2.155 B-10.002 C1461.06 E.039
G1 X7.506 Y.097 Z2.161 B-10.005 C1469.4 E.036
G1 X7.508 Y.113 Z2.163 B-10.003 C1476.835 E.034
G1 X7.513 Y.155 Z2.167 B-10.003 C1484.12 E.034
G1 X7.506 Y.143 Z2.172 B-9.994 C1492.678 E.038
G1 Y.107 Z2.177 B-10.003 C1498.799 E.026
G1 X7.508 Y.131 Z2.18 B-10.003 C1506.045 E.033
G1 X7.512 Y.18 Z2.184 B-10.003 C1513.16 E.034
G1 X7.508 Y.134 Z2.19 B-10.011 C1520.21 E.03
G1 X7.513 Y.12 Z2.193 B-10.001 C1529.56 E.042
G1 X7.507 Z2.198 B-10.006 C1537.271 E.035
G1 X7.512 Y.16 Z2.202 B-10.002 C1545.292 E.038
G1 X7.507 Y.127 Z2.208 B-10.013 C1552.486 E.031
G1 Y.09 Z2.209 B-9.989 C1559.321 E.03
G1 X7.506 Y.143 Z2.212 B-9.992 C1565.659 E.03
G1 X7.515 Y.133 Z2.218 B-10.002 C1574.016 E.037
G1 X7.506 Y.136 Z2.222 B-9.994 C1582.293 E.037
G1 Y.158 Z2.225 B-9.99 C1588.436 E.028
G1 X7.51 Y.168 Z2.23 B-10.002 C1596.249 E.036
G1 X7.515 Y.171 Z2.234 B-10.003 C1602.772 E.03
G1 X7.507 Y.129 Z2.24 B-10.006 C1611.541 E.038
G1 X7.515 Y.142 Z2.243 B-10.002 C1618.955 E.034
G1 X7.507 Y.129 Z2.249 B-10.008 C1626.348 E.033
G1 X7.515 Y.143 Z2.252 B-10.002 C1634.92 E.039
G1 X7.506 Y.123 Z2.258 B-10.01 C1643.22 E.037
G1 X7.51 Z2.26 B-10.001 C1651.357 E.037
G1 X7.508 Y.152 Z2.265 B-10.001 C1659.241 E.037
G1 X7.505 Y.16 Z2.268 B-9.991 C1666.633 E.034
G1 X7.507 Y.169 Z2.273 B-10.001 C1674.145 E.034
G1 X7.506 Y.18 Z2.278 B-9.997 C1683.211 E.041
G1 X7.508 Y.155 Z2.282 B-10. C1691.289 E.036
G1 Y.107 Z2.29 B-10.01 C1700.462 E.04
G1 X7.51 Y.109 Z2.292 B-9.999 C1707.734 E.033
G1 X7.512 Y.134 Z2.293 B-10.001 C1709.678 E.01
G1 X7.508 Y.106 Z2.299 B-10.011 C1716.286 E.029
G1 X7.509 Y.104 Z2.3 B-9.999 C1723.564 E.033
G1 X7.516 Y.123 Z2.307 B-10.001 C1730.701 E.033
G1 X7.507 Y.081 Z2.308 B-9.989 C1739.384 E.038
G1 Y.131 Z2.313 B-10. C1746.342 E.033
G1 X7.512 Y.175 Z2.317 B-10.003 C1754.101 E.037
G1 X7.505 Y.172 Z2.322 B-9.993 C1762.832 E.039
G1 X7.512 Y.154 Z2.327 B-10.003 C1771.118 E.037
G1 X7.506 Y.171 Z2.331 B-9.993 C1779.735 E.04
G1 X7.515 Y.164 Z2.339 B-10.002 C1788.319 E.039
G1 X7.508 Y.129 Z2.344 B-10.012 C1797.089 E.039
G1 X7.512 Y.158 Z2.346 B-10.002 C1804.478 E.034
G1 X7.507 Y.149 Z2.352 B-10.012 C1811.093 E.03
G1 X7.509 Y.115 Z2.353 B-10.001 C1819.474 E.037
G1 X7.512 Y.169 Z2.357 B-10.003 C1826.614 E.034
G1 X7.515 Y.136 Z2.361 B-10.002 C1832.182 E.024
G1 X7.506 Y.129 Z2.365 B-9.992 C1840.435 E.037
G1 X7.505 Y.156 Z2.368 B-9.991 C1847.043 E.031
G1 X7.509 Y.16 Z2.373 B-10.002 C1854.531 E.034
G1 X7.513 Y.14 Z2.378 B-10.003 C1861.228 E.03
G1 X7.507 Y.143 Z2.381 B-9.994 C1869.709 E.039
G1 Y.165 Z2.385 B-9.993 C1875.769 E.028
G1 X7.515 Y.117 Z2.392 B-10.001 C1883.842 E.035
G1 X7.508 Y.126 Z2.394 B-9.993 C1891.847 E.037
G1 X7.515 Y.112 Z2.4 B-10.002 C1899.523 E.034
G1 X7.507 Y.108 Z2.402 B-9.993 C1907.421 E.036
G1 X7.508 Y.122 Z2.408 B-10.003 C1914.96 E.035
G1 X7.516 Y.105 Z2.412 B-10.001 C1922.41 E.033
G1 X7.507 Y.099 Z2.415 B-9.992 C1930.658 E.037
G1 X7.506 Y.141 Z2.418 B-9.99 C1937.153 E.031
G1 X7.509 Y.149 Z2.423 B-10.001 C1944.615 E.034
G1 X7.513 Y.126 Z2.428 B-10.002 C1951.33 E.03
G1 X7.507 Y.113 Z2.431 B-9.993 C1959.77 E.038
G1 Y.156 Z2.435 B-9.992 C1965.836 E.029
G1 X7.515 Y.139 Z2.442 B-10.002 C1973.828 E.036
G1 X7.508 Y.127 Z2.444 B-9.992 C1981.838 E.036
G1 X7.515 Y.134 Z2.45 B-10.002 C1989.511 E.035
G1 X7.508 Y.085 Z2.452 B-9.993 C1997.593 E.035
G1 Y.134 Z2.457 B-10.001 C2004.876 E.035
G1 X7.516 Y.101 Z2.463 B-10.001 C2012.441 E.033
G1 X7.507 Y.067 Z2.465 B-9.99 C2020.81 E.037
G1 X7.506 Y.126 Z2.468 B-9.988 C2027.261 E.031
G1 X7.509 Y.138 Z2.473 B-10.001 C2034.7 E.034
G1 X7.513 Y.112 Z2.479 B-10.002 C2041.435 E.03
G1 X7.508 Y.083 Z2.481 B-9.992 C2049.992 E.038
G1 Y.158 Z2.485 B-9.998 C2056.674 E.033
G1 X7.515 Y.161 Z2.492 B-10.002 C2063.674 E.032
G1 X7.512 Y.111 Z2.494 B-10. C2069.853 E.026
G1 X7.507 Y.147 Z2.497 B-9.997 C2076.617 E.032
G1 X7.509 Y.099 Z2.503 B-10.008 C2083.934 E.032
G1 X7.513 Y.13 Z2.504 B-10.004 C2090.238 E.03
G1 X7.506 Y.154 Z2.508 B-9.994 C2098.361 E.038
G1 Y.077 Z2.514 B-10.013 C2105.252 E.029
G1 X7.507 Y.099 Z2.516 B-10.002 C2112.193 E.032
G1 X7.514 Y.164 Z2.52 B-10.004 C2119.652 E.036
G1 X7.506 Y.147 Z2.525 B-9.994 C2127.917 E.037
G1 Y.101 Z2.53 B-10.012 C2134.516 E.028
G1 X7.513 Y.136 Z2.533 B-10.005 C2142.627 E.038
G1 X7.514 Y.188 Z2.537 B-10.005 C2148.063 E.026
G1 X7.507 Y.138 Z2.544 B-10.013 C2156.852 E.038
G1 X7.512 Y.124 Z2.546 B-10.001 C2164.896 E.036
G1 X7.507 Y.104 Z2.551 B-10.011 C2172.232 E.033
G1 X7.513 Y.121 Z2.554 B-10.005 C2180.39 E.038
G1 X7.506 Y.153 Z2.559 B-9.997 C2188.445 E.038
G1 X7.507 Y.097 Z2.565 B-10.01 C2196.638 E.035
G1 X7.513 Y.122 Z2.567 B-10.005 C2203.771 E.033
G1 X7.515 Y.148 Z2.571 B-10.004 C2209.859 E.029
G1 X7.506 Y.144 Z2.575 B-9.997 C2218.017 E.037
G1 X7.507 Y.121 Z2.581 B-10.01 C2225.861 E.035
G1 X7.513 Y.132 Z2.583 B-10.005 C2232.738 E.032
G1 X7.515 Y.157 Z2.587 B-10.004 C2238.376 E.026
G1 X7.508 Y.124 Z2.592 B-10.002 C2247.091 E.039
G1 X7.515 Y.129 Z2.596 B-10.004 C2254.283 E.033
G1 X7.507 Y.118 Z2.6 B-10.003 C2261.928 E.034
G1 X7.514 Y.111 Z2.604 B-10.005 C2270.54 E.039
G1 X7.509 Y.137 Z2.608 B-9.998 C2277.7 E.033
G1 X7.505 Y.109 Z2.613 B-10.009 C2285.197 E.033
G1 X7.507 Y.104 Z2.616 B-10.005 C2292.322 E.032
G1 X7.509 Y.126 Z2.621 B-9.997 C2301.406 E.042
G1 X7.506 Y.13 Z2.625 B-9.999 C2308.206 E.031
G1 X7.507 Y.132 Z2.63 B-10.01 C2315.87 E.035
G1 X7.514 Y.128 Z2.633 B-10.005 C2322.847 E.032
G1 X7.515 Y.143 Z2.637 B-10.005 C2328.554 E.027
G1 X7.508 Y.134 Z2.641 B-10.002 C2336.095 E.034
G1 X7.51 Y.123 Z2.645 B-10.006 C2343.264 E.032
G1 X7.507 Y.121 Z2.649 B-9.999 C2351.975 E.04
G1 X7.514 Y.102 Z2.654 B-10.005 C2360.691 E.039
G1 X7.509 Y.119 Z2.658 B-9.996 C2367.916 E.034
G1 X7.505 Z2.663 B-10.006 C2375.21 E.033
G1 X7.507 Y.107 Z2.666 B-10.007 C2382.384 E.032
G1 X7.509 Y.106 Z2.672 B-9.995 C2391.634 E.042
G1 X7.506 Y.115 Z2.675 B-10.001 C2398.398 E.031
G1 X7.507 Y.142 Z2.68 B-10.009 C2405.879 E.035
G1 X7.509 Y.115 Z2.685 B-9.997 C2414.577 E.039
G1 X7.514 Y.138 Z2.689 B-10.002 C2424.132 E.044
G1 X7.512 Y.146 Z2.693 B-10.002 C2429.609 E.025
G1 X7.515 Y.125 Z2.696 B-10.006 C2434.268 E.021
G1 X7.508 Y.121 Z2.699 B-9.99 C2443.112 E.04
G1 Y.148 Z2.706 B-9.998 C2451.994 E.041
G1 X7.505 Y.151 Z2.71 B-10.008 C2459.466 E.034
G1 X7.514 Y.167 Z2.714 B-10.008 C2467.841 E.039
G1 X7.507 Y.159 Z2.718 B-9.998 C2475.368 E.034
G1 Z2.722 B-9.999 C2481.287 E.027
G1 X7.508 Y.157 Z2.725 B-9.999 C2487.179 E.027
G1 X7.505 Z2.729 B-10.009 C2494.682 E.034
G1 X7.509 Y.169 Z2.733 B-10.01 C2501.928 E.033
G1 Y.185 Z2.737 B-10.01 C2507.32 E.025
G1 X7.508 Y.134 Z2.743 B-10.012 C2515.454 E.035
G1 X7.509 Y.075 Z2.744 B-9.997 C2522.768 E.031
G1 Y.133 Z2.75 B-10. C2530.927 E.039
G1 X7.506 Y.145 Z2.754 B-10.009 C2538.035 E.033
G1 X7.514 Y.16 Z2.758 B-10.008 C2546.178 E.038
G1 X7.508 Y.143 Z2.762 B-10. C2553.654 E.034
G1 Y.144 Z2.765 B-10. C2559.559 E.027
G1 Y.148 Z2.769 B-10. C2565.455 E.027
G1 Z2.772 B-10. C2571.377 E.027
G1 Y.146 Z2.775 B-10.001 C2577.27 E.027
G1 X7.505 Y.149 Z2.779 B-10.01 C2584.745 E.034
G1 X7.51 Y.15 Z2.784 B-10.01 C2592.078 E.034
G1 X7.507 Y.121 Z2.788 B-10.001 C2601.039 E.04
G1 X7.513 Y.115 Z2.793 B-10.004 C2608.619 E.034
G1 X7.509 Y.111 Z2.796 B-10.002 C2615.709 E.032
G1 X7.507 Y.128 Z2.8 B-10.002 C2623.098 E.034
G1 X7.508 Y.132 Z2.806 B-10.002 C2632.128 E.041
G1 X7.505 Y.138 Z2.81 B-10.01 C2639.581 E.034
G1 Y.134 Z2.813 B-10.011 C2645.472 E.027
G1 Y.137 Z2.816 B-10.011 C2651.369 E.027
G1 Y.14 Z2.82 B-10.011 C2657.267 E.027
G1 Y.139 Z2.823 B-10.011 C2663.183 E.027
G1 Y.14 Z2.826 B-10.011 C2669.041 E.027
G1 X7.515 Y.144 Z2.831 B-10.007 C2677.333 E.038
G1 X7.507 Y.108 Z2.836 B-10.009 C2686.281 E.04
G1 X7.512 Y.118 Z2.84 B-10.005 C2693.422 E.033
G1 X7.508 Y.108 Z2.844 B-10.001 C2701.799 E.038
G1 X7.515 Y.13 Z2.849 B-10.002 C2709.61 E.036
G1 X7.506 Y.131 Z2.854 B-10.011 C2718.151 E.039
G1 X7.515 Y.142 Z2.858 B-10.007 C2726.324 E.038
G1 X7.508 Y.122 Z2.862 B-10.004 C2733.827 E.034
G1 Z2.866 B-10.004 C2739.73 E.027
G1 Y.126 Z2.869 B-10.004 C2745.629 E.027
G1 Y.125 Z2.872 B-10.004 C2751.553 E.027
G1 Y.124 Z2.876 B-10.004 C2757.445 E.027
G1 X7.505 Y.136 Z2.88 B-10.013 C2764.856 E.034
G1 X7.515 Y.132 Z2.884 B-10.006 C2773.054 E.037
G1 X7.508 Y.112 Z2.889 B-10.01 C2782.176 E.041
G1 X7.512 Y.116 Z2.894 B-10.001 C2789.818 E.035
G1 X7.509 Y.146 Z2.898 B-9.997 C2798.058 E.039
G1 X7.512 Y.174 Z2.902 B-10.01 C2804.427 E.03
G1 X7.51 Y.172 Z2.906 B-10.003 C2811.179 E.031
G1 X7.505 Y.174 Z2.911 B-10.014 C2819.868 E.04
G1 X7.51 Y.17 Z2.916 B-10.002 C2828.675 E.04
G1 X7.504 Y.177 Z2.92 B-10.015 C2837.543 E.041
G1 X7.51 Y.171 Z2.926 B-10.002 C2846.39 E.04
G1 X7.505 Y.175 Z2.93 B-10.015 C2855.084 E.04
G1 X7.51 Y.178 Z2.935 B-10.003 C2863.476 E.039
G1 X7.508 Y.152 Z2.94 B-10.007 C2872.158 E.039
G1 X7.507 Y.138 Z2.945 B-10.01 C2881.243 E.041
G1 X7.508 Y.157 Z2.949 B-10.012 C2887.96 E.031
G1 X7.506 Z2.954 B-10.011 C2897.063 E.042
G1 X7.505 Y.164 Z2.957 B-10.013 C2904.062 E.032
G1 X7.51 Y.16 Z2.962 B-10.002 C2912.764 E.04
G1 X7.505 Y.164 Z2.967 B-10.013 C2921.626 E.041
G1 X7.511 Y.162 Z2.972 B-10.003 C2930.483 E.041
G1 X7.505 Y.163 Z2.977 B-10.012 C2939.314 E.041
G1 X7.511 Y.161 Z2.982 B-10.003 C2947.915 E.039
G1 X7.506 Z2.986 B-10.011 C2956.444 E.039
G1 X7.512 Y.141 Z2.991 B-10.002 C2964.412 E.036
G1 X7.509 Y.12 Z2.995 B-10.003 C2972.81 E.038
G1 X7.506 Y.147 Z3. B-10.01 C2981.509 E.041
G1 Y.158 Z3.004 B-10.011 C2988.471 E.032
G1 X7.511 Y.151 Z3.009 B-10.003 C2996.906 E.039
G1 X7.505 Y.154 Z3.014 B-10.011 C3005.707 E.04
G1 X7.511 Y.15 Z3.019 B-10.002 C3014.565 E.041
G1 X7.505 Y.147 Z3.023 B-10.01 C3021.995 E.034
G1 Y.153 Z3.027 B-10.01 C3029.3 E.034
G1 X7.512 Y.148 Z3.032 B-10.002 C3037.919 E.039
G1 X7.507 Y.15 Z3.036 B-10.009 C3046.441 E.039
G1 X7.513 Y.118 Z3.041 B-10.001 C3054.492 E.036
G1 X7.509 Y.121 Z3.045 B-10.006 C3062.718 E.038
G1 X7.507 Y.14 Z3.05 B-10.009 C3071.472 E.041
G1 X7.506 Y.149 Z3.054 B-10.01 C3078.447 E.032
G1 X7.512 Y.14 Z3.059 B-10.002 C3086.897 E.039
G1 X7.506 Y.137 Z3.063 B-10.009 C3094.249 E.034
G1 X7.505 Y.145 Z3.067 B-10.009 C3101.591 E.034
G1 Y.15 Z3.07 B-10.009 C3107.482 E.027
G1 Y.146 Z3.074 B-10.008 C3113.413 E.027
G1 X7.512 Y.134 Z3.079 B-10.002 C3122.211 E.04
G1 X7.506 Y.143 Z3.083 B-10.008 C3130.723 E.039
G1 X7.513 Y.123 Z3.088 B-10.002 C3139.067 E.038
G1 X7.509 Y.098 Z3.093 B-10.008 C3147.705 E.039
G1 X7.513 Y.084 Z3.094 B-10.003 C3150.033 E.01
G1 X7.508 Y.095 Z3.098 B-10.009 C3156.559 E.03
G1 X7.507 Y.13 Z3.101 B-10.008 C3162.95 E.031
G1 X7.512 Y.138 Z3.106 B-10.002 C3171.101 E.038
G1 X7.505 Y.151 Z3.11 B-10.009 C3179.706 E.04
G1 X7.512 Y.138 Z3.116 B-10.002 C3188.581 E.04
G1 X7.506 Y.144 Z3.12 B-10.009 C3195.968 E.034
G1 X7.505 Y.15 Z3.124 B-10.009 C3203.327 E.034
G1 Y.147 Z3.127 B-10.009 C3209.207 E.027
G1 X7.512 Y.141 Z3.132 B-10.002 C3217.863 E.04
G1 X7.506 Y.145 Z3.136 B-10.009 C3226.36 E.039
G1 X7.515 Y.121 Z3.141 B-10.001 C3234.082 E.035
G1 X7.508 Y.131 Z3.146 B-10.009 C3242.608 E.04
G1 X7.507 Y.125 Z3.15 B-10.009 C3251.492 E.041
G1 X7.506 Y.153 Z3.154 B-10.01 C3258.319 E.032
G1 X7.512 Y.144 Z3.159 B-10.002 C3266.775 E.039
G1 X7.506 Y.142 Z3.163 B-10.01 C3274.116 E.034
G1 X7.505 Y.151 Z3.167 B-10.01 C3281.457 E.034
G1 Y.156 Z3.17 B-10.01 C3287.345 E.027
G1 Y.152 Z3.174 B-10.01 C3293.278 E.027
G1 Y.15 Z3.177 B-10.01 C3299.154 E.027
G1 X7.513 Y.144 Z3.182 B-10.002 C3307.806 E.04
G1 X7.506 Y.148 Z3.186 B-10.01 C3316.303 E.039
G1 X7.513 Y.13 Z3.191 B-10.001 C3324.31 E.036
G1 X7.508 Y.141 Z3.195 B-10.01 C3332.497 E.038
G1 X7.507 Y.14 Z3.2 B-10.009 C3341.348 E.041
G1 X7.506 Y.157 Z3.204 B-10.011 C3348.253 E.032
G1 X7.512 Y.147 Z3.209 B-10.002 C3356.718 E.039
G1 X7.506 Y.144 Z3.213 B-10.01 C3364.068 E.034
G1 X7.504 Y.153 Z3.217 B-10.012 C3371.406 E.034
G1 Y.157 Z3.22 B-10.012 C3377.301 E.027
G1 X7.505 Y.155 Z3.224 B-10.012 C3383.224 E.027
G1 Y.153 Z3.227 B-10.012 C3389.094 E.027
G1 X7.513 Y.147 Z3.232 B-10.002 C3397.747 E.04
G1 X7.506 Y.152 Z3.236 B-10.01 C3406.237 E.039
G1 X7.513 Y.15 Z3.241 B-10.002 C3414.13 E.036
G1 X7.507 Y.165 Z3.245 B-10.011 C3422.293 E.038
G1 X7.513 Y.154 Z3.249 B-10.002 C3429.759 E.034
G1 X7.505 Y.161 Z3.254 B-10.012 C3438.19 E.039
G1 X7.513 Y.15 Z3.259 B-10.002 C3446.662 E.039
G1 X7.506 Y.146 Z3.263 B-10.011 C3454.018 E.034
G1 X7.504 Y.155 Z3.267 B-10.013 C3461.356 E.034
G1 Y.159 Z3.27 B-10.013 C3467.253 E.027
G1 Y.157 Z3.274 B-10.013 C3473.173 E.027
G1 X7.505 Y.156 Z3.277 B-10.013 C3479.04 E.027
G1 Y.158 Z3.28 B-10.013 C3484.797 E.027
G1 X7.513 Y.149 Z3.285 B-10.002 C3493.317 E.039
G1 X7.507 Y.16 Z3.288 B-10.011 C3500.32 E.033
G1 Y.177 Z3.292 B-10.012 C3507.016 E.032
G1 X7.511 Y.164 Z3.294 B-10.004 C3509.488 E.011
G1 X7.508 Y.116 Z3.299 B-10.009 C3518.162 E.039
G1 X7.511 Y.084 Z3.303 B-10.004 C3526.263 E.036
G1 X7.508 Y.101 Z3.308 B-10.01 C3535.012 E.041
G1 X7.51 Y.087 Z3.312 B-10.004 C3543.493 E.039
G1 X7.505 Y.093 Z3.317 B-10.012 C3551.016 E.035
G1 X7.507 Y.105 Z3.321 B-10.011 C3558.523 E.035
G1 X7.511 Y.09 Z3.325 B-10.004 C3567.107 E.039
G1 X7.507 Y.111 Z3.33 B-10.011 C3576.004 E.042
G1 X7.511 Y.102 Z3.335 B-10.003 C3584.17 E.037
G1 X7.508 Y.139 Z3.339 B-10.007 C3592.355 E.039
G1 X7.512 Y.093 Z3.344 B-10.003 C3600.159 E.035
G1 X7.508 Y.122 Z3.348 B-10.006 C3607.944 E.037
G1 X7.51 Z3.353 B-10.004 C3615.999 E.037
G1 X7.507 Y.123 Z3.357 B-10.01 C3624.863 E.041
G1 X7.51 Y.112 Z3.362 B-10.003 C3633.317 E.039
G1 X7.505 Y.115 Z3.366 B-10.012 C3640.864 E.035
G1 X7.506 Y.13 Z3.371 B-10.012 C3648.348 E.035
G1 X7.51 Y.118 Z3.375 B-10.003 C3656.917 E.039
G1 X7.507 Y.135 Z3.38 B-10.011 C3665.839 E.042
G1 X7.511 Y.124 Z3.385 B-10.003 C3674.023 E.038
G1 X7.509 Y.125 Z3.389 B-10.01 C3682.685 E.04
G1 Y.123 Z3.393 B-10.007 C3690.514 E.036
G1 X7.508 Y.143 Z3.398 B-10.011 C3697.98 E.035
G1 X7.51 Y.133 Z3.402 B-10.003 C3705.927 E.036
G1 X7.507 Y.145 Z3.407 B-10.011 C3714.713 E.041
G1 X7.51 Y.138 Z3.412 B-10.002 C3723.138 E.039
G1 X7.505 Y.137 Z3.416 B-10.012 C3730.713 E.035
G1 X7.506 Y.153 Z3.42 B-10.013 C3738.185 E.035
G1 X7.51 Y.146 Z3.425 B-10.002 C3746.721 E.039
G1 X7.506 Y.159 Z3.43 B-10.013 C3755.675 E.042
G1 X7.51 Y.151 Z3.434 B-10.002 C3763.836 E.038
G1 X7.509 Y.142 Z3.439 B-10.01 C3772.569 E.04
G1 Y.128 Z3.443 B-10.006 C3780.478 E.036
G1 X7.508 Y.158 Z3.448 B-10.012 C3787.879 E.035
G1 X7.51 Z3.452 B-10.002 C3795.757 E.037
G1 X7.506 Y.166 Z3.457 B-10.012 C3804.564 E.041
G1 X7.509 Y.164 Z3.462 B-10.002 C3812.957 E.039
G1 X7.504 Y.159 Z3.466 B-10.012 C3820.561 E.035
G1 X7.505 Y.178 Z3.47 B-10.015 C3828.015 E.035
G1 X7.509 Y.174 Z3.475 B-10.002 C3836.528 E.039
G1 X7.506 Y.183 Z3.48 B-10.014 C3845.515 E.042
G1 X7.51 Y.179 Z3.484 B-10.003 C3853.646 E.038
G1 X7.508 Y.159 Z3.489 B-10.011 C3862.453 E.04
G1 X7.512 Y.132 Z3.492 B-10.006 C3869.714 E.033
G1 X7.507 Y.119 Z3.497 B-10.011 C3877.295 E.035
G1 X7.509 Y.116 Z3.501 B-10.01 C3883.89 E.031
G1 X7.51 Y.132 Z3.505 B-10.001 C3891.591 E.036
G1 X7.505 Y.122 Z3.509 B-10.011 C3899.737 E.037
G1 Y.12 Z3.513 B-10.011 C3905.621 E.027
G1 Y.124 Z3.516 B-10.012 C3911.5 E.027
G1 Y.131 Z3.519 B-10.012 C3917.379 E.028
G1 Y.129 Z3.522 B-10.011 C3923.3 E.027
G1 Y.13 Z3.526 B-10.012 C3929.156 E.027
G1 Y.137 Z3.529 B-10.011 C3934.889 E.027
G1 X7.513 Y.148 Z3.533 B-10.007 C3942.771 E.037
G1 X7.512 Y.155 Z3.537 B-10.004 C3948.847 E.029
G1 X7.507 Y.119 Z3.542 B-10.013 C3956.916 E.036
G1 X7.514 Y.123 Z3.545 B-10.005 C3964.118 E.034
G1 X7.508 Y.134 Z3.55 B-9.998 C3973.29 E.043
G1 Y.122 Z3.555 B-10.001 C3982.215 E.041
G1 Y.13 Z3.558 B-10.001 C3987.918 E.027
G1 Y.127 Z3.561 B-10.001 C3993.788 E.027
G1 Y.129 Z3.565 B-10.001 C3999.68 E.027
G1 Y.137 Z3.568 B-10.001 C4005.546 E.028
G1 Z3.571 B-10.001 C4011.465 E.028
G1 Y.135 Z3.574 B-10.001 C4017.36 E.027
G1 Y.144 Z3.578 B-10.001 C4023.113 E.027
G1 X7.506 Y.152 Z3.581 B-10.002 C4030.527 E.035
G1 X7.513 Y.132 Z3.587 B-10.003 C4039.003 E.039
G1 X7.509 Y.114 Z3.59 B-9.994 C4046.963 E.036
G1 Y.132 Z3.596 B-10.001 C4055.586 E.041
G1 Y.144 Z3.6 B-10.005 C4063.678 E.038
G1 X7.51 Y.111 Z3.605 B-10.004 C4071.725 E.036
G1 X7.508 Y.105 Z3.608 B-9.998 C4078.101 E.029
G1 Y.131 Z3.611 B-9.999 C4083.766 E.027
G1 Y.141 Z3.614 B-9.999 C4089.596 E.027
G1 X7.507 Y.15 Z3.618 B-10. C4095.461 E.028
G1 Y.151 Z3.621 B-9.999 C4101.374 E.028
G1 X7.508 Y.149 Z3.624 B-9.999 C4107.268 E.027
G1 Y.159 Z3.627 B-10. C4113.014 E.027
G1 X7.506 Y.16 Z3.631 B-9.996 C4120.467 E.035
G1 X7.516 Y.106 Z3.637 B-10.001 C4128.758 E.037
G1 X7.509 Y.094 Z3.64 B-9.992 C4137.105 E.038
G1 Y.139 Z3.646 B-9.999 C4145.534 E.041
G1 X7.514 Y.153 Z3.651 B-10.005 C4154.708 E.043
G1 X7.506 Y.08 Z3.656 B-10.012 C4163.258 E.037
G1 X7.505 Y.117 Z3.658 B-10.007 C4169.784 E.032
G1 Y.144 Z3.662 B-10.008 C4175.457 E.027
G1 X7.504 Y.151 Z3.665 B-10.008 C4181.322 E.028
G1 Y.159 Z3.668 B-10.008 C4187.191 E.028
G1 Y.157 Z3.672 B-10.008 C4193.111 E.028
G1 X7.505 Z3.675 B-10.008 C4198.977 E.027
G1 Y.169 Z3.678 B-10.008 C4204.669 E.027
G1 X7.513 Y.168 Z3.683 B-10.004 C4212.624 E.037
G1 X7.508 Y.071 Z3.688 B-10.009 C4221.201 E.037
G1 X7.513 Y.106 Z3.69 B-10. C4228.761 E.036
G1 X7.512 Y.115 Z3.691 B-10.001 C4229.838 E.005
G1 X7.507 Y.145 Z3.696 B-10.006 C4236.709 E.033
G1 X7.514 Y.156 Z3.701 B-10.004 C4245.039 E.039
G1 X7.507 Y.127 Z3.706 B-10.012 C4252.286 E.033
G1 Y.09 Z3.708 B-10.005 C4260.535 E.037
G1 X7.515 Y.093 Z3.713 B-10.003 C4268.375 E.037
G1 Y.106 Z3.716 B-10.004 C4274.208 E.028
G1 Y.11 Z3.719 B-10.004 C4280.1 E.028
G1 Y.107 Z3.723 B-10.004 C4286.008 E.028
G1 Y.117 Z3.726 B-10.004 C4291.765 E.027
G1 X7.514 Y.146 Z3.729 B-10.005 C4297.3 E.027
G1 Y.158 Z3.733 B-10.004 C4303.042 E.027
G1 X7.515 Y.155 Z3.74 B-9.999 C4313.733 E.05
G1 X7.508 Y.127 Z3.742 B-9.993 C4321.731 E.036
G1 X7.515 Y.137 Z3.749 B-10. C4329.512 E.037
G1 X7.51 Y.075 Z3.751 B-9.995 C4336.88 E.032
G1 X7.506 Y.098 Z3.754 B-9.998 C4343.537 E.032
G1 X7.507 Y.114 Z3.758 B-10.005 C4350.768 E.034
G1 X7.515 Y.117 Z3.762 B-10.004 C4358.199 E.035
G1 Y.126 Z3.766 B-10.004 C4364.053 E.028
G1 Y.131 Z3.769 B-10.005 C4369.939 E.028
G1 Y.128 Z3.772 B-10.004 C4375.851 E.028
G1 X7.514 Y.136 Z3.776 B-10.005 C4381.628 E.027
G1 Y.158 Z3.779 B-10.005 C4387.213 E.027
G1 Y.163 Z3.782 B-10.004 C4393.005 E.027
G1 X7.508 Y.123 Z3.787 B-10.01 C4400.118 E.032
G1 X7.511 Y.126 Z3.79 B-10.001 C4408.224 E.038
G1 X7.509 Y.123 Z3.796 B-10.003 C4415.634 E.035
G1 X7.51 Y.134 Z3.799 B-10.002 C4423.921 E.039
G1 X7.507 Y.114 Z3.805 B-10.012 C4432.379 E.039
G1 Y.108 Z3.807 B-9.994 C4438.63 E.029
G1 X7.506 Y.121 Z3.81 B-9.995 C4445.012 E.03
G1 Y.129 Z3.813 B-9.995 C4450.86 E.028
G1 X7.505 Y.14 Z3.817 B-9.995 C4456.714 E.028
G1 X7.506 Y.141 Z3.82 B-9.995 C4462.621 E.028
G1 Y.139 Z3.823 B-9.994 C4468.497 E.027
G1 X7.507 Y.156 Z3.828 B-10.004 C4475.696 E.034
G1 X7.514 Y.166 Z3.832 B-10.004 C4482.981 E.034
G1 X7.515 Y.122 Z3.836 B-10.005 C4488.649 E.025
G1 X7.509 Y.107 Z3.839 B-9.992 C4496.425 E.036
G1 X7.516 Y.122 Z3.845 B-10.001 C4504.294 E.037
G1 X7.508 Y.113 Z3.848 B-9.991 C4512.178 E.037
G1 X7.513 Y.118 Z3.854 B-10.003 C4520.293 E.038
G1 X7.509 Y.107 Z3.857 B-9.996 C4528.075 E.036
G1 X7.506 Y.145 Z3.86 B-9.992 C4534.83 E.033
G1 X7.505 Y.153 Z3.863 B-9.992 C4540.686 E.028
G1 Y.163 Z3.866 B-9.992 C4546.54 E.028
G1 Y.164 Z3.87 B-9.992 C4552.447 E.028
G1 X7.506 Y.162 Z3.873 B-9.992 C4558.331 E.027
G1 X7.507 Y.166 Z3.877 B-10.002 C4565.613 E.034
G1 X7.514 Y.17 Z3.882 B-10.004 C4572.948 E.034
G1 X7.515 Y.111 Z3.886 B-10.006 C4578.723 E.025
G1 X7.509 Y.108 Z3.889 B-9.992 C4586.425 E.036
G1 X7.512 Y.125 Z3.891 B-10.001 C4589.788 E.016
G1 X7.515 Y.073 Z3.898 B-10. C4599.7 E.045
G1 X7.514 Y.126 Z3.9 B-10.002 C4605.397 E.028
G1 X7.505 Y.15 Z3.905 B-10.012 C4613.376 E.038
G1 X7.515 Y.104 Z3.909 B-10.002 C4622.561 E.041
G1 X7.506 Y.107 Z3.913 B-9.989 C4631.003 E.04
G1 Y.117 Z3.916 B-9.989 C4636.86 E.028
G1 Y.116 Z3.92 B-9.989 C4642.779 E.028
G1 X7.508 Y.118 Z3.924 B-10.001 C4650.372 E.036
G1 X7.514 Y.136 Z3.929 B-10.003 C4657.711 E.035
G1 Y.148 Z3.932 B-10.003 C4663.24 E.026
G1 X7.506 Y.182 Z3.937 B-10.009 C4671.239 E.039
G1 X7.514 Y.143 Z3.942 B-10.002 C4679.18 E.036
G1 X7.508 Y.135 Z3.946 B-9.999 C4687.798 E.04
G1 X7.512 Y.086 Z3.951 B-10. C4696.01 E.037
G1 X7.507 Y.1 Z3.953 B-9.989 C4703.494 E.036
G1 X7.508 Y.111 Z3.958 B-10.001 C4710.956 E.035
G1 X7.514 Y.115 Z3.962 B-10.002 C4718.568 E.036
G1 X7.506 Y.118 Z3.966 B-9.989 C4726.855 E.039
G1 Y.117 Z3.97 B-9.989 C4732.775 E.028
G1 X7.508 Y.118 Z3.974 B-10.001 C4740.371 E.036
G1 X7.514 Y.139 Z3.979 B-10.003 C4747.691 E.035
G1 X7.513 Y.153 Z3.982 B-10.003 C4753.203 E.026
G1 X7.506 Y.14 Z3.987 B-10.01 C4761.146 E.037
G1 X7.513 Y.16 Z3.991 B-10.003 C4769.139 E.038
G1 X7.507 Y.117 Z3.997 B-10.009 C4777.647 E.039
G1 X7.513 Y.131 Z4. B-10.002 C4785.361 E.037
G1 X7.505 Y.119 Z4.005 B-10.01 C4793.594 E.038
G1 X7.515 Y.107 Z4.009 B-10.003 C4802.533 E.042
G1 X7.506 Y.108 Z4.013 B-9.989 C4811. E.04
G1 Y.118 Z4.016 B-9.989 C4816.855 E.028
G1 Z4.02 B-9.989 C4822.771 E.028
G1 X7.508 Y.119 Z4.024 B-10.001 C4830.365 E.036
G1 X7.514 Y.142 Z4.028 B-10.003 C4837.668 E.035
G1 X7.513 Y.156 Z4.032 B-10.003 C4843.184 E.026
G1 X7.507 Y.12 Z4.037 B-10.009 C4851.284 E.037
G1 X7.513 Y.169 Z4.041 B-10.004 C4859.073 E.038
G1 X7.507 Y.139 Z4.047 B-10.009 C4867.49 E.039
G1 X7.513 Y.133 Z4.05 B-10.002 C4875.347 E.037
G1 X7.505 Y.102 Z4.055 B-10.01 C4883.707 E.038
G1 X7.515 Y.109 Z4.059 B-10.003 C4892.52 E.042
G1 X7.506 Y.108 Z4.063 B-9.989 C4900.996 E.04
G1 Y.119 Z4.066 B-9.99 C4906.85 E.028
G1 Y.118 Z4.07 B-9.99 C4912.769 E.028
G1 X7.508 Z4.074 B-10.001 C4920.366 E.036
G1 X7.514 Y.144 Z4.078 B-10.003 C4927.655 E.035
G1 X7.513 Y.159 Z4.082 B-10.003 C4933.159 E.026
G1 X7.507 Y.099 Z4.087 B-10.009 C4941.427 E.037
G1 X7.512 Y.135 Z4.09 B-10.003 C4948.558 E.035
G1 Y.142 Z4.091 B-10.001 C4949.669 E.005
G1 X7.508 Y.085 Z4.097 B-10.009 C4957.92 E.037
G1 X7.515 Y.121 Z4.099 B-10.003 C4965.217 E.036
G1 X7.507 Y.107 Z4.104 B-10.011 C4972.412 E.033
G1 X7.508 Y.118 Z4.107 B-9.994 C4978.277 E.028
G1 X7.506 Y.154 Z4.11 B-9.991 C4984.693 E.031
G1 X7.505 Y.158 Z4.113 B-9.992 C4990.575 E.028
G1 Y.167 Z4.116 B-9.992 C4996.444 E.028
G1 Y.164 Z4.12 B-9.993 C5002.379 E.028
G1 X7.506 Y.158 Z4.123 B-9.993 C5008.289 E.028
G1 X7.507 Y.165 Z4.127 B-10.003 C5015.581 E.035
G1 X7.514 Y.168 Z4.132 B-10.004 C5022.905 E.035
G1 X7.507 Y.16 Z4.137 B-10.01 C5030.063 E.033
G1 Y.142 Z4.141 B-10.009 C5036.615 E.03
G1 X7.513 Y.151 Z4.144 B-10.002 C5044.532 E.038
G1 X7.507 Y.128 Z4.149 B-10.009 C5051.307 E.031
G1 X7.509 Y.083 Z4.151 B-9.996 C5056.811 E.024
G1 X7.506 Y.138 Z4.153 B-9.993 C5063.681 E.034
G1 Z4.157 B-9.992 C5068.945 E.025
G1 Y.127 Z4.16 B-9.996 C5074.879 E.028
G1 X7.507 Y.136 Z4.164 B-10.004 C5082.349 E.035
G1 X7.514 Y.153 Z4.169 B-10.005 C5089.763 E.035
G1 Y.145 Z4.172 B-10.005 C5095.706 E.028
G1 Y.149 Z4.175 B-10.005 C5101.513 E.027
G1 Y.165 Z4.178 B-10.005 C5107.136 E.027
G1 Z4.182 B-10.004 C5112.928 E.027
G1 X7.511 Y.115 Z4.188 B-10.002 C5123.073 E.046
G1 X7.508 Y.136 Z4.192 B-9.994 C5131.788 E.042
G1 X7.512 Y.124 Z4.198 B-10.004 C5140.179 E.039
G1 X7.515 Y.143 Z4.2 B-10.003 C5145.073 E.024
G1 X7.507 Y.118 Z4.205 B-10.01 C5152.332 E.033
G1 X7.509 Y.096 Z4.207 B-9.995 C5158.162 E.027
G1 X7.506 Y.1 Z4.21 B-9.997 C5165.088 E.033
G1 Y.108 Z4.213 B-9.997 C5170.94 E.028
G1 Y.117 Z4.216 B-9.997 C5176.81 E.028
G1 Y.113 Z4.22 B-9.998 C5182.75 E.028
G1 Y.109 Z4.223 B-9.998 C5188.647 E.028
G1 X7.507 Y.139 Z4.227 B-10.006 C5195.778 E.035
G1 X7.514 Y.159 Z4.232 B-10.004 C5202.974 E.035
G1 X7.51 Y.128 Z4.238 B-10.003 C5212.982 E.046
G1 X7.508 Y.15 Z4.242 B-9.993 C5221.683 E.042
G1 X7.511 Y.147 Z4.248 B-10.007 C5230.025 E.039
G1 X7.514 Y.153 Z4.25 B-10.004 C5235. E.024
G1 X7.505 Y.122 Z4.256 B-10.011 C5243.874 E.041
G1 X7.514 Y.087 Z4.259 B-10.004 C5252.318 E.039
G1 X7.515 Y.094 Z4.262 B-10.004 C5258.34 E.029
G1 Y.104 Z4.265 B-10.004 C5264.19 E.028
G1 Y.106 Z4.269 B-10.004 C5270.103 E.028
G1 Y.099 Z4.272 B-10.004 C5276.041 E.028
G1 Y.108 Z4.275 B-10.004 C5281.814 E.028
G1 X7.514 Y.138 Z4.278 B-10.005 C5287.34 E.027
G1 X7.515 Y.153 Z4.282 B-10.004 C5293.013 E.027
G1 X7.51 Y.136 Z4.289 B-10.004 C5302.922 E.046
G1 X7.512 Y.123 Z4.29 B-10.001 C5309.779 E.032
G1 X7.506 Y.141 Z4.297 B-10.023 C5317.685 E.038
G1 X7.508 Y.145 Z4.301 B-9.997 C5326.403 E.041
G1 X7.506 Y.068 Z4.306 B-10.011 C5333.557 E.031
G1 X7.505 Y.099 Z4.308 B-10.005 C5339.911 E.031
G1 X7.504 Y.144 Z4.311 B-10.007 C5345.463 E.028
G1 Y.151 Z4.314 B-10.008 C5351.325 E.028
G1 Y.16 Z4.317 B-10.008 C5357.188 E.028
G1 Y.156 Z4.321 B-10.008 C5363.129 E.028
G1 Y.153 Z4.324 B-10.008 C5369.007 E.028
G1 X7.505 Y.164 Z4.327 B-10.008 C5374.711 E.027
G1 X7.513 Y.163 Z4.332 B-10.005 C5382.603 E.037
G1 X7.507 Y.103 Z4.337 B-10.009 C5391.119 E.038
G1 X7.516 Y.076 Z4.341 B-10.001 C5399.472 E.039
G1 X7.51 Y.126 Z4.343 B-10. C5405.504 E.03
G1 X7.508 Y.113 Z4.35 B-10.008 C5413.496 E.037
G1 X7.515 Y.143 Z4.353 B-10.006 C5420.676 E.035
G1 X7.508 Y.123 Z4.357 B-9.998 C5427.978 E.034
G1 X7.506 Y.099 Z4.361 B-10.009 C5434.688 E.031
G1 X7.504 Y.128 Z4.364 B-10.008 C5441.485 E.033
G1 Y.15 Z4.368 B-10.009 C5447.259 E.028
G1 Y.145 Z4.371 B-10.009 C5453.196 E.028
G1 X7.505 Y.143 Z4.374 B-10.009 C5459.071 E.028
G1 Y.153 Z4.377 B-10.009 C5464.785 E.027
G1 X7.513 Y.156 Z4.382 B-10.006 C5472.647 E.037
G1 X7.508 Y.11 Z4.388 B-10.008 C5482.442 E.045
G1 X7.51 Y.129 Z4.391 B-10.001 C5490.269 E.038
G1 X7.506 Y.134 Z4.396 B-10.016 C5496.846 E.031
G1 X7.513 Y.152 Z4.4 B-10.007 C5504.656 E.038
G1 X7.505 Y.112 Z4.405 B-10.01 C5513.266 E.039
G1 Y.115 Z4.408 B-10.009 C5519.792 E.031
G1 X7.504 Y.127 Z4.411 B-10.01 C5525.577 E.028
G1 Y.133 Z4.414 B-10.01 C5531.449 E.028
G1 Y.141 Z4.418 B-10.01 C5537.32 E.028
G1 Y.136 Z4.421 B-10.01 C5543.257 E.028
G1 X7.505 Y.135 Z4.424 B-10.01 C5549.129 E.028
G1 Y.142 Z4.428 B-10.01 C5554.859 E.027
G1 X7.513 Y.143 Z4.432 B-10.007 C5562.737 E.037
G1 X7.507 Y.13 Z4.437 B-10.009 C5570.877 E.038
G1 X7.513 Y.14 Z4.44 B-10.002 C5578.632 E.037
G1 X7.506 Z4.446 B-10.013 C5586.805 E.039
G1 X7.513 Y.139 Z4.45 B-10.007 C5594.75 E.038
G1 X7.505 Y.127 Z4.455 B-10.01 C5603.171 E.04
G1 Y.124 Z4.458 B-10.011 C5609.733 E.031
G1 Y.119 Z4.461 B-10.011 C5615.632 E.028
G1 X7.504 Y.124 Z4.465 B-10.011 C5621.51 E.028
G1 Y.131 Z4.468 B-10.012 C5627.384 E.028
G1 Y.127 Z4.471 B-10.011 C5633.322 E.028
G1 X7.505 Y.125 Z4.474 B-10.011 C5639.194 E.028
G1 Y.13 Z4.478 B-10.011 C5644.938 E.027
G1 X7.513 Y.132 Z4.482 B-10.007 C5652.819 E.037
G1 X7.506 Y.147 Z4.487 B-10.009 C5660.77 E.038
G1 X7.508 Y.14 Z4.489 B-9.994 C5667.07 E.03
G1 X7.511 Y.148 Z4.49 B-10.004 C5669.611 E.012
G1 X7.507 Y.174 Z4.496 B-10.012 C5677.881 E.04
G1 X7.509 Y.181 Z4.501 B-10.002 C5685.597 E.037
G1 X7.504 Y.17 Z4.505 B-10.012 C5692.968 E.035
G1 X7.505 Y.18 Z4.509 B-10.014 C5700.35 E.035
G1 X7.509 Y.173 Z4.514 B-10.002 C5708.798 E.04
G1 X7.503 Y.17 Z4.518 B-10.012 C5716.436 E.036
G1 X7.505 Y.175 Z4.522 B-10.014 C5724.007 E.036
G1 X7.51 Y.171 Z4.527 B-10.002 C5732.355 E.039
G1 X7.505 Y.164 Z4.531 B-10.011 C5739.734 E.035
G1 X7.507 Y.175 Z4.535 B-10.012 C5746.834 E.034
G1 X7.508 Y.098 Z4.54 B-10.01 C5755.945 E.041
G1 X7.509 Y.075 Z4.542 B-9.998 C5762.644 E.031
G1 X7.512 Y.15 Z4.547 B-10.002 C5769.914 E.037
G1 X7.506 Y.162 Z4.553 B-10.012 C5778.918 E.043
G1 X7.51 Y.159 Z4.557 B-10.002 C5787.11 E.039
G1 X7.504 Y.144 Z4.561 B-10.012 C5794.743 E.036
G1 X7.506 Y.154 Z4.566 B-10.013 C5802.282 E.036
G1 X7.51 Y.152 Z4.57 B-10.002 C5810.745 E.04
G1 X7.504 Y.139 Z4.574 B-10.011 C5818.389 E.036
G1 X7.506 Y.152 Z4.579 B-10.012 C5825.736 E.035
G1 X7.511 Y.138 Z4.583 B-10.002 C5833.867 E.038
G1 X7.509 Y.127 Z4.588 B-10.01 C5842.709 E.042
G1 X7.508 Y.112 Z4.592 B-10.005 C5850.979 E.039
G1 Y.142 Z4.596 B-10.01 C5858.024 E.034
G1 X7.511 Y.136 Z4.601 B-10.002 C5865.831 E.037
G1 X7.505 Y.134 Z4.605 B-10.011 C5873.136 E.035
G1 X7.506 Y.142 Z4.609 B-10.012 C5880.53 E.035
G1 X7.51 Y.12 Z4.614 B-10.002 C5889.079 E.04
G1 X7.504 Y.127 Z4.618 B-10.012 C5896.658 E.036
G1 X7.506 Y.128 Z4.622 B-10.012 C5904.247 E.036
G1 X7.511 Y.117 Z4.627 B-10.002 C5912.643 E.04
G1 X7.506 Y.122 Z4.631 B-10.01 C5919.949 E.035
G1 X7.508 Y.117 Z4.635 B-10.009 C5927.156 E.034
G1 X7.512 Y.096 Z4.639 B-10.002 C5934.872 E.036
G1 X7.508 Y.111 Z4.643 B-10.006 C5942.314 E.036
G1 X7.511 Y.113 Z4.648 B-10.002 C5950.439 E.039
G1 X7.507 Y.123 Z4.653 B-10.01 C5959.107 E.042
G1 X7.511 Y.114 Z4.657 B-10.003 C5967.341 E.039
G1 X7.505 Y.108 Z4.662 B-10.012 C5974.914 E.036
G1 X7.506 Y.107 Z4.666 B-10.011 C5982.526 E.036
G1 X7.511 Y.098 Z4.671 B-10.003 C5991.038 E.04
G1 X7.505 Y.096 Z4.675 B-10.011 C5998.604 E.036
G1 X7.507 Y.107 Z4.679 B-10.01 C6005.972 E.035
G1 X7.512 Y.085 Z4.683 B-10.003 C6014.15 E.038
G1 X7.509 Y.089 Z4.688 B-10.009 C6022.894 E.042
G1 X7.512 Y.115 Z4.692 B-10.003 C6029.854 E.034
G1 X7.507 Y.14 Z4.697 B-10.01 C6037.86 E.039
G1 X7.513 Y.096 Z4.701 B-10.001 C6045.697 E.036
G1 X7.506 Y.101 Z4.705 B-10.011 C6053.053 E.035
G1 Y.114 Z4.709 B-10.011 C6060.526 E.036
G1 X7.513 Y.085 Z4.714 B-10.001 C6068.873 E.039
G1 X7.505 Y.097 Z4.718 B-10.011 C6076.533 E.037
G1 Z4.721 B-10.011 C6082.444 E.028
G1 X7.506 Y.095 Z4.725 B-10.011 C6088.329 E.028
G1 Y.113 Z4.729 B-10.011 C6095.761 E.036
G1 X7.514 Y.101 Z4.733 B-10.001 C6103.679 E.037
G1 X7.507 Y.105 Z4.737 B-10.008 C6110.767 E.034
G1 X7.508 Y.118 Z4.741 B-10.01 C6117.453 E.032
G1 X7.507 Y.139 Z4.746 B-10.01 C6126.159 E.042
G1 Y.13 Z4.75 B-10.011 C6133.267 E.034
G1 X7.513 Y.122 Z4.754 B-10.001 C6141.086 E.037
G1 X7.505 Y.126 Z4.758 B-10.012 C6148.589 E.036
G1 Y.12 Z4.762 B-10.012 C6154.482 E.028
G1 Y.113 Z4.765 B-10.012 C6160.437 E.028
G1 Y.122 Z4.768 B-10.012 C6166.298 E.028
G1 Z4.771 B-10.012 C6172.213 E.028
G1 Y.118 Z4.775 B-10.012 C6178.105 E.028
G1 Y.125 Z4.778 B-10.011 C6183.853 E.028
G1 X7.506 Y.137 Z4.782 B-10.011 C6191.189 E.035
G1 X7.514 Y.128 Z4.786 B-10.001 C6198.906 E.037
G1 X7.507 Y.136 Z4.79 B-10.01 C6205.866 E.033
G1 X7.508 Y.144 Z4.794 B-10.01 C6212.61 E.032
G1 X7.506 Y.142 Z4.799 B-10.011 C6221.444 E.042
G1 Y.152 Z4.803 B-10.012 C6228.637 E.035
G1 X7.513 Y.15 Z4.807 B-10.002 C6236.575 E.038
G1 X7.505 Y.143 Z4.812 B-10.013 C6244.267 E.036
G1 Y.138 Z4.815 B-10.013 C6250.204 E.028
G1 Y.144 Z4.818 B-10.013 C6256.084 E.028
G1 Z4.821 B-10.013 C6261.996 E.028
G1 Y.142 Z4.825 B-10.013 C6267.88 E.028
G1 Y.148 Z4.828 B-10.012 C6273.635 E.028
G1 Y.161 Z4.832 B-10.012 C6280.966 E.035
G1 X7.514 Y.145 Z4.836 B-10.002 C6288.728 E.037
G1 X7.507 Y.139 Z4.84 B-10.01 C6295.781 E.034
G1 Y.148 Z4.844 B-10.011 C6302.524 E.033
G1 X7.506 Y.159 Z4.849 B-10.012 C6311.269 E.042
G1 X7.505 Y.172 Z4.853 B-10.014 C6318.431 E.035
G1 X7.513 Y.174 Z4.857 B-10.004 C6326.35 E.038
G1 X7.504 Y.166 Z4.862 B-10.014 C6334.044 E.037
G1 Y.163 Z4.865 B-10.014 C6339.973 E.028
G1 Y.168 Z4.868 B-10.015 C6345.859 E.028
G1 Z4.871 B-10.014 C6351.772 E.028
G1 Y.165 Z4.875 B-10.014 C6357.659 E.028
G1 X7.505 Y.171 Z4.878 B-10.014 C6363.42 E.028
G1 Y.174 Z4.881 B-10.013 C6369.095 E.027
G1 Y.175 Z4.885 B-10.013 C6376.37 E.035
G1 X7.515 Y.118 Z4.889 B-10.001 C6384.174 E.035
G1 X7.512 Y.113 Z4.892 B-10.005 C6389.89 E.027
G1 X7.506 Y.137 Z4.896 B-10.012 C6396.547 E.033
G1 X7.507 Y.12 Z4.9 B-10.011 C6403.535 E.033
G1 X7.511 Y.095 Z4.904 B-10.005 C6411.626 E.038
G1 X7.505 Y.104 Z4.908 B-10.013 C6419.036 E.036
G1 X7.506 Y.102 Z4.913 B-10.013 C6426.648 E.036
G1 X7.511 Y.086 Z4.917 B-10.005 C6435.111 E.04
G1 X7.505 Y.093 Z4.921 B-10.013 C6442.724 E.037
G1 X7.506 Y.099 Z4.926 B-10.012 C6450.271 E.036
G1 X7.512 Y.09 Z4.93 B-10.004 C6458.451 E.039
G1 X7.506 Y.101 Z4.934 B-10.011 C6465.6 E.035
G1 X7.516 Y.104 Z4.939 B-10.001 C6474.171 E.041
G1 X7.508 Y.111 Z4.943 B-10.01 C6482.872 E.042
G1 X7.512 Y.116 Z4.948 B-10.004 C6490.331 E.036
G1 X7.505 Y.109 Z4.952 B-10.012 C6497.54 E.034
G1 X7.506 Y.112 Z4.956 B-10.013 C6504.886 E.035
G1 X7.511 Y.116 Z4.961 B-10.004 C6513.073 E.039
G1 X7.505 Y.093 Z4.965 B-10.012 C6520.877 E.037
G1 X7.506 Y.108 Z4.969 B-10.012 C6528.446 E.037
G1 X7.512 Y.087 Z4.973 B-10.003 C6536.914 E.04
G1 X7.505 Y.101 Z4.978 B-10.012 C6544.329 E.036
G1 X7.507 Y.107 Z4.982 B-10.011 C6551.637 E.035
G1 X7.512 Y.119 Z4.986 B-10.003 C6559.323 E.037
G1 X7.508 Y.126 Z4.99 B-10.01 C6567.697 E.04
G1 X7.509 Y.133 Z4.994 B-10.007 C6575.455 E.037
G1 X7.505 Y.147 Z4.999 B-10.013 C6581.729 E.031
G1 X7.507 Y.117 Z5.003 B-10.013 C6589.138 E.035
G1 X7.511 Y.112 Z5.007 B-10.003 C6597.26 E.039
G1 X7.504 Y.129 Z5.011 B-10.013 C6604.713 E.036
G1 X7.506 Y.101 Z5.016 B-10.012 C6612.556 E.037
G1 X7.512 Y.095 Z5.02 B-10.002 C6620.965 E.04
G1 X7.505 Y.097 Z5.024 B-10.011 C6628.555 E.036
G1 X7.506 Y.112 Z5.029 B-10.013 C6635.936 E.036
G1 X7.512 Y.099 Z5.033 B-10.002 C6643.989 E.038
G1 X7.507 Y.165 Z5.037 B-10.013 C6652.128 E.041
G1 X7.508 Y.113 Z5.041 B-10.002 C6661.164 E.042
G1 X7.509 Y.163 Z5.046 B-10.005 C6668.386 E.036
G1 X7.505 Y.118 Z5.052 B-10.012 C6677.468 E.042
G1 X7.506 Y.116 Z5.056 B-10.013 C6684.85 E.035
G1 X7.511 Y.156 Z5.06 B-10.003 C6692.784 E.039
G1 X7.505 Y.099 Z5.064 B-10.011 C6700.82 E.037
G1 X7.506 Y.11 Z5.069 B-10.012 C6708.413 E.037
G1 X7.512 Y.093 Z5.073 B-10. C6716.86 E.04
G1 X7.505 Y.106 Z5.078 B-10.012 C6724.282 E.036
G1 X7.507 Y.112 Z5.082 B-10.012 C6731.592 E.035
G1 X7.511 Y.161 Z5.086 B-10.003 C6739.024 E.037
G1 X7.507 Y.173 Z5.09 B-10.013 C6747.367 E.04
G1 X7.511 Y.165 Z5.092 B-10.003 C6749.569 E.01
G1 X7.507 Y.182 Z5.094 B-9.997 C6757.286 E.038
G1 X7.509 Y.106 Z5.101 B-10.004 C6766.36 E.041
G1 X7.507 Y.103 Z5.106 B-10.012 C6775.126 E.042
G1 X7.509 Y.092 Z5.11 B-10.003 C6783.705 E.041
G1 X7.504 Y.093 Z5.114 B-10.011 C6791.197 E.036
G1 X7.506 Y.11 Z5.119 B-10.011 C6798.607 E.036
G1 X7.509 Y.091 Z5.123 B-10.002 C6807.338 E.041
G1 X7.507 Y.116 Z5.129 B-10.013 C6816.094 E.043
G1 X7.51 Y.099 Z5.132 B-10.002 C6824.421 E.039
G1 X7.506 Y.158 Z5.136 B-10.007 C6831.277 E.035
G1 X7.507 Y.112 Z5.141 B-10.013 C6837.539 E.029
G1 X7.512 Y.102 Z5.144 B-10.001 C6845.062 E.036
G1 X7.505 Y.133 Z5.148 B-10.013 C6851.83 E.034
G1 X7.507 Y.116 Z5.152 B-10.012 C6859.318 E.035
G1 X7.509 Y.114 Z5.157 B-10.002 C6867.704 E.04
G1 X7.504 Z5.161 B-10.01 C6875.138 E.036
G1 X7.506 Y.124 Z5.165 B-10.012 C6882.578 E.036
G1 X7.509 Y.123 Z5.17 B-10.002 C6891.234 E.042
G1 X7.506 Y.13 Z5.175 B-10.011 C6900.225 E.043
G1 X7.509 Y.129 Z5.179 B-10.002 C6908.617 E.04
G1 X7.508 Y.122 Z5.183 B-10.005 C6917.174 E.041
G1 X7.515 Y.148 Z5.188 B-10.006 C6923.847 E.033
G1 Y.114 Z5.191 B-10.004 C6929.239 E.025
G1 X7.509 Y.142 Z5.193 B-10.004 C6935.444 E.031
G1 X7.505 Y.135 Z5.198 B-10.014 C6941.816 E.03
G1 X7.507 Y.123 Z5.202 B-10.011 C6949.272 E.035
G1 X7.509 Y.139 Z5.206 B-10.002 C6957.532 E.04
G1 X7.504 Y.13 Z5.211 B-10.01 C6965.026 E.036
G1 X7.506 Y.148 Z5.215 B-10.013 C6972.42 E.036
G1 X7.509 Y.15 Z5.22 B-10.002 C6981.054 E.042
G1 X7.506 Y.153 Z5.224 B-10.012 C6990.067 E.043
G1 X7.509 Y.156 Z5.229 B-10.002 C6998.429 E.04
G1 X7.508 Y.133 Z5.233 B-10.002 C7007.095 E.041
G1 X7.512 Y.139 Z5.239 B-10.007 C7014.487 E.036
G1 X7.514 Y.109 Z5.242 B-10.003 C7024.103 E.045
G1 X7.505 Y.122 Z5.248 B-10.014 C7031.907 E.038
G1 X7.507 Y.129 Z5.251 B-10.01 C7039.224 E.036
G1 X7.508 Y.165 Z5.256 B-10.001 C7047.357 E.04
G1 X7.504 Y.147 Z5.26 B-10.01 C7054.909 E.036
G1 X7.505 Y.171 Z5.264 B-10.013 C7062.26 E.036
G1 X7.508 Y.177 Z5.269 B-10.001 C7070.866 E.042
G1 X7.505 Y.175 Z5.274 B-10.013 C7079.914 E.044
G1 X7.508 Y.184 Z5.279 B-10.001 C7088.24 E.04
G1 X7.512 Y.149 Z5.283 B-10.003 C7098.033 E.046
G1 Y.132 Z5.289 B-10.008 C7104.535 E.031
G1 X7.513 Y.069 Z5.291 B-10. C7110.228 E.025
G1 X7.508 Y.148 Z5.295 B-10.002 C7118.065 E.04
G1 X7.516 Y.088 Z5.3 B-10.002 C7125.392 E.033
G1 X7.506 Y.082 Z5.303 B-10.005 C7133.525 E.039
G1 X7.505 Y.084 Z5.306 B-10.005 C7139.293 E.028
G1 X7.506 Y.089 Z5.31 B-10.009 C7146.622 E.036
G1 X7.513 Y.105 Z5.314 B-10.007 C7153.935 E.036
G1 Y.11 Z5.318 B-10.007 C7159.826 E.029
G1 Y.103 Z5.321 B-10.007 C7165.765 E.028
G1 Y.108 Z5.324 B-10.007 C7171.566 E.028
G1 Y.121 Z5.327 B-10.007 C7177.22 E.028
G1 Y.123 Z5.331 B-10.007 C7182.841 E.027
G1 X7.515 Y.144 Z5.333 B-10.003 C7188.499 E.028
G1 X7.507 Y.159 Z5.339 B-10.013 C7195.253 E.033
G1 X7.508 Y.116 Z5.341 B-9.994 C7201.947 E.031
G1 X7.515 Y.137 Z5.347 B-10.003 C7209.572 E.038
G1 X7.507 Y.094 Z5.351 B-10.006 C7219.203 E.045
G1 X7.513 Y.121 Z5.355 B-10.007 C7226.193 E.035
G1 Y.116 Z5.358 B-10.006 C7232.049 E.028
G1 Y.112 Z5.361 B-10.006 C7237.969 E.028
G1 X7.512 Y.126 Z5.364 B-10.007 C7243.796 E.029
G1 Y.132 Z5.368 B-10.007 C7249.678 E.029
G1 Y.124 Z5.371 B-10.006 C7255.626 E.028
G1 Y.128 Z5.374 B-10.006 C7261.428 E.028
G1 Y.14 Z5.377 B-10.007 C7267.087 E.028
G1 Z5.381 B-10.006 C7272.721 E.027
G1 X7.515 Y.139 Z5.383 B-10.005 C7278.535 E.028
G1 X7.509 Y.134 Z5.388 B-10.004 C7285.368 E.033
G1 X7.515 Y.125 Z5.392 B-10.005 C7294.324 E.043
G1 X7.508 Y.134 Z5.397 B-10.004 C7301.097 E.033
G1 X7.513 Y.135 Z5.401 B-10.006 C7310.362 E.045
G1 X7.512 Y.14 Z5.405 B-10.006 C7316.06 E.028
G1 Y.137 Z5.408 B-10.006 C7321.905 E.028
G1 Y.131 Z5.411 B-10.006 C7327.834 E.028
G1 Y.144 Z5.414 B-10.007 C7333.664 E.029
G1 Y.153 Z5.417 B-10.007 C7339.532 E.029
G1 Y.145 Z5.421 B-10.006 C7345.476 E.029
G1 Y.148 Z5.424 B-10.006 C7351.288 E.028
G1 X7.506 Y.151 Z5.428 B-9.996 C7359.797 E.041
G1 X7.515 Y.143 Z5.433 B-10.006 C7368.505 E.042
G1 X7.509 Y.138 Z5.438 B-10.001 C7375.335 E.033
G1 X7.515 Y.131 Z5.442 B-10.006 C7384.281 E.043
G1 X7.508 Y.139 Z5.446 B-10. C7391.063 E.033
G1 X7.512 Y.157 Z5.451 B-10.006 C7400.208 E.045
G1 Y.159 Z5.454 B-10.006 C7405.925 E.028
G1 Y.158 Z5.458 B-10.006 C7411.762 E.028
G1 Y.151 Z5.461 B-10.006 C7417.699 E.029
G1 Y.164 Z5.464 B-10.006 C7423.528 E.029
G1 Y.174 Z5.467 B-10.007 C7429.384 E.029
G1 Y.165 Z5.47 B-10.006 C7435.336 E.029
G1 Y.167 Z5.474 B-10.006 C7441.157 E.028
G1 X7.506 Y.171 Z5.478 B-9.993 C7449.655 E.041
G1 Y.155 Z5.482 B-9.997 C7455.888 E.03
G1 X7.511 Y.147 Z5.486 B-10.002 C7463.13 E.035
G1 Y.143 Z5.49 B-10.002 C7469.73 E.032
G1 X7.507 Y.146 Z5.493 B-10.009 C7475.913 E.03
G1 X7.506 Y.133 Z5.497 B-10.003 C7482.328 E.031
G1 X7.515 Y.122 Z5.501 B-10.003 C7490.765 E.04
G1 Y.117 Z5.504 B-10.003 C7496.54 E.028
G1 Y.118 Z5.507 B-10.003 C7502.362 E.028
G1 Y.112 Z5.51 B-10.003 C7508.29 E.029
G1 Y.126 Z5.514 B-10.004 C7514.117 E.029
G1 Y.135 Z5.517 B-10.004 C7519.978 E.029
G1 Y.128 Z5.52 B-10.004 C7525.916 E.029
G1 Y.132 Z5.524 B-10.004 C7531.714 E.028
G1 X7.507 Y.129 Z5.528 B-9.992 C7539.941 E.04
G1 Y.121 Z5.532 B-9.997 C7546.197 E.03
G1 X7.515 Y.159 Z5.537 B-9.998 C7553.738 E.038
G1 X7.509 Y.111 Z5.54 B-9.993 C7561.462 E.036
G1 X7.515 Y.128 Z5.546 B-10.003 C7569.606 E.04
G1 X7.507 Y.097 Z5.549 B-9.992 C7577.737 E.038
G1 Y.112 Z5.552 B-9.991 C7583.311 E.028
G1 X7.506 Y.126 Z5.555 B-9.992 C7588.998 E.028
G1 Y.12 Z5.558 B-9.991 C7594.897 E.028
G1 Y.122 Z5.561 B-9.991 C7600.794 E.029
G1 Y.14 Z5.564 B-9.992 C7606.601 E.029
G1 Y.138 Z5.568 B-9.992 C7612.526 E.029
G1 Y.134 Z5.571 B-9.992 C7618.429 E.028
G1 Y.142 Z5.574 B-9.993 C7624.165 E.028
G1 Y.148 Z5.578 B-9.994 C7629.82 E.028
G1 Y.135 Z5.582 B-9.999 C7636.105 E.03
G1 X7.512 Y.137 Z5.587 B-10.005 C7644.385 E.04
G1 X7.509 Y.128 Z5.59 B-9.995 C7650.969 E.032
G1 X7.513 Y.125 Z5.595 B-10.004 C7659.186 E.04
G1 X7.507 Y.124 Z5.599 B-9.994 C7667.558 E.041
G1 X7.506 Y.136 Z5.602 B-9.993 C7673.148 E.028
G1 Y.144 Z5.605 B-9.994 C7678.873 E.028
G1 Y.138 Z5.608 B-9.993 C7684.776 E.028
G1 Y.14 Z5.611 B-9.993 C7690.675 E.029
G1 X7.505 Y.158 Z5.614 B-9.994 C7696.484 E.029
G1 Y.157 Z5.618 B-9.994 C7702.402 E.029
G1 X7.506 Y.152 Z5.621 B-9.994 C7708.309 E.029
G1 Y.16 Z5.624 B-9.995 C7714.049 E.028
G1 Y.165 Z5.628 B-9.995 C7719.706 E.028
G1 Y.149 Z5.631 B-10. C7726.013 E.03
G1 X7.512 Y.132 Z5.637 B-10.006 C7734.416 E.04
G1 X7.509 Y.13 Z5.64 B-9.995 C7740.954 E.032
G1 X7.507 Y.119 Z5.643 B-9.998 C7747.153 E.03
G1 X7.512 Y.124 Z5.648 B-10.003 C7754.63 E.036
G1 X7.515 Y.148 Z5.651 B-10.004 C7760.587 E.03
G1 X7.514 Y.173 Z5.654 B-10.005 C7766.159 E.028
G1 Y.171 Z5.657 B-10.005 C7772.003 E.028
G1 Y.164 Z5.66 B-10.005 C7777.938 E.029
G1 Y.179 Z5.663 B-10.006 C7783.758 E.029
G1 X7.513 Y.188 Z5.667 B-10.006 C7789.616 E.029
G1 X7.514 Y.18 Z5.67 B-10.006 C7795.565 E.029
G1 Y.182 Z5.673 B-10.006 C7801.376 E.028
G1 X7.505 Z5.678 B-9.997 C7809.591 E.04
G1 X7.506 Y.163 Z5.681 B-10.001 C7815.916 E.03
G1 X7.515 Y.124 Z5.686 B-10.006 C7823.989 E.038
G1 X7.512 Y.131 Z5.69 B-10.001 C7829.793 E.028
G1 X7.509 Y.123 Z5.694 B-9.998 C7838.166 E.04
G1 X7.514 Y.128 Z5.698 B-10.002 C7845.344 E.035
G1 X7.506 Y.151 Z5.702 B-9.994 C7852.805 E.037
G1 X7.505 Y.155 Z5.706 B-10.004 C7860.153 E.036
G1 X7.512 Y.156 Z5.71 B-10.006 C7867.634 E.036
G1 Y.168 Z5.713 B-10.006 C7873.48 E.029
G1 X7.511 Y.177 Z5.716 B-10.006 C7879.347 E.029
G1 X7.512 Y.166 Z5.72 B-10.006 C7885.317 E.029
G1 X7.506 Y.162 Z5.724 B-9.994 C7893.829 E.041
G1 Y.161 Z5.728 B-10.004 C7901.047 E.035
G1 X7.511 Y.171 Z5.732 B-10.005 C7907.754 E.033
G1 X7.507 Y.149 Z5.738 B-10.009 C7915.372 E.036
G1 X7.509 Y.103 Z5.741 B-10.002 C7922.993 E.036
G1 Y.12 Z5.746 B-10.008 C7930.87 E.039
G1 X7.507 Y.108 Z5.749 B-9.993 C7937.497 E.032
G1 X7.506 Y.14 Z5.752 B-10.003 C7944.527 E.035
G1 X7.512 Y.151 Z5.757 B-10.005 C7951.853 E.036
G1 X7.513 Y.142 Z5.76 B-10.005 C7957.811 E.029
G1 X7.512 Y.154 Z5.763 B-10.006 C7963.653 E.029
G1 Y.163 Z5.767 B-10.006 C7969.523 E.029
G1 Y.152 Z5.77 B-10.005 C7975.492 E.029
G1 X7.506 Y.147 Z5.774 B-9.992 C7984. E.041
G1 Z5.779 B-10.003 C7991.22 E.035
G1 X7.512 Y.134 Z5.782 B-10.003 C7998.074 E.033
G1 X7.51 Y.125 Z5.787 B-10.003 C8005.128 E.034
G1 X7.509 Y.113 Z5.791 B-9.999 C8012.744 E.037
G1 X7.513 Y.126 Z5.795 B-10.004 C8020.002 E.036
G1 X7.507 Y.113 Z5.798 B-9.992 C8027.532 E.036
G1 Y.127 Z5.803 B-10.003 C8034.684 E.035
G1 X7.513 Y.136 Z5.807 B-10.005 C8042.027 E.036
G1 Y.127 Z5.81 B-10.004 C8047.982 E.029
G1 Y.139 Z5.813 B-10.005 C8053.827 E.029
G1 Y.148 Z5.817 B-10.005 C8059.694 E.029
G1 Y.139 Z5.82 B-10.005 C8065.655 E.029
G1 Y.14 Z5.823 B-10.005 C8071.481 E.028
G1 X7.507 Y.136 Z5.827 B-9.992 C8079.848 E.041
G1 X7.508 Y.12 Z5.832 B-9.996 C8087.015 E.034
G1 X7.513 Y.132 Z5.837 B-10.003 C8094.329 E.036
G1 X7.515 Y.118 Z5.839 B-10.004 C8099.203 E.023
G1 X7.509 Y.126 Z5.844 B-9.997 C8108.184 E.044
G1 X7.515 Y.124 Z5.848 B-10.004 C8115.174 E.034
G1 X7.507 Y.107 Z5.851 B-9.99 C8123.322 E.039
G1 Y.111 Z5.854 B-9.99 C8129.082 E.028
G1 Y.103 Z5.858 B-9.989 C8135.002 E.029
G1 X7.506 Z5.86 B-9.989 C8140.917 E.029
G1 Y.12 Z5.864 B-9.989 C8146.736 E.029
G1 Y.118 Z5.867 B-9.989 C8152.67 E.029
G1 X7.507 Y.111 Z5.871 B-9.989 C8158.592 E.029
G1 Y.117 Z5.874 B-9.99 C8164.346 E.028
G1 Z5.879 B-10.002 C8171.563 E.035
G1 X7.511 Z5.883 B-10.005 C8179.538 E.039
G1 X7.507 Y.143 Z5.888 B-10.006 C8186.53 E.035
G1 X7.511 Y.147 Z5.89 B-10.002 C8189.688 E.016
G1 X7.515 Y.152 Z5.895 B-10.003 C8199.456 E.048
G1 X7.506 Y.161 Z5.9 B-10.003 C8208.713 E.046
G1 X7.511 Y.168 Z5.904 B-10.007 C8215.782 E.035
G1 Y.164 Z5.907 B-10.007 C8221.634 E.028
G1 Y.152 Z5.91 B-10.006 C8227.601 E.029
G1 Y.164 Z5.913 B-10.007 C8233.443 E.029
G1 Y.172 Z5.917 B-10.007 C8239.313 E.029
G1 Y.159 Z5.92 B-10.007 C8245.299 E.029
G1 Y.158 Z5.923 B-10.007 C8251.137 E.029
G1 Y.166 Z5.927 B-10.007 C8256.829 E.028
G1 X7.512 Y.158 Z5.93 B-10.006 C8262.516 E.028
G1 X7.514 Z5.932 B-10.002 C8268.282 E.028
G1 X7.507 Y.143 Z5.938 B-10.01 C8275.456 E.035
G1 X7.511 Y.114 Z5.94 B-10.001 C8283.481 E.038
G1 X7.506 Y.135 Z5.947 B-10.011 C8291.257 E.039
G1 X7.507 Y.099 Z5.949 B-9.995 C8297.76 E.031
G1 X7.512 Y.149 Z5.954 B-10.007 C8305.906 E.041
G1 Y.144 Z5.957 B-10.007 C8311.768 E.029
G1 Y.133 Z5.96 B-10.006 C8317.728 E.029
G1 X7.511 Y.146 Z5.963 B-10.007 C8323.566 E.029
G1 Y.151 Z5.967 B-10.007 C8329.452 E.029
G1 X7.512 Y.138 Z5.97 B-10.007 C8335.438 E.029
G1 Y.139 Z5.973 B-10.007 C8341.266 E.029
G1 X7.511 Y.149 Z5.977 B-10.007 C8346.946 E.028
G1 X7.512 Y.142 Z5.98 B-10.006 C8352.622 E.028
G1 X7.514 Y.136 Z5.982 B-10.002 C8358.44 E.028
G1 X7.509 Y.135 Z5.987 B-10.004 C8365.233 E.033
G1 X7.515 Y.125 Z5.991 B-10.002 C8374.221 E.044
G1 X7.508 Y.137 Z5.996 B-10.005 C8380.939 E.033
G1 X7.506 Y.126 Z6. B-10.007 C8388.961 E.039
G1 X7.512 Y.131 Z6.004 B-10.007 C8396.034 E.035
G1 Y.124 Z6.007 B-10.007 C8401.907 E.029
G1 Y.115 Z6.01 B-10.007 C8407.859 E.029
G1 Y.126 Z6.014 B-10.007 C8413.701 E.029
G1 Y.131 Z6.017 B-10.007 C8419.597 E.029
G1 Y.12 Z6.02 B-10.007 C8425.566 E.029
G1 Y.121 Z6.023 B-10.007 C8431.395 E.029
G1 Y.131 Z6.027 B-10.007 C8437.072 E.028
G1 Y.126 Z6.03 B-10.007 C8442.738 E.028
G1 X7.514 Y.131 Z6.032 B-10.002 C8448.477 E.028
G1 X7.509 Y.129 Z6.038 B-10.007 C8455.273 E.033
G1 X7.515 Y.118 Z6.041 B-10.002 C8464.272 E.044
G1 X7.508 Y.132 Z6.047 B-10.009 C8470.975 E.033
G1 X7.506 Y.108 Z6.05 B-10.008 C8479.086 E.039
G1 X7.51 Y.1 Z6.055 B-9.998 C8487.647 E.042
G1 Y.088 Z6.058 B-9.998 C8493.573 E.029
G1 Y.084 Z6.061 B-9.998 C8499.501 E.029
G1 Y.096 Z6.065 B-9.998 C8505.346 E.029
G1 Y.094 Z6.068 B-9.998 C8511.285 E.029
G1 X7.511 Y.085 Z6.071 B-9.998 C8517.231 E.029
G1 X7.506 Y.107 Z6.076 B-10.01 C8525.846 E.043
G1 X7.509 Y.103 Z6.081 B-9.997 C8534.706 E.043
G1 X7.508 Y.144 Z6.085 B-10. C8542.336 E.039
G1 X7.513 Y.076 Z6.09 B-10. C8550.177 E.036
G1 X7.507 Y.154 Z6.092 B-9.992 C8556.852 E.035
G1 X7.506 Y.13 Z6.098 B-10.013 C8563.242 E.031
G1 X7.509 Y.162 Z6.102 B-10.001 C8571.463 E.041
G1 X7.503 Y.17 Z6.106 B-10.011 C8578.744 E.036
G1 X7.504 Y.169 Z6.11 B-10.014 C8586.205 E.037
G1 X7.508 Y.18 Z6.115 B-10.002 C8594.781 E.042
G1 X7.503 Y.165 Z6.119 B-10.011 C8602.393 E.037
G1 X7.505 Y.17 Z6.123 B-10.013 C8609.805 E.037
G1 X7.509 Y.174 Z6.128 B-10.002 C8618.167 E.041
G1 X7.508 Y.133 Z6.131 B-10.001 C8627.212 E.043
G1 X7.507 Y.112 Z6.138 B-10.011 C8635.73 E.041
G1 X7.508 Y.089 Z6.14 B-9.996 C8642.051 E.03
G1 X7.512 Y.148 Z6.146 B-10.006 C8649.957 E.041
G1 X7.506 Y.142 Z6.151 B-10.012 C8658.994 E.044
G1 X7.509 Y.165 Z6.156 B-10.003 C8667.205 E.041
G1 X7.503 Y.145 Z6.16 B-10.012 C8674.771 E.037
G1 X7.505 Y.156 Z6.164 B-10.014 C8682.213 E.037
G1 X7.509 Y.154 Z6.169 B-10.002 C8690.871 E.042
G1 X7.504 Y.138 Z6.173 B-10.011 C8698.44 E.037
G1 X7.505 Y.155 Z6.177 B-10.013 C8705.671 E.036
G1 X7.51 Y.13 Z6.181 B-10.002 C8714.057 E.04
G1 X7.508 Y.132 Z6.186 B-10.005 C8722.6 E.042
G1 X7.51 Y.098 Z6.189 B-9.998 C8730.664 E.038
G1 X7.508 Y.15 Z6.195 B-10.007 C8738.115 E.038
G1 X7.51 Y.118 Z6.199 B-10.002 C8746.115 E.038
G1 X7.505 Y.152 Z6.204 B-10.013 C8754.633 E.043
G1 X7.509 Y.136 Z6.209 B-10.003 C8763.237 E.042
G1 X7.504 Y.123 Z6.213 B-10.012 C8770.83 E.037
G1 X7.505 Y.142 Z6.217 B-10.013 C8778.231 E.037
G1 X7.51 Y.117 Z6.222 B-10.003 C8787. E.042
G1 X7.504 Y.126 Z6.226 B-10.012 C8794.311 E.036
G1 X7.506 Y.13 Z6.23 B-10.012 C8801.501 E.035
G1 X7.513 Y.117 Z6.233 B-10.001 C8809.172 E.037
G1 X7.516 Y.096 Z6.237 B-10.002 C8814.208 E.024
G1 Y.097 Z6.238 B-10. C8819.342 E.025
G1 X7.506 Y.143 Z6.244 B-10.008 C8826.935 E.039
G1 Y.137 Z6.248 B-10.013 C8833.194 E.031
G1 X7.51 Y.121 Z6.252 B-10.004 C8841.734 E.041
G1 X7.504 Y.132 Z6.257 B-10.013 C8848.995 E.036
G1 X7.505 Y.12 Z6.261 B-10.013 C8856.536 E.037
G1 X7.509 Y.106 Z6.265 B-10.004 C8865.263 E.042
G1 X7.504 Y.108 Z6.27 B-10.013 C8872.765 E.037
G1 X7.506 Y.106 Z6.274 B-10.012 C8880.226 E.037
G1 X7.51 Y.1 Z6.278 B-10.004 C8888.653 E.041
G1 X7.505 Y.112 Z6.283 B-10.011 C8896.101 E.037
G1 X7.516 Y.068 Z6.287 B-10.001 C8904.392 E.039
G1 X7.512 Y.113 Z6.288 B-10. C8909.901 E.029
G1 X7.505 Y.161 Z6.294 B-10.012 C8916.106 E.032
G1 X7.506 Y.126 Z6.298 B-10.012 C8923.36 E.035
G1 X7.513 Y.112 Z6.302 B-10.001 C8931.323 E.039
G1 X7.504 Y.12 Z6.307 B-10.012 C8938.756 E.037
G1 Y.107 Z6.31 B-10.012 C8944.702 E.029
G1 Y.092 Z6.313 B-10.012 C8950.709 E.029
G1 Y.101 Z6.316 B-10.012 C8956.578 E.029
G1 Y.097 Z6.32 B-10.012 C8962.52 E.029
G1 X7.505 Y.091 Z6.323 B-10.012 C8968.434 E.029
G1 Y.111 Z6.327 B-10.012 C8975.807 E.037
G1 X7.513 Y.098 Z6.331 B-10.001 C8983.826 E.039
G1 X7.506 Y.134 Z6.335 B-10.01 C8990.683 E.035
G1 X7.507 Y.14 Z6.339 B-10.012 C8997.26 E.033
G1 X7.513 Y.109 Z6.343 B-10.002 C9004.869 E.036
G1 X7.506 Y.125 Z6.347 B-10.011 C9011.739 E.034
G1 Y.13 Z6.351 B-10.012 C9018.916 E.036
G1 X7.512 Y.125 Z6.355 B-10.002 C9026.993 E.04
G1 X7.504 Y.116 Z6.36 B-10.013 C9034.641 E.037
G1 Y.104 Z6.363 B-10.013 C9040.631 E.029
G1 Y.113 Z6.366 B-10.013 C9046.501 E.029
G1 Y.109 Z6.37 B-10.012 C9052.446 E.029
G1 X7.505 Y.103 Z6.373 B-10.012 C9058.359 E.029
G1 Y.123 Z6.377 B-10.012 C9065.729 E.037
G1 X7.513 Y.11 Z6.381 B-10.002 C9073.752 E.039
G1 X7.506 Y.117 Z6.385 B-10.011 C9080.766 E.035
G1 X7.508 Y.112 Z6.387 B-10. C9087.152 E.031
G1 X7.512 Y.14 Z6.393 B-10.003 C9094.666 E.038
G1 X7.505 Y.134 Z6.397 B-10.012 C9101.678 E.034
G1 Y.138 Z6.401 B-10.012 C9108.865 E.036
G1 X7.512 Y.133 Z6.405 B-10.003 C9116.943 E.04
G1 X7.504 Y.125 Z6.41 B-10.013 C9124.582 E.037
G1 Y.116 Z6.413 B-10.013 C9130.557 E.029
G1 Y.122 Z6.416 B-10.013 C9136.441 E.029
G1 Y.12 Z6.42 B-10.013 C9142.373 E.029
G1 Y.115 Z6.423 B-10.013 C9148.275 E.029
G1 X7.505 Y.136 Z6.427 B-10.012 C9155.646 E.037
G1 X7.512 Y.122 Z6.431 B-10.003 C9163.674 E.039
G1 X7.506 Y.138 Z6.435 B-10.011 C9170.622 E.035
G1 X7.507 Y.137 Z6.438 B-10.006 C9176.992 E.031
G1 X7.512 Y.128 Z6.443 B-10.004 C9184.749 E.038
G1 X7.505 Y.14 Z6.447 B-10.012 C9191.637 E.034
G1 Y.146 Z6.451 B-10.012 C9198.811 E.036
G1 X7.512 Y.14 Z6.455 B-10.005 C9206.894 E.04
G1 X7.504 Y.137 Z6.46 B-10.013 C9214.505 E.038
G1 Y.13 Z6.463 B-10.013 C9220.463 E.029
G1 Y.134 Z6.466 B-10.013 C9226.361 E.029
G1 Y.132 Z6.47 B-10.013 C9232.292 E.029
G1 Y.128 Z6.473 B-10.013 C9238.193 E.029
G1 X7.505 Y.148 Z6.477 B-10.012 C9245.562 E.037
G1 X7.512 Y.136 Z6.481 B-10.004 C9253.586 E.039
G1 X7.505 Y.156 Z6.485 B-10.011 C9260.504 E.035
G1 X7.506 Y.143 Z6.488 B-10.011 C9266.958 E.031
G1 X7.512 Y.103 Z6.49 B-10.005 C9269.994 E.014
G1 X7.507 Y.092 Z6.494 B-10.01 C9278.21 E.04
G1 X7.513 Y.072 Z6.499 B-10.003 C9285.878 E.037
G1 X7.505 Y.073 Z6.503 B-10.012 C9293.289 E.037
G1 Y.077 Z6.506 B-10.013 C9299.04 E.029
G1 Y.072 Z6.51 B-10.013 C9304.933 E.029
G1 X7.504 Y.064 Z6.513 B-10.013 C9310.897 E.029
G1 Y.067 Z6.516 B-10.013 C9316.805 E.029
G1 X7.505 Y.064 Z6.52 B-10.013 C9322.742 E.029
G1 Y.061 Z6.523 B-10.012 C9328.634 E.029
G1 Y.07 Z6.526 B-10.012 C9334.373 E.029
G1 X7.506 Y.079 Z6.53 B-10.011 C9341.758 E.037
G1 X7.514 Y.091 Z6.534 B-10.003 C9349.281 E.038
G1 X7.507 Y.143 Z6.538 B-10.012 C9355.62 E.033
G1 X7.515 Y.121 Z6.543 B-10.003 C9364.373 E.043
G1 X7.506 Y.094 Z6.547 B-10.012 C9371.953 E.037
G1 Y.091 Z6.551 B-10.012 C9379.258 E.036
G1 X7.513 Y.08 Z6.555 B-10.003 C9387.226 E.039
G1 X7.504 Y.079 Z6.56 B-10.013 C9394.905 E.038
G1 Y.067 Z6.563 B-10.013 C9400.893 E.029
G1 Y.072 Z6.566 B-10.013 C9406.788 E.029
G1 Y.069 Z6.57 B-10.013 C9412.727 E.029
G1 X7.505 Y.065 Z6.573 B-10.012 C9418.625 E.029
G1 Y.075 Z6.576 B-10.012 C9424.361 E.029
G1 X7.506 Y.085 Z6.58 B-10.012 C9431.739 E.037
G1 X7.514 Y.087 Z6.584 B-10.002 C9439.327 E.038
G1 X7.515 Y.124 Z6.59 B-10.004 C9449.214 E.05
G1 X7.506 Y.097 Z6.593 B-10.012 C9456.554 E.035
G1 Y.107 Z6.598 B-10.013 C9463.587 E.035
G1 X7.513 Y.086 Z6.602 B-10.002 C9471.45 E.038
G1 X7.504 Y.097 Z6.606 B-10.014 C9478.94 E.037
G1 Y.085 Z6.61 B-10.014 C9484.884 E.029
G1 Y.068 Z6.613 B-10.013 C9490.905 E.029
G1 Y.074 Z6.616 B-10.013 C9496.791 E.029
G1 Y.073 Z6.619 B-10.013 C9502.714 E.029
G1 X7.505 Y.069 Z6.623 B-10.013 C9508.617 E.029
G1 Y.079 Z6.626 B-10.013 C9514.351 E.029
G1 X7.506 Y.09 Z6.63 B-10.013 C9521.726 E.037
G1 X7.514 Y.088 Z6.634 B-10.002 C9529.338 E.038
G1 X7.515 Y.114 Z6.64 B-10.005 C9539.3 E.05
G1 X7.506 Y.103 Z6.644 B-10.013 C9546.533 E.036
G1 Y.115 Z6.648 B-10.015 C9553.548 E.035
G1 X7.513 Y.097 Z6.652 B-10.002 C9561.399 E.038
G1 X7.504 Y.107 Z6.656 B-10.015 C9568.893 E.038
G1 Y.091 Z6.66 B-10.014 C9574.857 E.029
G1 Y.071 Z6.663 B-10.013 C9580.9 E.029
G1 Y.079 Z6.666 B-10.014 C9586.776 E.029
G1 Y.078 Z6.67 B-10.013 C9592.699 E.029
G1 X7.505 Y.072 Z6.673 B-10.013 C9598.612 E.029
G1 Y.082 Z6.676 B-10.013 C9604.344 E.029
G1 X7.506 Y.095 Z6.68 B-10.014 C9611.705 E.037
G1 X7.514 Y.088 Z6.684 B-10.001 C9619.351 E.038
G1 X7.511 Y.107 Z6.689 B-10.006 C9628.606 E.047
G1 Y.103 Z6.69 B-10.01 C9630.063 E.007
G1 X7.507 Y.138 Z6.695 B-10.015 C9638.258 E.042
G1 X7.512 Y.141 Z6.699 B-10.005 C9645.483 E.036
G1 X7.504 Y.116 Z6.703 B-10.016 C9653.323 E.038
G1 Y.131 Z6.708 B-10.018 C9660.687 E.037
G1 X7.51 Y.084 Z6.712 B-10.004 C9669.393 E.042
G1 X7.503 Y.096 Z6.716 B-10.015 C9676.942 E.038
G1 X7.505 Y.097 Z6.721 B-10.015 C9684.544 E.038
G1 X7.511 Y.086 Z6.725 B-10.003 C9692.941 E.041
G1 X7.504 Y.103 Z6.729 B-10.014 C9700.166 E.036
G1 X7.505 Y.123 Z6.733 B-10.013 C9706.88 E.034
G1 X7.514 Y.165 Z6.737 B-10.009 C9713.8 E.036
G1 X7.511 Y.133 Z6.741 B-10.006 C9723.583 E.048
G1 X7.504 Y.131 Z6.747 B-10.016 C9731.751 E.041
G1 X7.505 Y.122 Z6.751 B-10.016 C9739.228 E.037
G1 X7.51 Y.117 Z6.755 B-10.004 C9747.434 E.041
G1 X7.503 Y.102 Z6.76 B-10.015 C9755.068 E.037
G1 X7.505 Y.091 Z6.764 B-10.015 C9762.755 E.038
G1 X7.51 Y.087 Z6.768 B-10.002 C9771.231 E.042
G1 X7.504 Y.083 Z6.772 B-10.013 C9778.816 E.038
G1 X7.506 Y.101 Z6.777 B-10.014 C9786.139 E.037
G1 X7.508 Y.09 Z6.781 B-10.002 C9795.012 E.044
G1 X7.513 Y.099 Z6.784 B-10.002 C9799.281 E.022
G1 X7.508 Y.141 Z6.787 B-9.995 C9807.245 E.041
G1 X7.507 Y.147 Z6.792 B-10.005 C9815.888 E.043
G1 X7.509 Y.163 Z6.798 B-10.008 C9824.001 E.041
G1 X7.51 Y.11 Z6.802 B-10.002 C9831.72 E.037
G1 X7.503 Y.118 Z6.806 B-10.015 C9839.101 E.037
G1 X7.505 Y.096 Z6.811 B-10.015 C9846.804 E.038
G1 X7.511 Y.076 Z6.814 B-10. C9855.374 E.042
G1 X7.504 Y.087 Z6.819 B-10.012 C9862.923 E.038
G1 X7.505 Y.089 Z6.824 B-10.014 C9870.456 E.038
G1 X7.511 Y.086 Z6.827 B-10. C9878.665 E.041
G1 X7.51 Y.096 Z6.833 B-10.008 C9887.992 E.047
G1 X7.509 Y.127 Z6.835 B-10.001 C9895.505 E.038
G1 X7.505 Y.157 Z6.84 B-10.013 C9901.201 E.029
G1 X7.506 Y.17 Z6.843 B-10.006 C9907.569 E.032
G1 X7.511 Y.14 Z6.849 B-10.01 C9915.505 E.039
G1 X7.504 Y.112 Z6.853 B-10.013 C9923.361 E.038
G1 X7.505 Y.121 Z6.858 B-10.016 C9930.76 E.037
G1 X7.511 Y.068 Z6.861 B-9.997 C9939.501 E.042
G1 X7.504 Y.086 Z6.866 B-10.012 C9947.013 E.038
G1 X7.505 Y.087 Z6.871 B-10.014 C9954.619 E.038
G1 X7.511 Y.075 Z6.874 B-9.998 C9963.013 E.041
G1 X7.505 Y.096 Z6.878 B-10.011 C9970.221 E.037
G1 X7.51 Y.082 Z6.883 B-10.007 C9978.082 E.039
G1 X7.507 Y.13 Z6.886 B-10.001 C9985.982 E.041
G1 X7.511 Y.149 Z6.889 B-10.002 C9989.732 E.019
G1 X7.509 Y.135 Z6.893 B-10.004 C9998.453 E.043
G1 X7.508 Y.14 Z6.9 B-10.015 C10006.108 E.038
G1 X7.503 Y.137 Z6.904 B-10.016 C10014.076 E.04
G1 Y.135 Z6.907 B-10.016 C10019.887 E.029
G1 Y.117 Z6.91 B-10.014 C10025.882 E.029
G1 Y.111 Z6.913 B-10.014 C10031.839 E.03
G1 Y.126 Z6.916 B-10.014 C10037.672 E.03
G1 Y.119 Z6.92 B-10.013 C10043.629 E.029
G1 X7.504 Y.115 Z6.923 B-10.013 C10049.511 E.029
G1 Y.128 Z6.926 B-10.013 C10055.211 E.029
G1 Y.131 Z6.929 B-10.012 C10060.862 E.028
G1 X7.508 Y.133 Z6.932 B-10.005 C10067.245 E.032
G1 X7.506 Y.145 Z6.938 B-10.016 C10075.613 E.042
G1 X7.51 Y.13 Z6.939 B-10.001 C10083.244 E.038
G1 X7.514 Y.156 Z6.945 B-10.008 C10089.542 E.032
G1 X7.504 Y.138 Z6.949 B-10.012 C10097.695 E.04
G1 Y.136 Z6.953 B-10.012 C10104.119 E.032
G1 X7.514 Y.14 Z6.958 B-10.007 C10112.372 E.041
G1 Y.121 Z6.961 B-10.006 C10118.393 E.029
G1 Y.133 Z6.964 B-10.006 C10124.246 E.03
G1 Y.141 Z6.968 B-10.007 C10130.125 E.03
G1 Y.127 Z6.971 B-10.006 C10136.113 E.029
G1 Y.134 Z6.974 B-10.006 C10141.907 E.029
G1 X7.512 Y.142 Z6.977 B-10.003 C10147.987 E.031
G1 Y.133 Z6.98 B-10.002 C10153.758 E.029
G1 X7.508 Y.11 Z6.982 B-10. C10160.493 E.033
G1 X7.507 Y.121 Z6.986 B-10.004 C10166.264 E.029
G1 Y.124 Z6.99 B-10.004 C10172.388 E.031
G1 X7.514 Y.161 Z6.994 B-10.005 C10179.351 E.036
G1 X7.51 Y.153 Z6.998 B-10.007 C10185.603 E.031
G1 X7.511 Y.154 Z7.001 B-10.004 C10191.128 E.028
G1 X7.513 Y.162 Z7.004 B-10.007 C10196.425 E.027
G1 Y.156 Z7.008 B-10.007 C10202.306 E.029
G1 X7.514 Y.14 Z7.011 B-10.006 C10208.309 E.03
G1 X7.513 Y.154 Z7.014 B-10.006 C10214.145 E.03
G1 Y.163 Z7.017 B-10.007 C10220.017 E.03
G1 X7.514 Y.15 Z7.02 B-10.006 C10226.005 E.03
G1 X7.513 Y.155 Z7.023 B-10.006 C10231.806 E.029
G1 Y.165 Z7.027 B-10.006 C10237.488 E.029
G1 X7.514 Y.148 Z7.03 B-10.005 C10243.228 E.028
G1 Y.11 Z7.032 B-10.006 C10248.948 E.027
G1 X7.507 Y.117 Z7.036 B-10.005 C10256.343 E.037
G1 X7.512 Y.135 Z7.04 B-10.006 C10263.761 E.038
G1 X7.509 Y.17 Z7.044 B-10. C10270.503 E.035
G1 X7.505 Y.156 Z7.049 B-10.006 C10278.366 E.039
G1 X7.513 Y.178 Z7.054 B-10.006 C10286.357 E.041
G1 Y.171 Z7.057 B-10.006 C10292.241 E.029
G1 Y.159 Z7.06 B-10.005 C10298.223 E.03
G1 Y.178 Z7.063 B-10.006 C10304.028 E.03
G1 X7.512 Y.187 Z7.067 B-10.007 C10309.901 E.03
G1 X7.513 Y.172 Z7.07 B-10.006 C10315.902 E.03
G1 Y.176 Z7.073 B-10.006 C10321.711 E.029
G1 Y.185 Z7.076 B-10.006 C10327.397 E.029
G1 Y.165 Z7.079 B-10.005 C10333.157 E.028
G1 X7.506 Y.122 Z7.083 B-10.003 C10341.037 E.038
G1 X7.507 Y.126 Z7.087 B-10.008 C10347.576 E.033
G1 X7.512 Y.129 Z7.088 B-10.002 C10349.85 E.011
G1 X7.508 Y.124 Z7.092 B-9.997 C10357.74 E.039
G1 X7.509 Y.134 Z7.096 B-10.009 C10364.137 E.032
G1 Y.147 Z7.099 B-10.006 C10369.593 E.028
G1 X7.507 Y.127 Z7.103 B-9.994 C10378.305 E.043
G1 Y.091 Z7.106 B-9.99 C10384.945 E.032
G1 Y.09 Z7.109 B-9.99 C10390.866 E.03
G1 X7.506 Y.113 Z7.112 B-9.991 C10396.64 E.03
G1 Y.111 Z7.116 B-9.991 C10402.568 E.03
G1 X7.507 Y.105 Z7.119 B-9.991 C10408.479 E.029
G1 X7.506 Y.127 Z7.124 B-10.003 C10415.681 E.037
G1 X7.513 Y.118 Z7.128 B-10.004 C10422.92 E.036
G1 Y.145 Z7.131 B-10.005 C10428.888 E.031
G1 X7.507 Y.172 Z7.137 B-10.012 C10435.134 E.032
G1 X7.508 Y.121 Z7.139 B-10.003 C10442.806 E.037
G1 X7.512 Y.156 Z7.143 B-10.007 C10449.857 E.036
G1 X7.508 Y.14 Z7.148 B-10.002 C10456.257 E.032
G1 X7.506 Y.122 Z7.151 B-10.003 C10464.673 E.042
G1 X7.513 Y.127 Z7.156 B-10.005 C10472.029 E.037
G1 Y.118 Z7.159 B-10.005 C10477.977 E.03
G1 X7.512 Y.137 Z7.162 B-10.005 C10483.777 E.03
G1 Y.149 Z7.165 B-10.006 C10489.623 E.03
G1 Y.136 Z7.169 B-10.005 C10495.598 E.03
G1 Y.142 Z7.172 B-10.005 C10501.394 E.029
G1 X7.506 Y.143 Z7.176 B-9.995 C10509.732 E.042
G1 Y.129 Z7.18 B-9.998 C10515.794 E.03
G1 X7.508 Y.14 Z7.183 B-9.996 C10521.999 E.031
G1 X7.51 Y.118 Z7.189 B-10.004 C10530.326 E.041
G1 Y.123 Z7.193 B-10.004 C10538.792 E.043
G1 X7.509 Y.136 Z7.195 B-10.005 C10544.111 E.027
G1 X7.508 Z7.201 B-10.005 C10551.935 E.039
G1 X7.506 Y.108 Z7.203 B-9.994 C10558.983 E.034
G1 Y.123 Z7.206 B-9.994 C10564.746 E.029
G1 Y.129 Z7.209 B-9.994 C10570.619 E.03
G1 X7.505 Y.152 Z7.213 B-9.995 C10576.392 E.03
G1 Y.15 Z7.216 B-9.995 C10582.325 E.03
G1 X7.506 Y.141 Z7.219 B-9.995 C10588.254 E.029
G1 X7.505 Y.159 Z7.224 B-10.005 C10595.482 E.037
G1 X7.512 Y.167 Z7.228 B-10.006 C10602.606 E.036
G1 X7.507 Y.139 Z7.232 B-9.997 C10611.023 E.041
G1 X7.51 Y.136 Z7.237 B-10.003 C10618.148 E.036
G1 X7.509 Y.104 Z7.241 B-9.996 C10626.143 E.039
G1 X7.514 Y.145 Z7.246 B-10.005 C10635.129 E.046
G1 X7.507 Y.134 Z7.252 B-10.009 C10641.947 E.034
G1 X7.506 Y.103 Z7.253 B-9.995 C10649.02 E.034
G1 X7.505 Y.138 Z7.257 B-9.996 C10654.65 E.029
G1 Y.149 Z7.259 B-9.997 C10660.492 E.03
G1 X7.504 Y.173 Z7.263 B-9.998 C10666.263 E.03
G1 X7.505 Y.169 Z7.266 B-9.998 C10672.204 E.03
G1 Y.159 Z7.269 B-9.998 C10678.142 E.029
G1 Y.174 Z7.274 B-10.007 C10685.388 E.037
G1 X7.511 Y.19 Z7.278 B-10.007 C10692.463 E.036
G1 X7.507 Y.135 Z7.282 B-9.995 C10701.053 E.041
G1 X7.51 Y.137 Z7.288 B-10.001 C10708.14 E.036
G1 X7.511 Y.113 Z7.289 B-10.006 C10709.956 E.008
G1 X7.507 Y.099 Z7.291 B-9.998 C10716.866 E.034
G1 Y.131 Z7.295 B-9.994 C10723.063 E.032
G1 X7.515 Y.157 Z7.301 B-10.004 C10730.599 E.039
G1 X7.509 Y.096 Z7.303 B-9.995 C10738.216 E.036
G1 X7.507 Y.149 Z7.306 B-9.993 C10744.073 E.031
G1 X7.506 Y.162 Z7.309 B-9.994 C10749.899 E.03
G1 Y.184 Z7.312 B-9.995 C10755.69 E.03
G1 Y.18 Z7.316 B-9.995 C10761.632 E.03
G1 X7.504 Y.16 Z7.32 B-10.005 C10769.353 E.038
G1 X7.51 Y.185 Z7.324 B-10.008 C10776.651 E.038
G1 X7.507 Y.186 Z7.329 B-9.996 C10784.584 E.04
G1 Y.196 Z7.333 B-9.993 C10791.61 E.036
G1 X7.511 Y.141 Z7.338 B-10.003 C10798.283 E.032
G1 X7.512 Y.14 Z7.34 B-10.005 C10803.806 E.028
G1 X7.505 Y.177 Z7.344 B-10.002 C10811.629 E.041
G1 X7.515 Y.122 Z7.351 B-10.002 C10820.89 E.045
G1 X7.507 Y.142 Z7.353 B-9.993 C10828.325 E.038
G1 Y.141 Z7.356 B-9.993 C10834.193 E.029
G1 Y.137 Z7.359 B-9.992 C10840.13 E.03
G1 X7.506 Y.159 Z7.362 B-9.993 C10845.919 E.03
G1 Y.154 Z7.366 B-9.993 C10851.867 E.03
G1 X7.507 Y.143 Z7.369 B-9.993 C10857.823 E.03
G1 X7.505 Y.152 Z7.373 B-10.005 C10865.256 E.038
G1 X7.511 Y.164 Z7.378 B-10.007 C10872.496 E.037
G1 Y.155 Z7.381 B-10.006 C10878.053 E.028
G1 X7.508 Y.146 Z7.384 B-10.003 C10885.284 E.036
G1 X7.506 Y.124 Z7.389 B-10.009 C10891.69 E.032
G1 X7.515 Y.138 Z7.393 B-10.003 C10899.653 E.041
G1 X7.506 Z7.399 B-10.004 C10908.729 E.046
G1 X7.508 Y.127 Z7.402 B-10.009 C10915.347 E.033
G1 X7.512 Y.122 Z7.405 B-10.005 C10921.971 E.033
G1 X7.507 Y.111 Z7.409 B-9.991 C10930.368 E.042
G1 Y.132 Z7.412 B-9.992 C10936.156 E.03
G1 Y.131 Z7.416 B-9.992 C10942.088 E.03
G1 Y.12 Z7.419 B-9.992 C10948.039 E.03
G1 Y.131 Z7.422 B-9.993 C10953.776 E.029
G1 X7.506 Y.135 Z7.427 B-10.004 C10961.103 E.037
G1 X7.512 Z7.431 B-10.005 C10968.245 E.036
G1 X7.509 Y.127 Z7.434 B-10.001 C10975.474 E.036
G1 X7.506 Y.129 Z7.439 B-10.008 C10981.727 E.032
G1 X7.514 Y.145 Z7.443 B-10.003 C10989.671 E.041
G1 X7.506 Y.123 Z7.449 B-10.008 C10998.899 E.046
G1 X7.508 Y.134 Z7.452 B-10.008 C11005.37 E.033
G1 X7.513 Y.115 Z7.455 B-10.005 C11012.082 E.033
G1 X7.507 Y.085 Z7.459 B-9.99 C11020.601 E.042
G1 Y.108 Z7.462 B-9.991 C11026.384 E.03
G1 Y.106 Z7.466 B-9.991 C11032.318 E.03
G1 Y.096 Z7.469 B-9.991 C11038.264 E.03
G1 Y.107 Z7.472 B-9.992 C11043.999 E.029
G1 X7.506 Y.117 Z7.477 B-10.003 C11051.286 E.037
G1 X7.513 Y.115 Z7.481 B-10.004 C11058.442 E.036
G1 X7.509 Y.111 Z7.484 B-10. C11065.638 E.036
G1 X7.512 Y.128 Z7.488 B-10.001 C11069.861 E.022
G1 X7.508 Y.133 Z7.491 B-9.99 C11077.544 E.039
G1 X7.516 Y.088 Z7.497 B-10. C11085.386 E.038
G1 X7.507 Y.096 Z7.5 B-9.994 C11093.384 E.041
G1 X7.506 Y.151 Z7.505 B-10.007 C11100.594 E.038
G1 X7.51 Z7.508 B-10.007 C11107.486 E.035
G1 Y.167 Z7.511 B-10.008 C11113.307 E.03
G1 X7.506 Y.154 Z7.516 B-9.995 C11121.997 E.043
G1 Y.118 Z7.519 B-9.994 C11128.518 E.032
G1 Y.119 Z7.522 B-9.994 C11134.303 E.029
G1 Y.129 Z7.526 B-9.998 C11140.452 E.031
G1 X7.508 Y.16 Z7.53 B-10.006 C11147.427 E.036
G1 X7.507 Y.109 Z7.536 B-10.011 C11155.619 E.04
G1 X7.508 Y.106 Z7.539 B-10.003 C11162.901 E.037
G1 X7.514 Y.146 Z7.543 B-10.002 C11169.713 E.036
G1 X7.506 Y.088 Z7.548 B-10.012 C11177.031 E.035
G1 X7.507 Y.079 Z7.549 B-9.992 C11183.305 E.031
G1 X7.506 Y.113 Z7.553 B-9.993 C11189.063 E.03
G1 Y.107 Z7.556 B-9.993 C11194.959 E.03
G1 Y.108 Z7.559 B-9.993 C11200.86 E.03
G1 Y.134 Z7.562 B-9.993 C11206.614 E.03
G1 Y.131 Z7.566 B-9.993 C11212.549 E.03
G1 Y.126 Z7.569 B-9.993 C11218.451 E.03
G1 Y.143 Z7.572 B-9.994 C11224.133 E.029
G1 Y.151 Z7.576 B-9.997 C11230.807 E.034
G1 X7.509 Y.128 Z7.581 B-10.004 C11237.625 E.034
G1 X7.508 Y.126 Z7.584 B-9.995 C11246.17 E.043
G1 X7.512 Y.131 Z7.591 B-10.006 C11254.715 E.043
G1 X7.507 Y.112 Z7.594 B-9.994 C11262.06 E.036
G1 X7.506 Y.114 Z7.597 B-10. C11268.093 E.031
G1 X7.515 Y.141 Z7.603 B-10.004 C11276.437 E.043
G1 X7.506 Y.099 Z7.607 B-10. C11284.611 E.04
G1 X7.504 Y.104 Z7.611 B-10.008 C11292.095 E.038
G1 X7.51 Y.126 Z7.615 B-10.008 C11299.487 E.038
G1 X7.511 Y.111 Z7.618 B-10.008 C11305.487 E.03
G1 X7.513 Y.133 Z7.62 B-10.003 C11311.58 E.032
G1 X7.512 Y.184 Z7.624 B-10.005 C11316.99 E.029
G1 X7.507 Y.142 Z7.629 B-9.993 C11325.4 E.041
G1 X7.511 Y.113 Z7.634 B-10.007 C11333.513 E.04
G1 X7.508 Y.136 Z7.637 B-9.997 C11340.812 E.038
G1 X7.506 Y.124 Z7.642 B-10.007 C11347.63 E.034
G1 X7.516 Y.111 Z7.645 B-10.001 C11355.253 E.038
G1 X7.506 Y.159 Z7.649 B-9.992 C11362.972 E.041
G1 Y.116 Z7.656 B-10.009 C11370.814 E.038
G1 X7.511 Y.082 Z7.659 B-10.008 C11377.93 E.035
G1 Y.095 Z7.662 B-10.008 C11383.764 E.03
G1 Y.102 Z7.665 B-10.008 C11389.645 E.03
G1 Y.088 Z7.668 B-10.008 C11395.63 E.03
G1 X7.514 Y.133 Z7.67 B-10.003 C11401.574 E.032
G1 X7.512 Y.203 Z7.673 B-10.005 C11406.859 E.029
G1 X7.507 Y.15 Z7.678 B-9.992 C11415.355 E.041
G1 X7.506 Y.094 Z7.683 B-10.013 C11422.184 E.033
G1 X7.512 Y.132 Z7.686 B-10.001 C11429.83 E.04
G1 X7.507 Y.086 Z7.693 B-10.009 C11438.319 E.041
G1 X7.516 Y.091 Z7.695 B-10.001 C11445.439 E.036
G1 X7.515 Y.15 Z7.698 B-10.001 C11450.601 E.028
G1 X7.504 Y.138 Z7.705 B-10.013 C11458.577 E.04
G1 Y.11 Z7.708 B-10.009 C11464.983 E.032
G1 X7.503 Y.166 Z7.711 B-10.013 C11472.065 E.038
G1 X7.509 Y.171 Z7.717 B-10.001 C11480.799 E.044
G1 X7.506 Y.103 Z7.719 B-9.999 C11489.63 E.042
G1 X7.505 Y.131 Z7.723 B-10. C11495.228 E.029
G1 X7.514 Y.164 Z7.728 B-10.002 C11503.066 E.041
G1 X7.506 Y.157 Z7.732 B-10.004 C11511.071 E.04
G1 X7.514 Y.091 Z7.738 B-10.001 C11519.127 E.039
G1 X7.508 Y.135 Z7.74 B-9.991 C11527.488 E.044
G1 X7.513 Y.137 Z7.747 B-10.003 C11534.788 E.037
G1 Y.082 Z7.75 B-10. C11541.6 E.033
G1 X7.512 Y.11 Z7.752 B-10.001 C11547.17 E.029
G1 Y.124 Z7.755 B-10.001 C11552.919 E.03
G1 X7.505 Y.103 Z7.759 B-9.997 C11560.894 E.04
G1 X7.504 Y.128 Z7.763 B-10.003 C11567.704 E.035
G1 X7.505 Y.115 Z7.767 B-10.003 C11573.693 E.03
G1 Y.109 Z7.77 B-10.003 C11579.597 E.03
G1 Y.133 Z7.773 B-10.004 C11585.22 E.029
G1 X7.506 Y.151 Z7.777 B-9.999 C11590.812 E.029
G1 X7.508 Y.12 Z7.781 B-10.005 C11597.494 E.033
G1 X7.509 Y.136 Z7.784 B-9.997 C11605.465 E.041
G1 X7.507 Y.11 Z7.789 B-10.006 C11612.717 E.036
G1 X7.511 Y.104 Z7.792 B-9.999 C11620.721 E.04
G1 X7.515 Y.139 Z7.795 B-10.001 C11625.129 E.024
G1 Y.148 Z7.799 B-10.002 C11630.638 E.028
G1 X7.503 Y.153 Z7.805 B-10.012 C11638.491 E.04
G1 X7.504 Y.129 Z7.809 B-10.012 C11646.403 E.039
G1 X7.509 Z7.813 B-10.002 C11655.153 E.044
G1 X7.503 Y.123 Z7.818 B-10.011 C11662.653 E.038
G1 X7.504 Y.109 Z7.821 B-10.007 C11669.594 E.035
G1 Y.132 Z7.824 B-10.008 C11675.228 E.029
G1 X7.505 Y.141 Z7.827 B-10.005 C11680.885 E.029
G1 X7.508 Y.103 Z7.831 B-10.006 C11687.605 E.033
G1 X7.509 Y.143 Z7.834 B-9.998 C11695.421 E.041
G1 X7.507 Y.109 Z7.84 B-10.008 C11702.728 E.036
G1 X7.51 Y.12 Z7.842 B-10. C11710.62 E.04
G1 X7.506 Y.165 Z7.846 B-9.99 C11717.63 E.037
G1 X7.503 Y.154 Z7.852 B-10.012 C11724.032 E.032
G1 Y.175 Z7.856 B-10.014 C11729.947 E.031
G1 X7.504 Y.128 Z7.859 B-10.012 C11736.408 E.031
G1 X7.509 Y.109 Z7.863 B-10.003 C11745.289 E.044
G1 X7.503 Y.107 Z7.868 B-10.011 C11752.76 E.038
G1 X7.504 Y.112 Z7.872 B-10.011 C11759.586 E.035
G1 X7.507 Y.132 Z7.875 B-10.009 C11766.246 E.035
G1 X7.513 Y.106 Z7.879 B-10. C11773.86 E.038
G1 X7.508 Y.094 Z7.881 B-9.991 C11781.496 E.038
G1 X7.51 Y.161 Z7.887 B-10.002 C11788.078 E.036
G1 X7.511 Y.137 Z7.888 B-10.007 C11789.81 E.008
G1 X7.508 Y.065 Z7.89 B-9.992 C11797.668 E.038
G1 X7.514 Y.16 Z7.895 B-10.001 C11805.062 E.041
G1 X7.504 Y.153 Z7.901 B-10.014 C11812.525 E.038
G1 X7.503 Y.141 Z7.905 B-10.012 C11818.642 E.031
G1 X7.504 Y.123 Z7.908 B-10.011 C11824.621 E.03
G1 Y.104 Z7.911 B-10.011 C11830.655 E.03
G1 Y.115 Z7.914 B-10.011 C11836.506 E.03
G1 Y.107 Z7.918 B-10.011 C11842.477 E.03
G1 Y.094 Z7.921 B-10.011 C11848.432 E.03
G1 X7.505 Y.118 Z7.925 B-10.011 C11855.711 E.038
G1 X7.513 Y.102 Z7.929 B-10.001 C11863.892 E.041
G1 X7.508 Y.145 Z7.933 B-10.001 C11872.497 E.045
G1 X7.51 Y.079 Z7.937 B-9.998 C11880.703 E.04
G1 X7.507 Y.138 Z7.94 B-9.993 C11887.203 E.035
G1 X7.505 Y.142 Z7.946 B-10.013 C11893.087 E.03
G1 X7.511 Z7.95 B-10.002 C11901.228 E.041
G1 X7.503 Y.147 Z7.955 B-10.012 C11908.608 E.038
G1 Y.134 Z7.958 B-10.012 C11914.551 E.03
G1 Y.118 Z7.961 B-10.012 C11920.565 E.03
G1 Y.128 Z7.964 B-10.012 C11926.426 E.03
G1 X7.504 Y.12 Z7.968 B-10.012 C11932.396 E.03
G1 Y.108 Z7.971 B-10.011 C11938.343 E.03
G1 Y.133 Z7.975 B-10.012 C11945.622 E.038
G1 X7.512 Y.116 Z7.979 B-10.002 C11953.801 E.041
G1 X7.507 Y.108 Z7.982 B-10. C11961.413 E.038
G1 X7.516 Y.115 Z7.988 B-10.002 C11969.263 E.04
G1 X7.508 Y.11 Z7.99 B-9.991 C11977.378 E.041
G1 X7.514 Y.151 Z7.996 B-10.001 C11985.125 E.041
G1 X7.504 Y.153 Z8.001 B-10.013 C11992.523 E.038
G1 X7.503 Y.156 Z8.005 B-10.013 C11998.549 E.031
G1 Y.145 Z8.008 B-10.013 C12004.475 E.03
G1 Y.131 Z8.011 B-10.013 C12010.479 E.03
G1 Y.138 Z8.014 B-10.013 C12016.364 E.03
G1 Y.133 Z8.018 B-10.013 C12022.31 E.03
G1 X7.504 Y.123 Z8.021 B-10.012 C12028.248 E.03
G1 Y.147 Z8.025 B-10.012 C12035.527 E.038
G1 X7.512 Y.133 Z8.029 B-10.003 C12043.694 E.041
G1 X7.506 Y.128 Z8.033 B-10.006 C12051.283 E.039
G1 X7.516 Y.09 Z8.038 B-10.001 C12059.424 E.04
G1 X7.508 Y.133 Z8.04 B-9.991 C12067.232 E.041
G1 X7.514 Y.14 Z8.046 B-10.001 C12075.199 E.041
G1 X7.504 Y.141 Z8.051 B-10.012 C12082.597 E.038
G1 X7.503 Y.163 Z8.054 B-10.013 C12088.503 E.031
G1 Y.157 Z8.058 B-10.013 C12094.399 E.03
G1 Y.146 Z8.061 B-10.013 C12100.382 E.03
G1 Y.151 Z8.064 B-10.013 C12106.277 E.03
G1 Y.147 Z8.068 B-10.013 C12112.218 E.03
G1 Y.137 Z8.071 B-10.013 C12118.154 E.03
G1 X7.504 Y.161 Z8.075 B-10.013 C12125.434 E.038
G1 X7.511 Y.151 Z8.079 B-10.004 C12133.573 E.041
G1 X7.505 Y.148 Z8.083 B-10.011 C12141.155 E.039
G1 X7.516 Y.095 Z8.088 B-10.001 C12149.392 E.04
G1 X7.512 Y.093 Z8.087 B-10. C12150.094 E.004
G1 X7.507 Y.175 Z8.09 B-9.991 C12156.964 E.038
G1 X7.513 Y.174 Z8.097 B-10.002 C12165.064 E.041
G1 X7.504 Y.161 Z8.101 B-10.013 C12172.558 E.038
G1 X7.503 Y.169 Z8.104 B-10.013 C12178.282 E.029
G1 Y.164 Z8.108 B-10.013 C12184.174 E.03
G1 Y.151 Z8.111 B-10.013 C12190.165 E.03
G1 Z8.114 B-10.013 C12196.088 E.03
G1 Y.145 Z8.118 B-10.013 C12202.046 E.03
G1 X7.504 Y.134 Z8.121 B-10.012 C12207.994 E.03
G1 Y.141 Z8.124 B-10.012 C12213.747 E.03
G1 Y.144 Z8.127 B-10.012 C12219.43 E.029
G1 X7.505 Y.138 Z8.13 B-10.011 C12225.048 E.028
G1 Y.173 Z8.133 B-10.011 C12231.909 E.036
G1 X7.509 Y.124 Z8.137 B-9.998 C12240.516 E.042
G1 X7.507 Y.164 Z8.14 B-9.991 C12247.036 E.035
G1 X7.513 Y.154 Z8.147 B-10.002 C12255.193 E.041
G1 X7.504 Z8.151 B-10.013 C12262.605 E.038
G1 X7.503 Y.161 Z8.154 B-10.013 C12268.333 E.03
G1 Y.155 Z8.158 B-10.013 C12274.231 E.03
G1 Y.14 Z8.161 B-10.013 C12280.236 E.03
G1 Y.141 Z8.164 B-10.013 C12286.157 E.03
G1 X7.504 Y.131 Z8.168 B-10.013 C12292.136 E.03
G1 Y.119 Z8.171 B-10.012 C12298.09 E.03
G1 Y.127 Z8.174 B-10.012 C12303.839 E.03
G1 X7.505 Y.131 Z8.177 B-10.012 C12309.514 E.029
G1 Y.126 Z8.18 B-10.011 C12315.13 E.029
G1 X7.506 Y.121 Z8.183 B-10.011 C12322.245 E.036
G1 X7.516 Y.094 Z8.186 B-10.001 C12329.321 E.035
G1 X7.506 Y.154 Z8.191 B-10.002 C12337.1 E.042
G1 X7.513 Y.156 Z8.197 B-10.002 C12345.184 E.041
G1 X7.504 Y.146 Z8.201 B-10.012 C12352.658 E.038
G1 X7.503 Y.155 Z8.204 B-10.013 C12358.373 E.03
G1 Y.146 Z8.208 B-10.013 C12364.289 E.03
G1 Y.127 Z8.211 B-10.013 C12370.315 E.03
G1 Z8.214 B-10.013 C12376.245 E.03
G1 X7.504 Y.117 Z8.218 B-10.012 C12382.229 E.03
G1 Y.103 Z8.221 B-10.012 C12388.19 E.03
G1 Y.113 Z8.224 B-10.012 C12393.931 E.03
G1 X7.505 Y.117 Z8.227 B-10.011 C12399.608 E.029
G1 Y.113 Z8.23 B-10.011 C12405.214 E.029
G1 X7.506 Y.099 Z8.233 B-10.01 C12412.387 E.036
G1 X7.516 Y.088 Z8.236 B-10. C12419.359 E.035
G1 X7.514 Y.122 Z8.24 B-10.001 C12424.57 E.028
G1 X7.505 Y.151 Z8.244 B-10.012 C12431.422 E.036
G1 X7.504 Y.139 Z8.248 B-10.012 C12437.038 E.028
G1 Y.138 Z8.251 B-10.012 C12442.71 E.029
G1 X7.503 Y.147 Z8.254 B-10.013 C12448.425 E.03
G1 Y.137 Z8.258 B-10.013 C12454.349 E.03
G1 X7.504 Y.117 Z8.261 B-10.013 C12460.383 E.03
G1 Z8.264 B-10.013 C12466.309 E.03
G1 Y.104 Z8.268 B-10.012 C12472.313 E.03
G1 Y.087 Z8.271 B-10.012 C12478.293 E.03
G1 X7.505 Y.098 Z8.274 B-10.012 C12484.029 E.03
G1 Y.104 Z8.277 B-10.011 C12489.689 E.029
G1 X7.506 Y.101 Z8.28 B-10.011 C12495.285 E.029
G1 Y.076 Z8.283 B-10.01 C12502.534 E.036
G1 X7.512 Y.105 Z8.285 B-10. C12510.015 E.039
G1 X7.505 Y.126 Z8.291 B-10.011 C12516.811 E.036
G1 X7.504 Y.151 Z8.295 B-10.012 C12522.043 E.028
G1 X7.503 Y.152 Z8.298 B-10.012 C12527.585 E.028
G1 X7.504 Y.155 Z8.302 B-10.013 C12534.518 E.036
G1 X7.51 Y.14 Z8.307 B-10.005 C12542.932 E.043
G1 X7.503 Y.12 Z8.311 B-10.013 C12550.651 E.039
G1 Y.122 Z8.314 B-10.013 C12556.563 E.03
G1 Y.111 Z8.318 B-10.013 C12562.546 E.03
G1 X7.505 Y.112 Z8.322 B-10.012 C12570.075 E.039
G1 X7.511 Y.114 Z8.326 B-10.003 C12578.294 E.042
G1 X7.505 Y.113 Z8.329 B-10.007 C12585.826 E.039
G1 Y.15 Z8.332 B-10.006 C12591.566 E.031
G1 Y.147 Z8.336 B-10.013 C12597.124 E.028
G1 X7.51 Y.152 Z8.338 B-10. C12604.986 E.04
G1 X7.504 Y.169 Z8.344 B-10.013 C12611.224 E.033
G1 Y.16 Z8.349 B-10.012 C12618.764 E.038
G1 X7.51 Y.155 Z8.353 B-10.004 C12626.979 E.042
G1 X7.503 Y.146 Z8.358 B-10.013 C12634.56 E.039
G1 Y.132 Z8.361 B-10.012 C12640.559 E.03
G1 Y.137 Z8.364 B-10.012 C12646.448 E.03
G1 Y.129 Z8.367 B-10.012 C12652.417 E.03
G1 X7.504 Y.132 Z8.371 B-10.012 C12659.931 E.039
G1 X7.511 Y.131 Z8.376 B-10.003 C12668.173 E.042
G1 X7.506 Y.111 Z8.379 B-10.002 C12675.818 E.039
G1 Y.13 Z8.382 B-10.001 C12681.684 E.031
G1 X7.513 Y.123 Z8.385 B-10.001 C12688.75 E.036
G1 X7.508 Y.118 Z8.39 B-10.003 C12695.898 E.037
G1 X7.509 Y.148 Z8.394 B-10.002 C12703.995 E.043
G1 X7.511 Y.165 Z8.4 B-10.003 C12711.143 E.037
G1 X7.503 Y.167 Z8.404 B-10.012 C12718.546 E.038
G1 Y.156 Z8.408 B-10.012 C12724.477 E.03
G1 Y.143 Z8.411 B-10.012 C12730.468 E.03
G1 Y.149 Z8.414 B-10.012 C12736.35 E.03
G1 Y.146 Z8.417 B-10.012 C12742.29 E.03
G1 Y.136 Z8.42 B-10.011 C12748.224 E.03
G1 X7.504 Y.154 Z8.424 B-10.012 C12755.537 E.038
G1 X7.512 Y.125 Z8.429 B-10.002 C12763.799 E.041
G1 X7.515 Y.126 Z8.43 B-10.002 C12768.658 E.025
G1 X7.508 Y.123 Z8.434 B-9.992 C12776.381 E.04
G1 Y.125 Z8.439 B-10.007 C12783.176 E.035
G1 X7.509 Y.127 Z8.442 B-10. C12790.981 E.04
G1 X7.506 Y.169 Z8.447 B-10.003 C12798.844 E.042
G1 X7.51 Y.184 Z8.453 B-10.003 C12806.756 E.041
G1 X7.503 Y.166 Z8.457 B-10.012 C12814.394 E.039
G1 Y.155 Z8.46 B-10.011 C12820.373 E.03
G1 X7.502 Y.164 Z8.464 B-10.011 C12826.236 E.03
